( pcb2gcode 1.3.2 )
( Software-independent Gcode )

G94 ( Millimeters per minute feed rate. )
G21 ( Units == Millimeters. )

G90 ( Absolute coordinates. )
S15000 ( RPM spindle speed. )
G64 P0.01016 ( set maximum deviation from commanded toolpath )
F100.00000 ( Feedrate. )

F100.00000 ( Feedrate. )
M3 ( Spindle on clockwise. )
G04 P0 ( dwell for no time -- G64 should not smooth over this point )
G00 Z2.00000 ( retract )

G00 X6.97750 Y51.57360 ( rapid move to begin. )
F50.00000
G01 Z-0.30000
G04 P0 ( dwell for no time -- G64 should not smooth over this point )
F100.00000
G01 X6.97750 Y51.57360
X6.97379 Y52.24822
X6.58505 Y52.44820
X6.33755 Y52.53707
X6.10666 Y52.59374
X5.84652 Y52.62722
X5.63300 Y52.63067
X5.41616 Y52.61198
X5.28721 Y52.58886
X5.21098 Y52.53733
X4.91845 Y52.27975
X4.75335 Y52.08206
X4.63075 Y51.89781
X4.60951 Y51.66827
X4.61675 Y51.07487
X4.64863 Y50.85013
X4.70562 Y50.61831
X4.83044 Y50.28526
X5.08988 Y49.81940
X5.33407 Y49.48874
X5.51700 Y49.27660
X5.99544 Y48.80658
X6.19897 Y48.63182
X6.97110 Y48.05456
X6.97750 Y51.57360
G04 P0 ( dwell for no time -- G64 should not smooth over this point )
G00 Z2.00000 ( retract )

G00 X9.51748 Y51.57360 ( rapid move to begin. )
F50.00000
G01 Z-0.30000
G04 P0 ( dwell for no time -- G64 should not smooth over this point )
F100.00000
G01 X9.51748 Y51.57360
X9.51377 Y52.24820
X9.12502 Y52.44820
X8.82136 Y52.55318
X8.60110 Y52.60192
X8.38649 Y52.62722
X8.17298 Y52.63067
X7.95614 Y52.61198
X7.73122 Y52.56900
X7.49282 Y52.49717
X7.23430 Y52.38874
X6.97379 Y52.24822
X6.97110 Y48.05456
X7.48380 Y47.37302
X8.16632 Y47.98509
X8.74285 Y48.60635
X9.13371 Y49.12748
X9.30739 Y49.40513
X9.51539 Y49.80492
X9.51748 Y51.57360
G04 P0 ( dwell for no time -- G64 should not smooth over this point )
G00 Z2.00000 ( retract )

G00 X28.82148 Y51.57360 ( rapid move to begin. )
F50.00000
G01 Z-0.30000
G04 P0 ( dwell for no time -- G64 should not smooth over this point )
F100.00000
G01 X28.82148 Y51.57360
X28.81777 Y52.24820
X28.42902 Y52.44820
X28.12536 Y52.55318
X27.73037 Y52.62417
X27.51576 Y52.63166
X27.30223 Y52.61736
X27.03522 Y52.56900
X26.62209 Y52.42737
X26.25069 Y52.23080
X25.92181 Y52.00200
X25.51879 Y51.65120
X25.51783 Y51.16966
X25.71148 Y50.78816
X26.02390 Y50.32649
X26.39560 Y49.92509
X26.82026 Y49.58788
X27.15158 Y49.38653
X27.36118 Y49.28062
X27.79377 Y49.10431
X28.31630 Y48.95219
X28.82305 Y48.85288
X28.82148 Y51.57360
G04 P0 ( dwell for no time -- G64 should not smooth over this point )
G00 Z2.00000 ( retract )

G00 X36.44148 Y51.57360 ( rapid move to begin. )
F50.00000
G01 Z-0.30000
G04 P0 ( dwell for no time -- G64 should not smooth over this point )
F100.00000
G01 X36.44148 Y51.57360
X36.43777 Y52.24820
X36.04902 Y52.44820
X35.74536 Y52.55318
X35.52510 Y52.60192
X35.31049 Y52.62722
X35.09698 Y52.63067
X34.88014 Y52.61198
X34.65522 Y52.56900
X34.41682 Y52.49717
X34.15830 Y52.38874
X33.89777 Y52.24820
X33.89980 Y47.91559
X33.80574 Y47.67112
X33.82345 Y47.46759
X33.92340 Y46.92243
X34.01568 Y46.64227
X34.12088 Y46.41075
X34.23711 Y46.21430
X34.39510 Y46.00777
X34.53686 Y45.86195
X34.71654 Y45.71532
X35.05095 Y45.66350
X35.24819 Y45.66137
X35.49035 Y45.68713
X35.64326 Y45.72919
X35.80279 Y45.86193
X35.94453 Y46.00775
X36.10254 Y46.21430
X36.29035 Y46.56089
X36.41623 Y46.92243
X36.49040 Y47.27165
X36.53391 Y47.67109
X36.43980 Y47.91559
X36.44148 Y51.57360
G04 P0 ( dwell for no time -- G64 should not smooth over this point )
G00 Z2.00000 ( retract )

G00 X41.52148 Y51.57360 ( rapid move to begin. )
F50.00000
G01 Z-0.30000
G04 P0 ( dwell for no time -- G64 should not smooth over this point )
F100.00000
G01 X41.52148 Y51.57360
X41.51851 Y51.93306
X41.40161 Y52.11764
X41.12196 Y52.45140
X40.82536 Y52.55318
X40.60510 Y52.60192
X40.39049 Y52.62722
X40.17698 Y52.63067
X39.96014 Y52.61198
X39.73522 Y52.56900
X39.49682 Y52.49717
X39.23830 Y52.38874
X38.97777 Y52.24820
X38.97980 Y48.42359
X38.88574 Y48.17912
X38.96050 Y47.60922
X39.03769 Y47.31402
X39.12928 Y47.06889
X39.23286 Y46.85977
X39.34780 Y46.67760
X39.47510 Y46.51577
X39.73644 Y46.26782
X39.95882 Y46.11565
X40.17142 Y46.00485
X40.42514 Y45.90572
X40.73669 Y45.82157
X41.13217 Y45.75992
X41.65594 Y45.73622
X42.38716 Y45.78344
X43.04713 Y45.88245
X44.02526 Y46.10965
X43.57588 Y46.83716
X42.87161 Y48.04234
X42.56623 Y48.47716
X42.22163 Y48.69304
X42.07918 Y48.87703
X41.75427 Y49.36093
X41.51934 Y49.80612
X41.52148 Y51.57360
G04 P0 ( dwell for no time -- G64 should not smooth over this point )
G00 Z2.00000 ( retract )

G00 X46.59736 Y53.96580 ( rapid move to begin. )
F50.00000
G01 Z-0.30000
G04 P0 ( dwell for no time -- G64 should not smooth over this point )
F100.00000
G01 X46.59736 Y53.96580
X44.05734 Y53.96580
X44.06112 Y50.91866
X44.28426 Y50.59314
X44.45287 Y50.40543
X44.70006 Y50.18801
X44.93265 Y50.02923
X45.35256 Y49.99791
X45.69917 Y50.02458
X46.14633 Y50.12862
X46.59866 Y50.31445
X46.59736 Y53.96580
G04 P0 ( dwell for no time -- G64 should not smooth over this point )
G00 Z2.00000 ( retract )

G00 X49.13736 Y53.96580 ( rapid move to begin. )
F50.00000
G01 Z-0.30000
G04 P0 ( dwell for no time -- G64 should not smooth over this point )
F100.00000
G01 X49.13736 Y53.96580
X46.59734 Y53.96580
X46.59866 Y50.31445
X46.91143 Y50.17805
X47.19109 Y50.08821
X47.45794 Y50.03111
X47.89256 Y49.99791
X48.23917 Y50.02458
X48.51161 Y50.07863
X48.80036 Y50.16771
X49.13866 Y50.31445
X49.13736 Y53.96580
G04 P0 ( dwell for no time -- G64 should not smooth over this point )
G00 Z2.00000 ( retract )

G00 X51.27132 Y53.96580 ( rapid move to begin. )
F50.00000
G01 Z-0.30000
G04 P0 ( dwell for no time -- G64 should not smooth over this point )
F100.00000
G01 X51.27132 Y53.96580
X51.50789 Y52.85407
X51.59789 Y52.13779
X51.61315 Y51.11536
X51.59476 Y50.66987
X51.54373 Y50.24932
X51.34036 Y50.16771
X51.05161 Y50.07863
X50.77917 Y50.02458
X50.51651 Y50.00005
X50.17267 Y50.00886
X49.90581 Y50.04764
X49.45143 Y50.17805
X49.13866 Y50.31445
X48.80036 Y50.16771
X48.51161 Y50.07863
X48.23917 Y50.02458
X47.97651 Y50.00005
X47.63267 Y50.00886
X47.36581 Y50.04764
X46.91143 Y50.17805
X46.59866 Y50.31445
X46.14633 Y50.12862
X45.69917 Y50.02458
X45.35256 Y49.99791
X45.09267 Y50.00886
X44.91941 Y50.03680
X44.70006 Y50.18801
X44.45287 Y50.40543
X44.28426 Y50.59314
X44.06112 Y50.91866
X44.05736 Y53.96580
X4.68980 Y53.96580
X3.16580 Y52.44180
X3.16580 Y41.01180
X0.62580 Y38.47180
X0.62580 Y5.70580
X3.16580 Y3.16580
X3.16580 Y0.62580
X69.20580 Y0.62580
X69.20580 Y53.96580
X51.27132 Y53.96580
G04 P0 ( dwell for no time -- G64 should not smooth over this point )
G00 Z2.00000 ( retract )

G00 X51.27134 Y53.96580 ( rapid move to begin. )
F50.00000
G01 Z-0.30000
G04 P0 ( dwell for no time -- G64 should not smooth over this point )
F100.00000
G01 X51.27134 Y53.96580
X49.13734 Y53.96580
X49.13866 Y50.31445
X49.45143 Y50.17805
X49.73109 Y50.08821
X49.99794 Y50.03111
X50.25786 Y50.00236
X50.69126 Y50.01335
X50.95389 Y50.05590
X51.22633 Y50.12862
X51.54373 Y50.24932
X51.59476 Y50.66987
X51.61315 Y51.11536
X51.59789 Y52.13779
X51.50789 Y52.85407
X51.27134 Y53.96580
G04 P0 ( dwell for no time -- G64 should not smooth over this point )
G00 Z2.00000 ( retract )

G00 X61.10638 Y43.80651 ( rapid move to begin. )
F50.00000
G01 Z-0.30000
G04 P0 ( dwell for no time -- G64 should not smooth over this point )
F100.00000
G01 X61.10638 Y43.80651
X61.09804 Y44.13204
X61.05494 Y44.46109
X60.97371 Y44.80133
X60.90818 Y45.00242
X60.66289 Y45.55151
X60.40008 Y45.98591
X60.15273 Y46.32492
X59.63323 Y46.91572
X59.31598 Y47.22814
X58.35756 Y47.50825
X57.89610 Y47.41786
X57.28421 Y47.25667
X56.02119 Y46.28705
X54.93420 Y45.37783
X55.36897 Y44.80384
X55.73669 Y44.37100
X56.16991 Y43.90425
X56.60316 Y43.49975
X57.02929 Y43.15309
X57.53135 Y42.81395
X57.97603 Y42.57608
X58.17047 Y42.48982
X60.43726 Y42.48982
X61.10051 Y43.69450
X61.10638 Y43.80651
G04 P0 ( dwell for no time -- G64 should not smooth over this point )
G00 Z2.00000 ( retract )

G00 X61.10638 Y41.00649 ( rapid move to begin. )
F50.00000
G01 Z-0.30000
G04 P0 ( dwell for no time -- G64 should not smooth over this point )
F100.00000
G01 X61.10638 Y41.00649
X61.10051 Y41.28513
X60.43726 Y42.48982
X58.17047 Y42.48982
X57.69025 Y42.72221
X57.02929 Y43.15309
X56.60316 Y43.49975
X56.16991 Y43.90425
X55.73669 Y44.37100
X55.36897 Y44.80384
X54.93420 Y45.37783
X54.17820 Y45.34265
X53.30393 Y45.35507
X52.36260 Y45.25334
X51.93383 Y45.24181
X46.03186 Y45.24181
X44.66940 Y45.80617
X44.02526 Y46.10965
X43.04713 Y45.88245
X42.64253 Y45.81707
X42.38716 Y45.78344
X41.65594 Y45.73622
X41.13217 Y45.75992
X40.73669 Y45.82157
X40.42514 Y45.90572
X40.10251 Y46.03762
X39.90779 Y46.14687
X39.61686 Y46.36995
X39.44406 Y46.55212
X39.31711 Y46.72230
X39.20088 Y46.91875
X39.09568 Y47.15027
X39.00340 Y47.43043
X38.92923 Y47.77965
X38.88574 Y48.17912
X38.97980 Y48.42359
X38.97777 Y52.24820
X38.76375 Y52.36793
X38.51628 Y52.47736
X38.28536 Y52.55318
X38.06510 Y52.60192
X37.85049 Y52.62722
X37.63698 Y52.63067
X37.24539 Y52.58066
X37.02050 Y52.51899
X36.78209 Y52.42737
X36.43777 Y52.24820
X36.43980 Y47.91559
X36.53391 Y47.67109
X36.49040 Y47.27165
X36.41623 Y46.92243
X36.29035 Y46.56089
X36.10254 Y46.21430
X35.94453 Y46.00775
X35.80279 Y45.86193
X35.64326 Y45.72919
X35.49035 Y45.68713
X35.24819 Y45.66137
X35.05095 Y45.66350
X34.71654 Y45.71532
X34.53686 Y45.86195
X34.39510 Y46.00777
X34.23711 Y46.21430
X34.12088 Y46.41075
X34.01568 Y46.64227
X33.92340 Y46.92243
X33.82345 Y47.46759
X33.80574 Y47.67112
X33.89980 Y47.91559
X33.89777 Y52.24820
X33.50902 Y52.44820
X33.26152 Y52.53707
X32.98510 Y52.60192
X32.59576 Y52.63166
X32.34014 Y52.61198
X31.94050 Y52.51899
X31.61830 Y52.38874
X31.35777 Y52.24820
X30.96902 Y52.44820
X30.66536 Y52.55318
X30.27037 Y52.62417
X30.05576 Y52.63166
X29.84223 Y52.61736
X29.57522 Y52.56900
X29.33682 Y52.49717
X29.07830 Y52.38874
X28.81777 Y52.24820
X28.82305 Y48.85288
X29.44982 Y48.45260
X29.84888 Y48.25098
X30.14840 Y48.12009
X30.63318 Y46.96749
X30.82229 Y46.61712
X31.03090 Y46.30793
X31.36618 Y45.92037
X33.41329 Y43.88131
X33.68972 Y43.65693
X33.96863 Y43.47080
X34.31898 Y43.28169
X36.09317 Y42.54890
X36.70762 Y42.36564
X37.47942 Y42.21665
X37.93208 Y42.34769
X43.33280 Y40.11061
X43.70125 Y39.98714
X43.94334 Y39.93697
X44.31200 Y39.90781
X46.97722 Y39.90781
X47.22390 Y40.00593
X47.55184 Y40.10288
X47.86564 Y40.16115
X48.17242 Y40.18549
X48.63599 Y40.16115
X49.12093 Y40.05688
X49.62900 Y39.86123
X50.01481 Y39.65361
X50.29332 Y39.47205
X50.45009 Y39.35816
X50.95791 Y38.93144
X51.55064 Y38.32115
X54.28919 Y39.45549
X54.72775 Y39.60225
X55.01289 Y39.66098
X55.44482 Y39.69481
X60.43993 Y39.69481
X61.10102 Y40.90425
X61.10638 Y41.00649
G04 P0 ( dwell for no time -- G64 should not smooth over this point )
G00 Z2.00000 ( retract )

G00 X61.10638 Y38.21650 ( rapid move to begin. )
F50.00000
G01 Z-0.30000
G04 P0 ( dwell for no time -- G64 should not smooth over this point )
F100.00000
G01 X61.10638 Y38.21650
X61.10051 Y38.49514
X60.43993 Y39.69481
X55.44482 Y39.69481
X55.01289 Y39.66098
X54.72775 Y39.60225
X54.28919 Y39.45549
X51.55064 Y38.32115
X51.44218 Y38.10423
X48.96606 Y35.63391
X48.16906 Y31.72467
X48.89507 Y31.41227
X49.31133 Y31.26452
X49.85143 Y31.09980
X50.39151 Y30.97423
X51.27533 Y30.84227
X52.13919 Y30.80511
X53.00306 Y30.85876
X53.88688 Y31.00755
X54.27019 Y31.09980
X55.07126 Y31.35421
X55.12813 Y31.43983
X55.83298 Y33.98321
X55.98924 Y34.23482
X56.07039 Y34.58153
X56.25345 Y35.20300
X56.48322 Y35.79296
X56.72023 Y36.00759
X57.28266 Y36.45130
X57.76534 Y36.75412
X58.19874 Y36.96482
X60.47077 Y36.96482
X61.10305 Y38.15323
X61.10638 Y38.21650
G04 P0 ( dwell for no time -- G64 should not smooth over this point )
G00 Z2.00000 ( retract )

G00 X61.10638 Y35.54651 ( rapid move to begin. )
F50.00000
G01 Z-0.30000
G04 P0 ( dwell for no time -- G64 should not smooth over this point )
F100.00000
G01 X61.10638 Y35.54651
X61.10460 Y35.74717
X60.47077 Y36.96482
X58.19874 Y36.96482
X57.76534 Y36.75412
X57.28266 Y36.45130
X56.72023 Y36.00759
X56.48322 Y35.79296
X56.25345 Y35.20300
X56.07039 Y34.58153
X55.98924 Y34.23482
X60.44013 Y34.23482
X61.10203 Y35.46375
X61.10638 Y35.54651
G04 P0 ( dwell for no time -- G64 should not smooth over this point )
G00 Z2.00000 ( retract )

G00 X61.10638 Y32.75649 ( rapid move to begin. )
F50.00000
G01 Z-0.30000
G04 P0 ( dwell for no time -- G64 should not smooth over this point )
F100.00000
G01 X61.10638 Y32.75649
X61.09949 Y33.05464
X60.44013 Y34.23482
X55.98924 Y34.23482
X55.83298 Y33.98321
X55.12813 Y31.43983
X60.43742 Y31.43981
X61.09949 Y32.62502
X61.10638 Y32.75649
G04 P0 ( dwell for no time -- G64 should not smooth over this point )
G00 Z2.00000 ( retract )

G00 X61.10638 Y29.95650 ( rapid move to begin. )
F50.00000
G01 Z-0.30000
G04 P0 ( dwell for no time -- G64 should not smooth over this point )
F100.00000
G01 X61.10638 Y29.95650
X61.10152 Y30.21565
X60.43742 Y31.43981
X55.12813 Y31.43983
X55.07126 Y31.35421
X55.40954 Y30.91629
X55.90667 Y30.34339
X56.61215 Y29.65071
X57.03658 Y29.30547
X57.53714 Y28.96727
X57.98047 Y28.73009
X58.17262 Y28.64482
X60.44013 Y28.64482
X61.10203 Y29.87375
X61.10638 Y29.95650
G04 P0 ( dwell for no time -- G64 should not smooth over this point )
G00 Z2.00000 ( retract )

G00 X61.10638 Y27.16649 ( rapid move to begin. )
F50.00000
G01 Z-0.30000
G04 P0 ( dwell for no time -- G64 should not smooth over this point )
F100.00000
G01 X61.10638 Y27.16649
X61.09949 Y27.46463
X60.44013 Y28.64482
X58.17262 Y28.64482
X57.98047 Y28.73009
X57.53714 Y28.96727
X57.19546 Y29.19003
X56.61215 Y29.65071
X56.45330 Y29.79374
X55.74779 Y30.51982
X55.40954 Y30.91629
X55.07126 Y31.35421
X54.27019 Y31.09980
X53.88688 Y31.00755
X53.00306 Y30.85876
X52.13919 Y30.80511
X51.27533 Y30.84227
X50.39151 Y30.97423
X49.85143 Y31.09980
X49.31133 Y31.26452
X48.89507 Y31.41227
X48.16906 Y31.72467
X47.65349 Y31.61260
X47.10610 Y31.28360
X46.72515 Y31.07623
X46.34420 Y30.89401
X45.35091 Y30.51154
X44.72691 Y30.34385
X43.97964 Y30.21675
X43.24919 Y30.17011
X42.51878 Y30.20026
X41.77151 Y30.31052
X41.21251 Y30.44392
X36.03340 Y32.59373
X35.77338 Y32.72291
X35.58575 Y32.84814
X35.39843 Y33.01082
X18.67893 Y49.73032
X18.24857 Y49.89842
X17.99541 Y50.03677
X17.77606 Y50.18801
X17.52887 Y50.40543
X17.36026 Y50.59314
X17.13712 Y50.91864
X17.13377 Y52.24820
X16.74502 Y52.44820
X16.49752 Y52.53707
X16.22110 Y52.60192
X15.83176 Y52.63166
X15.57614 Y52.61198
X15.17650 Y52.51899
X14.85430 Y52.38874
X14.59377 Y52.24820
X14.59712 Y50.91864
X14.82026 Y50.59314
X14.98887 Y50.40543
X15.23606 Y50.18801
X15.45541 Y50.03677
X15.70857 Y49.89842
X16.13893 Y49.73032
X39.25445 Y26.61482
X39.44178 Y26.45214
X39.62941 Y26.32691
X39.88943 Y26.19773
X43.94027 Y24.51981
X44.96369 Y24.51981
X45.46909 Y24.99992
X45.86483 Y25.32184
X46.33843 Y25.64228
X46.91499 Y25.93708
X47.29721 Y26.07482
X47.65400 Y26.16189
X48.17242 Y26.21698
X48.66299 Y26.19123
X49.00439 Y26.12857
X49.20442 Y26.07482
X49.63662 Y25.91480
X60.47077 Y25.91480
X61.03325 Y26.99163
X61.10460 Y27.13248
X61.10638 Y27.16649
G04 P0 ( dwell for no time -- G64 should not smooth over this point )
G00 Z2.00000 ( retract )

G00 X61.10638 Y24.49649 ( rapid move to begin. )
F50.00000
G01 Z-0.30000
G04 P0 ( dwell for no time -- G64 should not smooth over this point )
F100.00000
G01 X61.10638 Y24.49649
X61.10305 Y24.72641
X60.47077 Y25.91480
X49.63662 Y25.91480
X49.36121 Y26.02387
X49.00439 Y26.12857
X48.66299 Y26.19123
X48.32919 Y26.21698
X47.83863 Y26.19123
X47.49723 Y26.12857
X47.14041 Y26.02387
X46.75820 Y25.86725
X46.33843 Y25.64228
X45.86483 Y25.32184
X45.46909 Y24.99992
X44.96369 Y24.51981
X45.27283 Y24.23708
X45.86325 Y23.77043
X46.21258 Y23.54269
X46.66114 Y23.30297
X47.06960 Y23.13627
X47.45088 Y23.02499
X47.81572 Y22.95862
X48.17242 Y22.93162
X48.52911 Y22.94214
X48.89395 Y22.99167
X49.27526 Y23.08532
X49.56792 Y23.18481
X60.44064 Y23.18481
X61.09845 Y24.34551
X61.10638 Y24.49649
G04 P0 ( dwell for no time -- G64 should not smooth over this point )
G00 Z2.00000 ( retract )

G00 X61.19538 Y21.76157 ( rapid move to begin. )
F50.00000
G01 Z-0.30000
G04 P0 ( dwell for no time -- G64 should not smooth over this point )
F100.00000
G01 X61.19538 Y21.76157
X60.44064 Y23.18481
X49.56792 Y23.18481
X49.05075 Y23.02499
X48.52911 Y22.94214
X48.32919 Y22.93162
X47.97252 Y22.94214
X47.60767 Y22.99167
X47.22637 Y23.08532
X46.81794 Y23.23317
X46.21258 Y23.54269
X45.70648 Y23.88432
X45.27283 Y24.23708
X44.96369 Y24.51981
X43.94027 Y24.51981
X39.88943 Y26.19773
X39.59639 Y26.34670
X39.44178 Y26.45214
X39.25445 Y26.61482
X16.13893 Y49.73032
X15.70857 Y49.89842
X15.45541 Y50.03677
X15.23606 Y50.18801
X14.98887 Y50.40543
X14.82026 Y50.59314
X14.59712 Y50.91864
X14.59377 Y52.24820
X14.20502 Y52.44820
X13.95752 Y52.53707
X13.68110 Y52.60192
X13.29176 Y52.63166
X13.03614 Y52.61198
X12.63650 Y52.51899
X12.31430 Y52.38874
X12.05377 Y52.24820
X12.05534 Y49.80612
X12.15036 Y49.61216
X12.39918 Y49.18620
X12.75047 Y48.70228
X13.04701 Y48.35443
X14.65630 Y44.46925
X34.33953 Y24.78605
X34.72352 Y24.66108
X35.09142 Y24.52006
X35.87953 Y24.15478
X36.55849 Y23.74922
X37.13287 Y23.32105
X42.22953 Y21.20993
X42.44022 Y21.13889
X42.62084 Y21.10287
X42.80941 Y21.08982
X58.49691 Y21.08982
X58.75822 Y20.96660
X59.05665 Y20.86845
X59.26780 Y20.82637
X59.63323 Y20.80716
X59.89210 Y20.83467
X60.27183 Y20.93673
X60.50826 Y21.03734
X60.76795 Y21.18060
X60.93289 Y21.29043
X61.19538 Y21.76157
G04 P0 ( dwell for no time -- G64 should not smooth over this point )
G00 Z2.00000 ( retract )

G00 X63.04379 Y20.36985 ( rapid move to begin. )
F50.00000
G01 Z-0.30000
G04 P0 ( dwell for no time -- G64 should not smooth over this point )
F100.00000
G01 X63.04379 Y20.36985
X63.03104 Y20.61080
X62.95285 Y20.97752
X62.87198 Y21.19738
X62.75552 Y21.43576
X62.71227 Y21.51295
X62.30437 Y21.76482
X61.19710 Y21.76482
X60.93289 Y21.29043
X60.76795 Y21.18060
X60.50826 Y21.03734
X60.27183 Y20.93673
X59.89210 Y20.83467
X59.63323 Y20.80716
X59.26780 Y20.82637
X59.05665 Y20.86845
X58.75822 Y20.96660
X58.49691 Y21.08982
X42.80941 Y21.08982
X42.58350 Y21.10841
X42.44022 Y21.13889
X42.22953 Y21.20993
X37.13287 Y23.32105
X36.55849 Y23.74922
X35.87953 Y24.15478
X35.09142 Y24.52006
X34.72352 Y24.66108
X34.33953 Y24.78605
X34.08199 Y23.86863
X33.96627 Y23.33345
X33.82871 Y22.41719
X33.80976 Y22.17653
X33.79818 Y21.77833
X33.82345 Y21.30559
X33.92340 Y20.76043
X34.01568 Y20.48027
X34.15286 Y20.18977
X34.36406 Y19.88212
X34.53686 Y19.69995
X34.69637 Y19.56719
X34.87882 Y19.44565
X35.24821 Y19.26991
X35.51621 Y19.18504
X35.84376 Y19.11690
X36.46007 Y19.06516
X38.31981 Y18.29483
X43.29341 Y18.29483
X43.80120 Y18.90562
X44.20143 Y19.29160
X44.53265 Y19.54738
X44.81667 Y19.72083
X45.14067 Y19.86701
X45.51141 Y19.96665
X45.75942 Y19.99299
X46.11634 Y19.97425
X46.32101 Y19.93333
X46.60729 Y19.83917
X46.90404 Y19.69482
X58.49978 Y19.69482
X58.76267 Y19.81905
X59.05875 Y19.91644
X59.42774 Y19.97504
X59.67989 Y19.97504
X60.04887 Y19.91644
X60.26858 Y19.84844
X60.50381 Y19.74831
X60.76218 Y19.60572
X60.93371 Y19.49101
X61.19464 Y19.01982
X62.55062 Y19.01982
X62.75552 Y19.34390
X62.93297 Y19.74113
X63.00586 Y20.00999
X63.04379 Y20.36985
G04 P0 ( dwell for no time -- G64 should not smooth over this point )
G00 Z2.00000 ( retract )

G00 X61.15690 Y19.08845 ( rapid move to begin. )
F50.00000
G01 Z-0.30000
G04 P0 ( dwell for no time -- G64 should not smooth over this point )
F100.00000
G01 X61.15690 Y19.08845
X60.93371 Y19.49101
X60.76218 Y19.60572
X60.50381 Y19.74831
X60.26858 Y19.84844
X60.04887 Y19.91644
X59.67989 Y19.97504
X59.42774 Y19.97504
X59.05875 Y19.91644
X58.76267 Y19.81905
X58.49978 Y19.69482
X46.90404 Y19.69482
X46.60729 Y19.83917
X46.32101 Y19.93333
X46.11634 Y19.97425
X45.75942 Y19.99299
X45.51141 Y19.96665
X45.14067 Y19.86701
X44.81667 Y19.72083
X44.53265 Y19.54738
X44.20143 Y19.29160
X43.80120 Y18.90562
X43.29341 Y18.29483
X43.79841 Y17.95403
X44.40405 Y17.64436
X44.65594 Y17.54735
X45.03745 Y17.43603
X45.40252 Y17.36960
X45.75942 Y17.34263
X46.11631 Y17.35315
X46.48139 Y17.40270
X46.86289 Y17.49643
X47.16551 Y17.59981
X60.43815 Y17.59981
X61.19464 Y19.01982
X61.15690 Y19.08845
G04 P0 ( dwell for no time -- G64 should not smooth over this point )
G00 Z2.00000 ( retract )

G00 X63.04379 Y17.62985 ( rapid move to begin. )
F50.00000
G01 Z-0.30000
G04 P0 ( dwell for no time -- G64 should not smooth over this point )
F100.00000
G01 X63.04379 Y17.62985
X63.03545 Y17.82866
X63.00586 Y18.02967
X62.93297 Y18.29853
X62.75552 Y18.69576
X62.55062 Y19.01982
X61.19464 Y19.01982
X60.43815 Y17.59981
X61.20947 Y16.24982
X62.52867 Y16.24982
X62.75552 Y16.60390
X62.93297 Y17.00113
X63.00586 Y17.26999
X63.04379 Y17.62985
G04 P0 ( dwell for no time -- G64 should not smooth over this point )
G00 Z2.00000 ( retract )

G00 X61.18580 Y16.29150 ( rapid move to begin. )
F50.00000
G01 Z-0.30000
G04 P0 ( dwell for no time -- G64 should not smooth over this point )
F100.00000
G01 X61.18580 Y16.29150
X60.43815 Y17.59981
X47.16551 Y17.59981
X46.63818 Y17.43603
X46.27311 Y17.36960
X45.91619 Y17.34263
X45.55932 Y17.35315
X45.03745 Y17.43603
X44.65594 Y17.54735
X44.40405 Y17.64436
X43.79841 Y17.95403
X43.29341 Y18.29483
X38.31981 Y18.29483
X36.46007 Y19.06516
X36.05217 Y19.08992
X35.51621 Y19.18504
X35.09142 Y19.33485
X34.87882 Y19.44565
X34.69637 Y19.56719
X34.53686 Y19.69995
X34.36406 Y19.88212
X34.15286 Y20.18977
X34.04928 Y20.39889
X33.95769 Y20.64402
X33.88050 Y20.93922
X33.82345 Y21.30559
X33.80384 Y21.56223
X33.80976 Y22.17653
X33.91585 Y23.06126
X34.08199 Y23.86863
X34.33953 Y24.78605
X14.65630 Y44.46925
X13.04701 Y48.35443
X12.75047 Y48.70228
X12.39918 Y49.18620
X12.15036 Y49.61216
X12.05534 Y49.80612
X12.05377 Y52.24820
X11.66502 Y52.44820
X11.41752 Y52.53707
X11.14110 Y52.60192
X10.75176 Y52.63166
X10.49614 Y52.61198
X10.09650 Y52.51899
X9.77430 Y52.38874
X9.51377 Y52.24820
X9.51539 Y49.80492
X9.30739 Y49.40513
X9.13371 Y49.12748
X8.74285 Y48.60635
X8.16632 Y47.98509
X7.48380 Y47.37302
X7.48380 Y42.86600
X7.49327 Y42.52104
X7.55390 Y41.90689
X7.68687 Y41.23016
X7.90021 Y40.52229
X8.19873 Y39.74619
X8.33371 Y39.34406
X8.81575 Y38.69661
X9.28611 Y37.95102
X9.52835 Y37.53085
X10.05626 Y36.44549
X13.49057 Y33.01118
X13.96116 Y32.80516
X14.36585 Y32.60427
X14.75486 Y32.38771
X15.12818 Y32.15548
X15.48584 Y31.90757
X15.82783 Y31.64397
X16.15414 Y31.36470
X16.46476 Y31.06976
X16.75970 Y30.75914
X17.03898 Y30.43282
X17.30258 Y30.09084
X17.55048 Y29.73318
X17.78271 Y29.35985
X17.99927 Y28.97085
X18.20016 Y28.56615
X19.08952 Y26.44581
X19.39818 Y25.61846
X19.66028 Y25.05854
X19.89996 Y24.47617
X20.22190 Y23.58379
X20.44532 Y22.83604
X20.64943 Y22.04389
X20.78309 Y21.42454
X22.28977 Y17.78710
X23.33343 Y17.38858
X34.15736 Y12.90517
X34.58794 Y12.73896
X35.03292 Y12.59070
X35.83211 Y12.38778
X37.67046 Y13.21376
X38.38877 Y13.48092
X39.05925 Y13.65229
X39.70096 Y13.74579
X40.19014 Y13.77050
X40.78556 Y14.27261
X41.41579 Y14.68348
X41.67863 Y14.81787
X42.06074 Y14.97444
X42.41744 Y15.07908
X42.75874 Y15.14175
X43.09242 Y15.16750
X43.58289 Y15.14175
X43.92419 Y15.07908
X44.12411 Y15.02536
X44.55754 Y14.86481
X60.47077 Y14.86481
X61.19545 Y16.22147
X61.20947 Y16.24982
X61.18580 Y16.29150
G04 P0 ( dwell for no time -- G64 should not smooth over this point )
G00 Z2.00000 ( retract )

G00 X63.04379 Y14.82983 ( rapid move to begin. )
F50.00000
G01 Z-0.30000
G04 P0 ( dwell for no time -- G64 should not smooth over this point )
F100.00000
G01 X63.04379 Y14.82983
X63.03545 Y15.02864
X63.00586 Y15.22965
X62.93297 Y15.49851
X62.75552 Y15.89574
X62.52867 Y16.24982
X61.20947 Y16.24982
X60.47077 Y14.86481
X61.14288 Y13.57980
X62.61745 Y13.57980
X62.83650 Y13.96278
X62.93297 Y14.20111
X63.00586 Y14.46997
X63.04379 Y14.82983
G04 P0 ( dwell for no time -- G64 should not smooth over this point )
G00 Z2.00000 ( retract )

G00 X61.12314 Y13.61493 ( rapid move to begin. )
F50.00000
G01 Z-0.30000
G04 P0 ( dwell for no time -- G64 should not smooth over this point )
F100.00000
G01 X61.12314 Y13.61493
X60.47077 Y14.86481
X44.55754 Y14.86481
X44.28088 Y14.97444
X43.92419 Y15.07908
X43.58289 Y15.14175
X43.24919 Y15.16750
X42.75874 Y15.14175
X42.41744 Y15.07908
X42.06074 Y14.97444
X41.67863 Y14.81787
X41.25899 Y14.59295
X40.94233 Y14.38650
X40.38998 Y13.95084
X40.19014 Y13.77050
X41.64672 Y12.25171
X42.00420 Y12.10739
X42.38045 Y11.99745
X42.74045 Y11.93185
X43.09242 Y11.90513
X43.44438 Y11.91539
X43.80440 Y11.96413
X44.18063 Y12.05643
X44.47783 Y12.15780
X57.81250 Y12.15780
X58.03872 Y12.26459
X58.26493 Y12.34353
X59.18154 Y12.16065
X59.47437 Y12.13690
X59.76721 Y12.14394
X60.06653 Y12.18295
X60.51880 Y12.28892
X61.14288 Y13.57980
X61.12314 Y13.61493
G04 P0 ( dwell for no time -- G64 should not smooth over this point )
G00 Z2.00000 ( retract )

G00 X63.04379 Y12.28983 ( rapid move to begin. )
F50.00000
G01 Z-0.30000
G04 P0 ( dwell for no time -- G64 should not smooth over this point )
F100.00000
G01 X63.04379 Y12.28983
X63.03545 Y12.48864
X63.00586 Y12.68965
X62.93297 Y12.95851
X62.83650 Y13.19684
X62.61745 Y13.57980
X61.14288 Y13.57980
X60.51880 Y12.28892
X60.67193 Y12.08049
X60.82695 Y11.81468
X61.04321 Y11.25697
X61.19556 Y10.93830
X61.41222 Y10.58359
X61.77432 Y10.11333
X62.01437 Y10.33353
X62.35600 Y10.69438
X62.48468 Y10.85326
X62.69382 Y11.15743
X62.83650 Y11.42278
X62.95285 Y11.72212
X63.00586 Y11.92997
X63.04379 Y12.28983
G04 P0 ( dwell for no time -- G64 should not smooth over this point )
G00 Z2.00000 ( retract )

G00 X61.77432 Y9.97981 ( rapid move to begin. )
F50.00000
G01 Z-0.30000
G04 P0 ( dwell for no time -- G64 should not smooth over this point )
F100.00000
G01 X61.77432 Y9.97981
X61.75405 Y9.63576
X61.69327 Y9.29169
X61.59195 Y8.94765
X61.45011 Y8.60358
X61.02753 Y8.27318
X60.54869 Y7.99904
X59.88517 Y7.65525
X59.48893 Y7.39904
X58.79381 Y7.15075
X58.45487 Y7.01275
X57.93676 Y7.24450
X57.01797 Y7.72566
X56.44144 Y7.81646
X56.01665 Y7.86111
X55.49290 Y7.89081
X55.02341 Y7.49396
X54.38950 Y6.99203
X53.80466 Y6.57016
X53.09575 Y6.11423
X52.50461 Y5.78017
X51.77307 Y5.41022
X50.08598 Y4.66437
X49.98913 Y4.68982
X45.26307 Y4.68982
X44.78754 Y4.05967
X44.33633 Y3.54263
X43.70865 Y2.90811
X43.25625 Y2.51515
X42.85787 Y2.23514
X42.50951 Y2.04131
X42.08233 Y1.86862
X41.63517 Y1.76456
X41.28856 Y1.73789
X40.85394 Y1.77108
X40.48216 Y1.85831
X39.99466 Y2.05445
X39.65636 Y1.90771
X39.36758 Y1.81861
X39.09517 Y1.76456
X38.74856 Y1.73789
X38.31394 Y1.77108
X38.04709 Y1.82818
X37.76743 Y1.91802
X37.45466 Y2.05445
X37.11636 Y1.90771
X36.82758 Y1.81861
X36.55517 Y1.76456
X36.29251 Y1.74002
X35.94867 Y1.74883
X35.68181 Y1.78764
X35.22743 Y1.91802
X34.91466 Y2.05445
X34.57636 Y1.90771
X34.28758 Y1.81861
X34.01517 Y1.76456
X33.75251 Y1.74002
X33.40867 Y1.74883
X33.14181 Y1.78764
X32.68743 Y1.91802
X32.37466 Y2.05445
X31.92233 Y1.86862
X31.64989 Y1.79587
X31.38726 Y1.75333
X31.12856 Y1.73789
X30.86867 Y1.74883
X30.60181 Y1.78764
X30.32216 Y1.85831
X29.83466 Y2.05445
X29.83095 Y5.97344
X29.19107 Y6.08210
X28.62044 Y6.11674
X28.05219 Y6.09345
X27.65021 Y6.04212
X27.29095 Y5.97344
X26.65107 Y6.08210
X26.25516 Y6.11232
X25.68694 Y6.10676
X25.11021 Y6.04212
X24.75095 Y5.97344
X24.75702 Y2.66049
X24.56154 Y2.37111
X24.35730 Y2.14182
X24.00040 Y2.02265
X23.77549 Y1.97967
X23.55865 Y1.96097
X23.34514 Y1.96443
X23.08499 Y1.99791
X22.67935 Y2.11429
X22.43188 Y2.22371
X22.16007 Y2.37746
X21.85367 Y2.59282
X21.49777 Y2.89905
X21.01522 Y3.37984
X20.78464 Y3.28434
X20.20857 Y2.73214
X20.03381 Y2.58965
X19.70493 Y2.36085
X19.41733 Y2.20291
X19.15881 Y2.09448
X18.92040 Y2.02265
X18.65340 Y1.97428
X18.43986 Y1.95998
X18.22526 Y1.96748
X17.83026 Y2.03847
X17.52661 Y2.14345
X17.13786 Y2.34345
X16.87733 Y2.20291
X16.55513 Y2.07266
X16.15549 Y1.97967
X15.89986 Y1.95998
X15.51053 Y1.98973
X15.23410 Y2.05457
X14.98661 Y2.14345
X14.59786 Y2.34345
X14.33733 Y2.20291
X14.01513 Y2.07266
X13.79024 Y2.01099
X13.39865 Y1.96097
X13.14526 Y1.96748
X12.75026 Y2.03847
X12.44661 Y2.14345
X12.05786 Y2.34345
X11.79733 Y2.20291
X11.47513 Y2.07266
X11.25024 Y2.01099
X10.85865 Y1.96097
X10.60526 Y1.96748
X10.21026 Y2.03847
X9.90661 Y2.14345
X9.51786 Y2.34345
X9.25733 Y2.20291
X8.93513 Y2.07266
X8.71024 Y2.01099
X8.31865 Y1.96097
X8.06526 Y1.96748
X7.67026 Y2.03847
X7.36661 Y2.14345
X6.97786 Y2.34342
X6.71736 Y2.20291
X6.45883 Y2.09448
X6.22043 Y2.02265
X5.99551 Y1.97967
X5.73989 Y1.95998
X5.35056 Y1.98973
X5.28695 Y2.00210
X5.15777 Y2.09448
X4.96600 Y2.26313
X4.82117 Y2.42244
X4.69359 Y2.59417
X4.65173 Y3.01558
X4.65594 Y3.44477
X4.69554 Y3.73669
X4.91845 Y4.01972
X5.21098 Y4.27730
X5.39833 Y4.40009
X5.72693 Y4.57824
X6.00801 Y4.77141
X6.27936 Y5.41007
X6.48238 Y5.75906
X6.72129 Y6.34494
X6.82703 Y6.68774
X6.93823 Y7.29861
X7.30237 Y8.02449
X7.49343 Y8.48722
X7.65050 Y8.93086
X7.82927 Y9.53767
X8.03069 Y10.42535
X8.16683 Y11.37830
X8.22939 Y11.99880
X7.92830 Y12.80939
X7.92830 Y22.16606
X7.74877 Y23.01770
X7.68154 Y23.45593
X7.63686 Y23.89418
X7.60186 Y24.49702
X7.62099 Y25.43007
X8.28746 Y25.64282
X9.54212 Y25.66016
X10.91430 Y25.72285
X11.48958 Y25.79445
X12.21646 Y25.98071
X12.64815 Y26.02473
X12.86266 Y26.01927
X13.12585 Y25.98775
X13.40040 Y25.92580
X13.70195 Y25.83558
X14.13464 Y25.75714
X14.96842 Y25.69085
X17.81670 Y25.62847
X19.39818 Y25.61846
X19.08952 Y26.44581
X18.20016 Y28.56615
X17.99927 Y28.97085
X17.78271 Y29.35985
X17.55048 Y29.73318
X17.30258 Y30.09084
X17.03898 Y30.43282
X16.75970 Y30.75914
X16.46476 Y31.06976
X16.15414 Y31.36470
X15.82783 Y31.64397
X15.48584 Y31.90757
X15.12818 Y32.15548
X14.75486 Y32.38771
X14.36585 Y32.60427
X13.96116 Y32.80516
X13.49057 Y33.01118
X10.05626 Y36.44549
X9.52835 Y37.53085
X9.28611 Y37.95102
X8.81575 Y38.69661
X8.33371 Y39.34406
X8.19873 Y39.74619
X7.90021 Y40.52229
X7.68687 Y41.23016
X7.55390 Y41.90689
X7.49327 Y42.52104
X7.48380 Y42.86600
X7.48380 Y47.37302
X6.97110 Y48.05456
X6.19897 Y48.63182
X5.68307 Y49.10188
X5.33407 Y49.48874
X5.19879 Y49.66350
X4.98096 Y49.99415
X4.83044 Y50.28526
X4.72755 Y50.54869
X4.66039 Y50.79306
X4.62183 Y51.02488
X4.60951 Y51.66827
X4.63075 Y51.89781
X4.75335 Y52.08206
X4.89196 Y52.25117
X5.04357 Y52.40174
X5.28721 Y52.58886
X5.63300 Y52.63067
X5.88639 Y52.62417
X6.28139 Y52.55318
X6.58505 Y52.44820
X6.97379 Y52.24822
X7.23430 Y52.38874
X7.55650 Y52.51899
X7.78139 Y52.58066
X8.17298 Y52.63067
X8.42637 Y52.62417
X8.82136 Y52.55318
X9.12502 Y52.44820
X9.51377 Y52.24820
X9.77430 Y52.38874
X10.09650 Y52.51899
X10.32139 Y52.58066
X10.71298 Y52.63067
X10.96637 Y52.62417
X11.36136 Y52.55318
X11.66502 Y52.44820
X12.05377 Y52.24820
X12.31430 Y52.38874
X12.63650 Y52.51899
X12.86139 Y52.58066
X13.25298 Y52.63067
X13.50637 Y52.62417
X13.90136 Y52.55318
X14.20502 Y52.44820
X14.59377 Y52.24820
X14.85430 Y52.38874
X15.11282 Y52.49717
X15.35122 Y52.56900
X15.61823 Y52.61736
X15.83176 Y52.63166
X16.04637 Y52.62417
X16.44136 Y52.55318
X16.74502 Y52.44820
X17.13377 Y52.24820
X17.47809 Y52.42737
X17.89122 Y52.56900
X18.15823 Y52.61736
X18.54649 Y52.62722
X18.80664 Y52.59374
X19.03752 Y52.53707
X19.28502 Y52.44820
X19.67377 Y52.24820
X19.93430 Y52.38874
X20.25650 Y52.51899
X20.65614 Y52.61198
X20.91176 Y52.63166
X21.30110 Y52.60192
X21.57752 Y52.53707
X21.82502 Y52.44820
X22.21377 Y52.24820
X22.47430 Y52.38874
X22.79650 Y52.51899
X23.19614 Y52.61198
X23.45176 Y52.63166
X23.84110 Y52.60192
X24.06136 Y52.55318
X24.29228 Y52.47736
X24.53975 Y52.36793
X24.94320 Y52.12712
X25.29913 Y51.85046
X25.51879 Y51.65120
X25.74706 Y51.85950
X26.07597 Y52.11564
X26.25069 Y52.23080
X26.53830 Y52.38874
X26.79682 Y52.49717
X27.03522 Y52.56900
X27.26014 Y52.61198
X27.47698 Y52.63067
X27.73037 Y52.62417
X28.12536 Y52.55318
X28.42902 Y52.44820
X28.81777 Y52.24820
X29.07830 Y52.38874
X29.40050 Y52.51899
X29.62539 Y52.58066
X30.01698 Y52.63067
X30.27037 Y52.62417
X30.66536 Y52.55318
X30.96902 Y52.44820
X31.35777 Y52.24820
X31.61830 Y52.38874
X31.94050 Y52.51899
X32.16539 Y52.58066
X32.55698 Y52.63067
X32.81037 Y52.62417
X33.20536 Y52.55318
X33.50902 Y52.44820
X33.89777 Y52.24820
X34.15830 Y52.38874
X34.48050 Y52.51899
X34.70539 Y52.58066
X35.09698 Y52.63067
X35.35037 Y52.62417
X35.74536 Y52.55318
X36.04902 Y52.44820
X36.43777 Y52.24820
X36.69830 Y52.38874
X36.95682 Y52.49717
X37.19522 Y52.56900
X37.46223 Y52.61736
X37.67576 Y52.63166
X37.89037 Y52.62417
X38.28536 Y52.55318
X38.58902 Y52.44820
X38.97777 Y52.24820
X39.32209 Y52.42737
X39.73522 Y52.56900
X40.00223 Y52.61736
X40.21576 Y52.63166
X40.43037 Y52.62417
X40.82536 Y52.55318
X41.12196 Y52.45140
X41.29539 Y52.25854
X41.51851 Y51.93306
X41.51934 Y49.80612
X41.75427 Y49.36093
X42.07918 Y48.87703
X42.22163 Y48.69304
X42.56623 Y48.47716
X42.87161 Y48.04234
X43.57588 Y46.83716
X44.02526 Y46.10965
X44.66940 Y45.80617
X46.03186 Y45.24181
X51.93383 Y45.24181
X52.36260 Y45.25334
X53.30393 Y45.35507
X54.17820 Y45.34265
X54.93420 Y45.37783
X56.02119 Y46.28705
X57.28421 Y47.25667
X57.89610 Y47.41786
X58.35756 Y47.50825
X59.31598 Y47.22814
X59.63323 Y46.91572
X60.15273 Y46.32492
X60.40008 Y45.98591
X60.66289 Y45.55151
X60.84719 Y45.16127
X60.97371 Y44.80133
X61.05494 Y44.46109
X61.10638 Y43.97316
X61.10051 Y43.69450
X60.43726 Y42.48982
X61.10051 Y41.28513
X61.10638 Y41.17314
X61.10102 Y40.90425
X60.43993 Y39.69481
X61.10051 Y38.49514
X61.10305 Y38.15323
X60.47077 Y36.96482
X61.10460 Y35.74717
X61.10203 Y35.46375
X60.44013 Y34.23482
X61.09949 Y33.05464
X61.09949 Y32.62502
X60.43742 Y31.43981
X61.10152 Y30.21565
X61.10203 Y29.87375
X60.44013 Y28.64482
X61.09949 Y27.46463
X61.10460 Y27.13248
X60.47077 Y25.91480
X61.10305 Y24.72641
X61.10638 Y24.49649
X61.09845 Y24.34551
X60.44064 Y23.18481
X61.19710 Y21.76482
X62.30437 Y21.76482
X62.55519 Y21.62141
X62.71227 Y21.51295
X62.83650 Y21.27686
X62.95285 Y20.97752
X63.00586 Y20.76967
X63.03545 Y20.56866
X63.04379 Y20.36985
X63.03104 Y20.16886
X62.95285 Y19.80214
X62.87198 Y19.58228
X62.75552 Y19.34390
X62.55062 Y19.01982
X62.75552 Y18.69576
X62.87198 Y18.45739
X62.95285 Y18.23752
X63.00586 Y18.02967
X63.03545 Y17.82866
X63.04379 Y17.62985
X63.03104 Y17.42886
X62.95285 Y17.06214
X62.87198 Y16.84228
X62.75552 Y16.60390
X62.52867 Y16.24982
X62.75552 Y15.89574
X62.87198 Y15.65737
X62.95285 Y15.43750
X63.03104 Y15.07078
X63.04379 Y14.86979
X63.03545 Y14.67098
X63.00586 Y14.46997
X62.95285 Y14.26212
X62.83650 Y13.96278
X62.61745 Y13.57980
X62.83650 Y13.19684
X62.95285 Y12.89750
X63.00586 Y12.68965
X63.03545 Y12.48864
X63.04379 Y12.28983
X63.03104 Y12.08884
X62.99542 Y11.88102
X62.93297 Y11.66111
X62.83650 Y11.42278
X62.69382 Y11.15743
X62.48468 Y10.85326
X62.35600 Y10.69438
X62.01437 Y10.33353
X61.77432 Y10.11333
X61.77432 Y9.97981
G04 P0 ( dwell for no time -- G64 should not smooth over this point )
G00 Z2.00000 ( retract )

G00 X60.31755 Y7.88710 ( rapid move to begin. )
F50.00000
G01 Z-0.30000
G04 P0 ( dwell for no time -- G64 should not smooth over this point )
F100.00000
G01 X60.31755 Y7.88710
X60.54869 Y7.99904
X61.02753 Y8.27318
X61.45011 Y8.60358
X61.59195 Y8.94765
X61.69327 Y9.29169
X61.75405 Y9.63576
X61.77432 Y9.97981
X61.77432 Y10.11333
X61.41222 Y10.58359
X61.19556 Y10.93830
X61.04321 Y11.25697
X60.82695 Y11.81468
X60.67193 Y12.08049
X60.51880 Y12.28892
X60.06653 Y12.18295
X59.63323 Y12.13690
X59.18154 Y12.16065
X58.26493 Y12.34353
X58.03872 Y12.26459
X57.81250 Y12.15780
X44.47783 Y12.15780
X43.96117 Y11.99745
X43.60118 Y11.93185
X43.24919 Y11.90513
X42.89724 Y11.91539
X42.53722 Y11.96413
X42.16100 Y12.05643
X41.64672 Y12.25171
X40.19014 Y13.77050
X39.70096 Y13.74579
X39.05925 Y13.65229
X38.38877 Y13.48092
X37.67046 Y13.21376
X35.83211 Y12.38778
X36.40056 Y11.62626
X36.89055 Y11.05997
X37.38425 Y10.56352
X37.92268 Y10.11191
X38.38420 Y9.79934
X38.79324 Y9.57983
X39.16573 Y9.42697
X39.67022 Y9.29139
X40.17142 Y9.23813
X40.65348 Y9.26345
X41.17710 Y9.37602
X41.56257 Y9.51580
X50.74805 Y9.51580
X51.13352 Y9.65560
X51.48122 Y9.74023
X51.81394 Y9.78463
X52.30769 Y9.78463
X52.79720 Y9.70691
X53.14490 Y9.60465
X53.51739 Y9.45179
X53.92643 Y9.23228
X54.38795 Y8.91971
X54.76958 Y8.60927
X54.92638 Y8.46810
X55.49290 Y7.89081
X56.01665 Y7.86111
X56.44144 Y7.81646
X57.01797 Y7.72566
X57.93676 Y7.24450
X58.45487 Y7.01275
X58.79381 Y7.15075
X59.48893 Y7.39904
X59.88517 Y7.65525
X60.31755 Y7.88710
G04 P0 ( dwell for no time -- G64 should not smooth over this point )
G00 Z2.00000 ( retract )

G00 X55.42008 Y7.97166 ( rapid move to begin. )
F50.00000
G01 Z-0.30000
G04 P0 ( dwell for no time -- G64 should not smooth over this point )
F100.00000
G01 X55.42008 Y7.97166
X54.76958 Y8.60927
X54.38795 Y8.91971
X53.92643 Y9.23228
X53.51739 Y9.45179
X53.14490 Y9.60465
X52.79720 Y9.70691
X52.30769 Y9.78463
X51.81394 Y9.78463
X51.48122 Y9.74023
X51.13352 Y9.65560
X50.74805 Y9.51580
X41.56257 Y9.51580
X41.33390 Y9.42697
X40.98620 Y9.32471
X40.65348 Y9.26345
X40.32819 Y9.23813
X39.84614 Y9.26345
X39.32252 Y9.37602
X38.79324 Y9.57983
X38.38420 Y9.79934
X37.92268 Y10.11191
X37.54104 Y10.42235
X37.38425 Y10.56352
X36.73375 Y11.23408
X36.40056 Y11.62626
X35.83211 Y12.38778
X35.03292 Y12.59070
X34.58794 Y12.73896
X34.15736 Y12.90517
X23.33343 Y17.38858
X22.28977 Y17.78710
X21.59063 Y16.97334
X20.92741 Y16.12224
X20.40536 Y15.38312
X19.93597 Y14.64401
X19.54202 Y13.95234
X19.21184 Y13.29804
X18.92510 Y12.65412
X17.88820 Y10.15080
X17.67901 Y9.67859
X17.44599 Y9.21283
X17.02640 Y8.49985
X17.12719 Y8.13333
X17.14073 Y6.98581
X17.13786 Y2.34345
X17.52661 Y2.14345
X17.77410 Y2.05457
X18.05053 Y1.98973
X18.43986 Y1.95998
X18.69549 Y1.97967
X19.09513 Y2.07266
X19.33354 Y2.16428
X19.59206 Y2.29417
X19.87966 Y2.47601
X20.20857 Y2.73214
X20.78464 Y3.28434
X21.01522 Y3.37984
X21.25464 Y3.86595
X21.50557 Y4.26308
X21.77978 Y4.61215
X22.08034 Y4.92350
X22.27529 Y5.09513
X22.78585 Y5.45985
X23.21054 Y5.69170
X23.70437 Y5.90008
X24.23627 Y6.06615
X24.75095 Y5.97344
X25.11021 Y6.04212
X25.51219 Y6.09345
X26.25516 Y6.11232
X26.82580 Y6.05985
X27.29095 Y5.97344
X27.65021 Y6.04212
X28.05219 Y6.09345
X28.62044 Y6.11674
X29.19107 Y6.08210
X29.83095 Y5.97344
X30.19021 Y6.04212
X30.59219 Y6.09345
X31.16044 Y6.11674
X31.73107 Y6.08210
X32.37095 Y5.97344
X32.73021 Y6.04212
X33.13219 Y6.09345
X33.70044 Y6.11674
X34.27107 Y6.08210
X34.91095 Y5.97344
X35.27021 Y6.04212
X35.67219 Y6.09345
X36.24044 Y6.11674
X36.81107 Y6.08210
X37.45095 Y5.97344
X37.81021 Y6.04212
X38.21219 Y6.09345
X38.78044 Y6.11674
X39.35107 Y6.08210
X39.99095 Y5.97344
X40.35021 Y6.04212
X40.75219 Y6.09345
X41.49516 Y6.11232
X42.06580 Y6.05985
X42.47723 Y5.98591
X43.26608 Y5.75954
X43.92429 Y5.48555
X44.47260 Y5.19823
X45.26307 Y4.68982
X49.98913 Y4.68982
X50.08598 Y4.66437
X51.77307 Y5.41022
X52.50461 Y5.78017
X53.09575 Y6.11423
X53.80466 Y6.57016
X54.60426 Y7.15875
X55.49290 Y7.89081
X55.42008 Y7.97166
G04 P0 ( dwell for no time -- G64 should not smooth over this point )
G00 Z2.00000 ( retract )

G00 X44.10082 Y3.29587 ( rapid move to begin. )
F50.00000
G01 Z-0.30000
G04 P0 ( dwell for no time -- G64 should not smooth over this point )
F100.00000
G01 X44.10082 Y3.29587
X44.51108 Y3.73605
X44.78754 Y4.05967
X45.26307 Y4.68982
X44.64735 Y5.09536
X43.92429 Y5.48555
X43.26608 Y5.75954
X42.65195 Y5.94535
X42.06580 Y6.05985
X41.32044 Y6.11674
X40.75219 Y6.09345
X40.35021 Y6.04212
X39.99095 Y5.97344
X39.99466 Y2.05445
X40.48216 Y1.85831
X40.76181 Y1.78764
X41.02867 Y1.74883
X41.28856 Y1.73789
X41.54726 Y1.75333
X41.80989 Y1.79587
X42.08233 Y1.86862
X42.50951 Y2.04131
X42.85787 Y2.23514
X43.03260 Y2.35031
X43.43097 Y2.65765
X43.70865 Y2.90811
X44.10082 Y3.29587
G04 P0 ( dwell for no time -- G64 should not smooth over this point )
G00 Z2.00000 ( retract )

G00 X39.99748 Y3.31358 ( rapid move to begin. )
F50.00000
G01 Z-0.30000
G04 P0 ( dwell for no time -- G64 should not smooth over this point )
F100.00000
G01 X39.99748 Y3.31358
X39.99095 Y5.97344
X39.35107 Y6.08210
X38.78044 Y6.11674
X38.21219 Y6.09345
X37.81021 Y6.04212
X37.45095 Y5.97344
X37.45466 Y2.05445
X37.76743 Y1.91802
X38.04709 Y1.82818
X38.31394 Y1.77108
X38.74856 Y1.73789
X39.09517 Y1.76456
X39.36758 Y1.81861
X39.65636 Y1.90771
X39.96951 Y2.04131
X39.99466 Y2.05445
X39.99748 Y3.31358
G04 P0 ( dwell for no time -- G64 should not smooth over this point )
G00 Z2.00000 ( retract )

G00 X37.45748 Y3.31358 ( rapid move to begin. )
F50.00000
G01 Z-0.30000
G04 P0 ( dwell for no time -- G64 should not smooth over this point )
F100.00000
G01 X37.45748 Y3.31358
X37.45095 Y5.97344
X36.81107 Y6.08210
X36.24044 Y6.11674
X35.67219 Y6.09345
X35.27021 Y6.04212
X34.91095 Y5.97344
X34.91466 Y2.05445
X35.22743 Y1.91802
X35.50709 Y1.82818
X35.77394 Y1.77108
X36.20856 Y1.73789
X36.55517 Y1.76456
X36.82758 Y1.81861
X37.11636 Y1.90771
X37.42951 Y2.04131
X37.45466 Y2.05445
X37.45748 Y3.31358
G04 P0 ( dwell for no time -- G64 should not smooth over this point )
G00 Z2.00000 ( retract )

G00 X34.91748 Y3.31358 ( rapid move to begin. )
F50.00000
G01 Z-0.30000
G04 P0 ( dwell for no time -- G64 should not smooth over this point )
F100.00000
G01 X34.91748 Y3.31358
X34.91095 Y5.97344
X34.27107 Y6.08210
X33.70044 Y6.11674
X33.13219 Y6.09345
X32.73021 Y6.04212
X32.37095 Y5.97344
X32.37466 Y2.05445
X32.68743 Y1.91802
X32.96709 Y1.82818
X33.23394 Y1.77108
X33.66856 Y1.73789
X34.01517 Y1.76456
X34.28758 Y1.81861
X34.57636 Y1.90771
X34.88951 Y2.04131
X34.91466 Y2.05445
X34.91748 Y3.31358
G04 P0 ( dwell for no time -- G64 should not smooth over this point )
G00 Z2.00000 ( retract )

G00 X32.37748 Y3.31358 ( rapid move to begin. )
F50.00000
G01 Z-0.30000
G04 P0 ( dwell for no time -- G64 should not smooth over this point )
F100.00000
G01 X32.37748 Y3.31358
X32.37095 Y5.97344
X31.73107 Y6.08210
X31.16044 Y6.11674
X30.59219 Y6.09345
X30.19021 Y6.04212
X29.83095 Y5.97344
X29.83466 Y2.05445
X30.14743 Y1.91802
X30.42709 Y1.82818
X30.69394 Y1.77108
X31.12856 Y1.73789
X31.47517 Y1.76456
X31.74758 Y1.81861
X32.03636 Y1.90771
X32.34951 Y2.04131
X32.37466 Y2.05445
X32.37748 Y3.31358
G04 P0 ( dwell for no time -- G64 should not smooth over this point )
G00 Z2.00000 ( retract )

G00 X24.75748 Y3.31358 ( rapid move to begin. )
F50.00000
G01 Z-0.30000
G04 P0 ( dwell for no time -- G64 should not smooth over this point )
F100.00000
G01 X24.75748 Y3.31358
X24.75095 Y5.97344
X24.23627 Y6.06615
X23.70437 Y5.90008
X23.21054 Y5.69170
X22.78585 Y5.45985
X22.27529 Y5.09513
X22.08034 Y4.92350
X21.77978 Y4.61215
X21.50557 Y4.26308
X21.25464 Y3.86595
X21.01522 Y3.37984
X21.67249 Y2.74119
X22.02842 Y2.46453
X22.33483 Y2.27459
X22.60661 Y2.14345
X22.91026 Y2.03847
X23.13053 Y1.98973
X23.51986 Y1.95998
X23.77549 Y1.97967
X24.17513 Y2.07266
X24.35730 Y2.14182
X24.44897 Y2.23656
X24.61028 Y2.43578
X24.75702 Y2.66049
X24.75748 Y3.31358
G04 P0 ( dwell for no time -- G64 should not smooth over this point )
G00 Z2.00000 ( retract )

G00 X17.13748 Y3.31358 ( rapid move to begin. )
F50.00000
G01 Z-0.30000
G04 P0 ( dwell for no time -- G64 should not smooth over this point )
F100.00000
G01 X17.13748 Y3.31358
X17.14073 Y6.98581
X17.12719 Y8.13333
X17.02640 Y8.49985
X15.13428 Y7.51562
X14.59778 Y7.21347
X14.59786 Y2.34345
X14.81188 Y2.22371
X15.05935 Y2.11429
X15.29026 Y2.03847
X15.68526 Y1.96748
X15.93865 Y1.96097
X16.15549 Y1.97967
X16.38040 Y2.02265
X16.61881 Y2.09448
X16.87733 Y2.20291
X17.13786 Y2.34345
X17.13748 Y3.31358
G04 P0 ( dwell for no time -- G64 should not smooth over this point )
G00 Z2.00000 ( retract )

G00 X14.59748 Y3.31358 ( rapid move to begin. )
F50.00000
G01 Z-0.30000
G04 P0 ( dwell for no time -- G64 should not smooth over this point )
F100.00000
G01 X14.59748 Y3.31358
X14.59778 Y7.21347
X14.21780 Y7.11253
X13.41722 Y6.84087
X12.74490 Y6.53264
X12.31867 Y6.28934
X12.05283 Y6.11644
X12.05786 Y2.34345
X12.27188 Y2.22371
X12.51935 Y2.11429
X12.75026 Y2.03847
X13.14526 Y1.96748
X13.39865 Y1.96097
X13.61549 Y1.97967
X13.84040 Y2.02265
X14.07881 Y2.09448
X14.33733 Y2.20291
X14.59786 Y2.34345
X14.59748 Y3.31358
G04 P0 ( dwell for no time -- G64 should not smooth over this point )
G00 Z2.00000 ( retract )

G00 X12.05748 Y3.31358 ( rapid move to begin. )
F50.00000
G01 Z-0.30000
G04 P0 ( dwell for no time -- G64 should not smooth over this point )
F100.00000
G01 X12.05748 Y3.31358
X12.05283 Y6.11644
X11.37920 Y5.95901
X11.00109 Y5.83564
X10.51958 Y5.63272
X9.95487 Y5.31037
X9.51219 Y4.97202
X9.51786 Y2.34345
X9.73188 Y2.22371
X9.97935 Y2.11429
X10.21026 Y2.03847
X10.60526 Y1.96748
X10.85865 Y1.96097
X11.07549 Y1.97967
X11.30040 Y2.02265
X11.53881 Y2.09448
X11.79733 Y2.20291
X12.05786 Y2.34345
X12.05748 Y3.31358
G04 P0 ( dwell for no time -- G64 should not smooth over this point )
G00 Z2.00000 ( retract )

G00 X9.51748 Y3.31358 ( rapid move to begin. )
F50.00000
G01 Z-0.30000
G04 P0 ( dwell for no time -- G64 should not smooth over this point )
F100.00000
G01 X9.51748 Y3.31358
X9.51219 Y4.97202
X8.92423 Y4.89953
X8.40653 Y4.76176
X7.96615 Y4.56666
X7.68311 Y4.38612
X7.19759 Y3.99341
X6.97461 Y3.67116
X6.97786 Y2.34342
X7.19188 Y2.22371
X7.43935 Y2.11429
X7.67026 Y2.03847
X8.06526 Y1.96748
X8.31865 Y1.96097
X8.53549 Y1.97967
X8.76040 Y2.02265
X8.99881 Y2.09448
X9.25733 Y2.20291
X9.51786 Y2.34345
X9.51748 Y3.31358
G04 P0 ( dwell for no time -- G64 should not smooth over this point )
G00 Z2.00000 ( retract )

G00 X18.88853 Y25.61879 ( rapid move to begin. )
F50.00000
G01 Z-0.30000
G04 P0 ( dwell for no time -- G64 should not smooth over this point )
F100.00000
G01 X18.88853 Y25.61879
X14.96842 Y25.69085
X14.13464 Y25.75714
X13.70195 Y25.83558
X13.40040 Y25.92580
X13.12585 Y25.98775
X12.86266 Y26.01927
X12.64815 Y26.02473
X12.21646 Y25.98071
X11.48958 Y25.79445
X10.91430 Y25.72285
X9.54212 Y25.66016
X8.28746 Y25.64282
X7.62099 Y25.43007
X7.60186 Y24.49702
X7.63686 Y23.89418
X7.68154 Y23.45593
X7.74877 Y23.01770
X7.92830 Y22.16606
X7.92830 Y12.80939
X8.22939 Y11.99880
X8.16683 Y11.37830
X8.03069 Y10.42535
X7.82927 Y9.53767
X7.65050 Y8.93086
X7.49343 Y8.48722
X7.30237 Y8.02449
X6.93823 Y7.29861
X6.82703 Y6.68774
X6.72129 Y6.34494
X6.48238 Y5.75906
X6.27936 Y5.41007
X6.00801 Y4.77141
X5.72693 Y4.57824
X5.39833 Y4.40009
X5.21098 Y4.27730
X4.91845 Y4.01972
X4.69554 Y3.73669
X4.65594 Y3.44477
X4.65173 Y3.01558
X4.69359 Y2.59417
X4.82117 Y2.42244
X4.96600 Y2.26313
X5.12508 Y2.12041
X5.28695 Y2.00210
X5.52528 Y1.96748
X5.73989 Y1.95998
X5.95343 Y1.97428
X6.17027 Y2.01099
X6.39516 Y2.07266
X6.63356 Y2.16428
X6.97786 Y2.34342
X6.97461 Y3.67116
X7.19759 Y3.99341
X7.68311 Y4.38612
X7.96615 Y4.56666
X8.40653 Y4.76176
X8.73480 Y4.85843
X9.13615 Y4.93473
X9.51219 Y4.97202
X9.74186 Y5.15822
X10.10546 Y5.40689
X10.51958 Y5.63272
X10.82266 Y5.76699
X11.37920 Y5.95901
X12.05283 Y6.11644
X12.31867 Y6.28934
X12.74490 Y6.53264
X13.41722 Y6.84087
X14.21780 Y7.11253
X14.59778 Y7.21347
X15.13428 Y7.51562
X17.02640 Y8.49985
X17.21264 Y8.80020
X17.44599 Y9.21283
X17.67901 Y9.67859
X17.88820 Y10.15080
X18.92510 Y12.65412
X19.21184 Y13.29804
X19.54202 Y13.95234
X19.93597 Y14.64401
X20.40536 Y15.38312
X20.92741 Y16.12224
X21.59063 Y16.97334
X22.28977 Y17.78710
X20.78309 Y21.42454
X20.64943 Y22.04389
X20.49739 Y22.64488
X20.22190 Y23.58379
X19.96752 Y24.30058
X19.66028 Y25.05854
X19.39818 Y25.61846
X18.88853 Y25.61879
G04 P0 ( dwell for no time -- G64 should not smooth over this point )
G00 Z2.00000 ( retract )

G00 X45.75942 Y33.60076 ( rapid move to begin. )
F50.00000
G01 Z-0.30000
G04 P0 ( dwell for no time -- G64 should not smooth over this point )
F100.00000
G01 X45.75942 Y33.60076
X44.51819 Y34.90041
X44.09810 Y35.05560
X43.75040 Y35.14023
X43.24919 Y35.19350
X42.76714 Y35.16817
X42.24352 Y35.05560
X41.85805 Y34.91580
X36.55954 Y34.91580
X35.95161 Y35.16998
X35.74036 Y35.28270
X35.58575 Y35.38814
X35.39843 Y35.55082
X21.21893 Y49.73032
X20.78857 Y49.89842
X20.53541 Y50.03677
X20.31603 Y50.18801
X20.06884 Y50.40540
X19.90024 Y50.59314
X19.67712 Y50.91864
X19.67377 Y52.24820
X19.28502 Y52.44820
X19.03752 Y52.53707
X18.76110 Y52.60192
X18.37176 Y52.63166
X18.11614 Y52.61198
X17.71650 Y52.51899
X17.39430 Y52.38874
X17.13377 Y52.24820
X17.13712 Y50.91864
X17.36026 Y50.59314
X17.52887 Y50.40543
X17.77606 Y50.18801
X17.99541 Y50.03677
X18.24857 Y49.89842
X18.67893 Y49.73032
X35.39843 Y33.01082
X35.58575 Y32.84814
X35.74036 Y32.74270
X36.03340 Y32.59373
X41.21251 Y30.44392
X41.77151 Y30.31052
X42.51878 Y30.20026
X43.09242 Y30.17011
X43.82284 Y30.20026
X44.72691 Y30.34385
X45.50770 Y30.56249
X46.18738 Y30.82421
X46.72515 Y31.07623
X47.26287 Y31.37412
X47.65349 Y31.61260
X45.75942 Y33.60076
G04 P0 ( dwell for no time -- G64 should not smooth over this point )
G00 Z2.00000 ( retract )

G00 X48.20330 Y36.35555 ( rapid move to begin. )
F50.00000
G01 Z-0.30000
G04 P0 ( dwell for no time -- G64 should not smooth over this point )
F100.00000
G01 X48.20330 Y36.35555
X46.97031 Y37.52826
X46.57420 Y37.64691
X46.24148 Y37.70817
X45.91619 Y37.73350
X45.43414 Y37.70817
X44.91052 Y37.59560
X44.52505 Y37.45580
X36.55954 Y37.45580
X36.03340 Y37.67373
X35.77338 Y37.80291
X35.58575 Y37.92814
X35.39843 Y38.09082
X23.75893 Y49.73032
X23.32857 Y49.89842
X23.07541 Y50.03677
X22.85603 Y50.18801
X22.60884 Y50.40540
X22.44024 Y50.59314
X22.21712 Y50.91864
X22.21377 Y52.24820
X21.82502 Y52.44820
X21.57752 Y52.53707
X21.30110 Y52.60192
X20.91176 Y52.63166
X20.65614 Y52.61198
X20.25650 Y52.51899
X19.93430 Y52.38874
X19.67377 Y52.24820
X19.67712 Y50.91864
X19.90024 Y50.59314
X20.06884 Y50.40540
X20.31603 Y50.18801
X20.53541 Y50.03677
X20.78857 Y49.89842
X21.21893 Y49.73032
X35.39843 Y35.55082
X35.58575 Y35.38814
X35.77338 Y35.26291
X36.03340 Y35.13373
X36.55954 Y34.91580
X41.85805 Y34.91580
X42.08673 Y35.00465
X42.43443 Y35.10691
X42.76714 Y35.16817
X43.09242 Y35.19350
X43.57448 Y35.16817
X44.09810 Y35.05560
X44.51819 Y34.90041
X47.65349 Y31.61260
X48.16906 Y31.72467
X48.96606 Y35.63391
X48.20330 Y36.35555
G04 P0 ( dwell for no time -- G64 should not smooth over this point )
G00 Z2.00000 ( retract )

G00 X51.41462 Y38.47220 ( rapid move to begin. )
F50.00000
G01 Z-0.30000
G04 P0 ( dwell for no time -- G64 should not smooth over this point )
F100.00000
G01 X51.41462 Y38.47220
X50.80111 Y39.07261
X50.29332 Y39.47205
X50.01481 Y39.65361
X49.62900 Y39.86123
X49.12093 Y40.05688
X48.63599 Y40.16115
X48.17242 Y40.18549
X47.86564 Y40.16115
X47.55184 Y40.10288
X47.22390 Y40.00593
X46.97722 Y39.90781
X44.31200 Y39.90781
X43.98068 Y39.93143
X43.73859 Y39.97776
X43.33280 Y40.11061
X37.93208 Y42.34769
X37.47942 Y42.21665
X36.66538 Y42.37624
X36.05423 Y42.56282
X34.35482 Y43.26473
X33.96863 Y43.47080
X33.68972 Y43.65693
X33.41329 Y43.88131
X31.23280 Y46.06180
X31.00842 Y46.33823
X30.82229 Y46.61712
X30.63318 Y46.96749
X30.14840 Y48.12009
X29.84888 Y48.25098
X29.44982 Y48.45260
X28.82305 Y48.85288
X28.31630 Y48.95219
X27.97990 Y49.04333
X27.53227 Y49.20462
X27.15158 Y49.38653
X26.67617 Y49.69090
X26.39560 Y49.92509
X26.14460 Y50.18214
X25.80472 Y50.63426
X25.51783 Y51.16966
X25.51879 Y51.65120
X25.11795 Y51.99882
X24.81155 Y52.21419
X24.36502 Y52.44820
X24.06136 Y52.55318
X23.66637 Y52.62417
X23.45176 Y52.63166
X23.23823 Y52.61736
X22.97122 Y52.56900
X22.55809 Y52.42737
X22.21377 Y52.24820
X22.21712 Y50.91864
X22.44024 Y50.59314
X22.60884 Y50.40540
X22.85603 Y50.18801
X23.07541 Y50.03677
X23.32857 Y49.89842
X23.75893 Y49.73032
X35.39843 Y38.09082
X35.61608 Y37.90566
X35.95161 Y37.70998
X36.55954 Y37.45580
X44.52505 Y37.45580
X44.91052 Y37.59560
X45.43414 Y37.70817
X45.91619 Y37.73350
X46.41740 Y37.68023
X46.76510 Y37.59560
X46.97031 Y37.52826
X48.96606 Y35.63391
X51.44218 Y38.10423
X51.55064 Y38.32115
X51.41462 Y38.47220

G04 P0 ( dwell for no time -- G64 should not smooth over this point )
G00 Z30.000 ( retract )

M5 ( Spindle off. )
M9 ( Coolant off. )
M2 ( Program end. )

