( pcb2gcode 1.3.2 )
( Software-independent Gcode )

G94 ( Millimeters per minute feed rate. )
G21 ( Units == Millimeters. )

G90 ( Absolute coordinates. )
S15000 ( RPM spindle speed. )
G64 P0.01016 ( set maximum deviation from commanded toolpath )
F100.00000 ( Feedrate. )

F100.00000 ( Feedrate. )
M3 ( Spindle on clockwise. )
G04 P0 ( dwell for no time -- G64 should not smooth over this point )
G00 Z2.00000 ( retract )

G00 X12.81539 Y53.96580 ( rapid move to begin. )
F50.00000
G01 Z-0.30000
G04 P0 ( dwell for no time -- G64 should not smooth over this point )
F100.00000
X12.81539 Y53.96580
X10.53183 Y53.96453
X9.00922 Y52.44137
X9.00823 Y44.54161
X10.51077 Y44.27867
X12.44975 Y43.97397
X12.54114 Y44.04522
X12.81198 Y44.36175
X12.82552 Y46.04857
X12.81290 Y47.60587
X12.81539 Y53.96580
G04 P0 ( dwell for no time -- G64 should not smooth over this point )
G00 Z2.00000 ( retract )

G00 X15.35536 Y53.96580 ( rapid move to begin. )
F50.00000
G01 Z-0.30000
G04 P0 ( dwell for no time -- G64 should not smooth over this point )
F100.00000
X15.35536 Y53.96580
X12.81539 Y53.96580
X12.81290 Y47.60587
X12.82552 Y46.04857
X12.81198 Y44.36175
X13.60507 Y45.05911
X15.35351 Y47.55776
X15.35536 Y53.96580
G04 P0 ( dwell for no time -- G64 should not smooth over this point )
G00 Z2.00000 ( retract )

G00 X17.89536 Y53.96580 ( rapid move to begin. )
F50.00000
G01 Z-0.30000
G04 P0 ( dwell for no time -- G64 should not smooth over this point )
F100.00000
X17.89536 Y53.96580
X15.35536 Y53.96580
X15.35351 Y47.55776
X17.89549 Y49.37338
X17.89536 Y53.96580
G04 P0 ( dwell for no time -- G64 should not smooth over this point )
G00 Z2.00000 ( retract )

G00 X20.43536 Y53.96580 ( rapid move to begin. )
F50.00000
G01 Z-0.30000
G04 P0 ( dwell for no time -- G64 should not smooth over this point )
F100.00000
X20.43536 Y53.96580
X17.89536 Y53.96580
X17.89549 Y49.37338
X18.98467 Y49.38874
X20.43554 Y49.37503
X20.43536 Y53.96580
G04 P0 ( dwell for no time -- G64 should not smooth over this point )
G00 Z2.00000 ( retract )

G00 X22.97536 Y53.96580 ( rapid move to begin. )
F50.00000
G01 Z-0.30000
G04 P0 ( dwell for no time -- G64 should not smooth over this point )
F100.00000
X22.97536 Y53.96580
X20.43536 Y53.96580
X20.43554 Y49.37503
X22.97341 Y47.56716
X22.97536 Y53.96580
G04 P0 ( dwell for no time -- G64 should not smooth over this point )
G00 Z2.00000 ( retract )

G00 X25.51536 Y53.96580 ( rapid move to begin. )
F50.00000
G01 Z-0.30000
G04 P0 ( dwell for no time -- G64 should not smooth over this point )
F100.00000
X25.51536 Y53.96580
X22.97536 Y53.96580
X22.97341 Y47.56716
X23.16795 Y47.29157
X24.69174 Y46.78395
X25.52026 Y47.03686
X25.51536 Y53.96580
G04 P0 ( dwell for no time -- G64 should not smooth over this point )
G00 Z2.00000 ( retract )

G00 X28.05536 Y53.96580 ( rapid move to begin. )
F50.00000
G01 Z-0.30000
G04 P0 ( dwell for no time -- G64 should not smooth over this point )
F100.00000
X28.05536 Y53.96580
X25.51536 Y53.96580
X25.52026 Y47.03686
X28.06026 Y47.03612
X28.05536 Y53.96580
G04 P0 ( dwell for no time -- G64 should not smooth over this point )
G00 Z2.00000 ( retract )

G00 X31.35942 Y53.96580 ( rapid move to begin. )
F50.00000
G01 Z-0.30000
G04 P0 ( dwell for no time -- G64 should not smooth over this point )
F100.00000
X31.35942 Y53.96580
X28.05536 Y53.96580
X28.06026 Y47.03612
X28.26623 Y46.97422
X31.36417 Y46.96746
X31.35942 Y53.96580
G04 P0 ( dwell for no time -- G64 should not smooth over this point )
G00 Z2.00000 ( retract )

G00 X34.65936 Y53.96580 ( rapid move to begin. )
F50.00000
G01 Z-0.30000
G04 P0 ( dwell for no time -- G64 should not smooth over this point )
F100.00000
X34.65936 Y53.96580
X31.35939 Y53.96580
X31.35665 Y47.85339
X31.36417 Y46.96746
X34.66404 Y45.36894
X34.65936 Y53.96580
G04 P0 ( dwell for no time -- G64 should not smooth over this point )
G00 Z2.00000 ( retract )

G00 X37.19936 Y53.96580 ( rapid move to begin. )
F50.00000
G01 Z-0.30000
G04 P0 ( dwell for no time -- G64 should not smooth over this point )
F100.00000
X37.19936 Y53.96580
X34.65936 Y53.96580
X34.66404 Y45.36894
X35.15954 Y44.97742
X37.19789 Y47.52979
X37.19936 Y53.96580
G04 P0 ( dwell for no time -- G64 should not smooth over this point )
G00 Z2.00000 ( retract )

G00 X39.73936 Y53.96580 ( rapid move to begin. )
F50.00000
G01 Z-0.30000
G04 P0 ( dwell for no time -- G64 should not smooth over this point )
F100.00000
X39.73936 Y53.96580
X37.19936 Y53.96580
X37.19789 Y47.52979
X39.73857 Y49.12375
X39.73936 Y53.96580
G04 P0 ( dwell for no time -- G64 should not smooth over this point )
G00 Z2.00000 ( retract )

G00 X42.27936 Y53.96580 ( rapid move to begin. )
F50.00000
G01 Z-0.30000
G04 P0 ( dwell for no time -- G64 should not smooth over this point )
F100.00000
X42.27936 Y53.96580
X39.73936 Y53.96580
X39.73857 Y49.12375
X40.81579 Y49.13490
X42.27852 Y49.12585
X42.27936 Y53.96580
G04 P0 ( dwell for no time -- G64 should not smooth over this point )
G00 Z2.00000 ( retract )

G00 X44.81936 Y53.96580 ( rapid move to begin. )
F50.00000
G01 Z-0.30000
G04 P0 ( dwell for no time -- G64 should not smooth over this point )
F100.00000
X44.81936 Y53.96580
X42.27936 Y53.96580
X42.27852 Y49.12585
X44.81779 Y47.53734
X44.81936 Y53.96580
G04 P0 ( dwell for no time -- G64 should not smooth over this point )
G00 Z2.00000 ( retract )

G00 X47.35936 Y53.96580 ( rapid move to begin. )
F50.00000
G01 Z-0.30000
G04 P0 ( dwell for no time -- G64 should not smooth over this point )
F100.00000
X47.35936 Y53.96580
X44.81936 Y53.96580
X44.81690 Y47.60584
X44.81779 Y47.53734
X45.15965 Y47.11783
X47.37059 Y46.40219
X47.35690 Y47.60584
X47.35936 Y53.96580
G04 P0 ( dwell for no time -- G64 should not smooth over this point )
G00 Z2.00000 ( retract )

G00 X49.89936 Y53.96580 ( rapid move to begin. )
F50.00000
G01 Z-0.30000
G04 P0 ( dwell for no time -- G64 should not smooth over this point )
F100.00000
X49.89936 Y53.96580
X47.35936 Y53.96580
X47.35690 Y47.60584
X47.37059 Y46.40219
X49.89924 Y44.76833
X49.90950 Y46.04852
X49.89690 Y47.60584
X49.89936 Y53.96580
G04 P0 ( dwell for no time -- G64 should not smooth over this point )
G00 Z2.00000 ( retract )

G00 X52.43936 Y53.96580 ( rapid move to begin. )
F50.00000
G01 Z-0.30000
G04 P0 ( dwell for no time -- G64 should not smooth over this point )
F100.00000
X52.43936 Y53.96580
X49.89936 Y53.96580
X49.89690 Y47.60584
X49.90950 Y46.04852
X49.89924 Y44.76833
X52.42864 Y42.31644
X52.44950 Y46.04852
X52.43690 Y47.60584
X52.43936 Y53.96580
G04 P0 ( dwell for no time -- G64 should not smooth over this point )
G00 Z2.00000 ( retract )

G00 X54.97936 Y53.96580 ( rapid move to begin. )
F50.00000
G01 Z-0.30000
G04 P0 ( dwell for no time -- G64 should not smooth over this point )
F100.00000
X54.97936 Y53.96580
X52.43936 Y53.96580
X52.43690 Y47.60584
X52.44950 Y46.04852
X52.42864 Y42.31644
X53.73004 Y40.64081
X54.97012 Y41.92673
X54.98950 Y46.04852
X54.97690 Y47.60584
X54.97936 Y53.96580
G04 P0 ( dwell for no time -- G64 should not smooth over this point )
G00 Z2.00000 ( retract )

G00 X57.11334 Y53.96580 ( rapid move to begin. )
F50.00000
G01 Z-0.30000
G04 P0 ( dwell for no time -- G64 should not smooth over this point )
F100.00000
X57.11334 Y53.96580
X54.97936 Y53.96580
X54.97690 Y47.60584
X54.98950 Y46.04852
X54.97012 Y41.92673
X55.23105 Y42.15772
X55.80456 Y44.18987
X56.48533 Y46.49177
X56.74819 Y47.45712
X57.16077 Y49.07061
X57.34900 Y49.99243
X57.42625 Y50.56243
X57.44527 Y50.85636
X57.45393 Y51.78831
X57.43989 Y52.13779
X57.34989 Y52.85407
X57.11334 Y53.96580
G04 P0 ( dwell for no time -- G64 should not smooth over this point )
G00 Z2.00000 ( retract )

G00 X63.64290 Y53.96580 ( rapid move to begin. )
F50.00000
G01 Z-0.30000
G04 P0 ( dwell for no time -- G64 should not smooth over this point )
F100.00000
X63.64290 Y53.96580
X63.34744 Y50.95272
X63.11199 Y48.16495
X63.07480 Y47.56726
X63.95704 Y47.22659
X64.35529 Y47.09721
X65.72874 Y46.74242
X66.11015 Y46.62136
X66.99191 Y46.28075
X67.74792 Y45.93310
X69.20644 Y45.85974
X70.57435 Y45.75256
X72.67054 Y45.54247
X75.04780 Y45.26173
X75.04678 Y53.96458
X63.64290 Y53.96580
G04 P0 ( dwell for no time -- G64 should not smooth over this point )
G00 Z2.00000 ( retract )

G00 X63.64287 Y53.96580 ( rapid move to begin. )
F50.00000
G01 Z-0.30000
G04 P0 ( dwell for no time -- G64 should not smooth over this point )
F100.00000
X63.64287 Y53.96580
X57.11334 Y53.96580
X57.34989 Y52.85407
X57.43989 Y52.13779
X57.45393 Y51.78831
X57.44527 Y50.85636
X57.42625 Y50.56243
X57.34900 Y49.99243
X57.16077 Y49.07061
X56.74819 Y47.45712
X56.48533 Y46.49177
X55.80456 Y44.18987
X55.23105 Y42.15772
X57.32239 Y43.60910
X58.04791 Y44.16737
X59.59541 Y45.41682
X60.69589 Y46.22599
X61.62525 Y46.82151
X61.99591 Y47.03338
X62.53241 Y47.31440
X63.07480 Y47.56726
X63.11199 Y48.16495
X63.34744 Y50.95272
X63.64287 Y53.96580
G04 P0 ( dwell for no time -- G64 should not smooth over this point )
G00 Z2.00000 ( retract )

G00 X65.07947 Y42.29381 ( rapid move to begin. )
F50.00000
G01 Z-0.30000
G04 P0 ( dwell for no time -- G64 should not smooth over this point )
F100.00000
X65.07947 Y42.29381
X65.21780 Y42.26173
X65.37093 Y42.47014
X65.57860 Y42.85007
X65.74221 Y43.29366
X65.89456 Y43.61233
X66.11122 Y43.96704
X66.29194 Y44.21476
X66.87223 Y44.88192
X67.74792 Y45.93310
X66.99191 Y46.28075
X66.11015 Y46.62136
X65.72874 Y46.74242
X64.35529 Y47.09721
X63.95704 Y47.22659
X63.07480 Y47.56726
X62.53241 Y47.31440
X61.99591 Y47.03338
X61.62525 Y46.82151
X60.69589 Y46.22599
X59.59541 Y45.41682
X58.04791 Y44.16737
X57.32239 Y43.60910
X55.55015 Y42.38446
X55.23105 Y42.15772
X55.11388 Y42.04050
X60.70516 Y42.09000
X62.15857 Y42.13816
X63.04074 Y42.21906
X63.74010 Y42.36768
X64.17337 Y42.41373
X64.62509 Y42.39000
X65.07947 Y42.29381
G04 P0 ( dwell for no time -- G64 should not smooth over this point )
G00 Z2.00000 ( retract )

G00 X65.84188 Y40.97083 ( rapid move to begin. )
F50.00000
G01 Z-0.30000
G04 P0 ( dwell for no time -- G64 should not smooth over this point )
F100.00000
X65.84188 Y40.97083
X65.21780 Y42.26173
X64.76553 Y42.36768
X64.46619 Y42.40669
X64.17337 Y42.41373
X63.88054 Y42.39000
X63.04074 Y42.21906
X62.15857 Y42.13816
X60.70516 Y42.09000
X55.11388 Y42.04050
X54.97012 Y41.92673
X53.73004 Y40.64081
X53.64911 Y39.90151
X53.66092 Y39.68582
X65.16977 Y39.68582
X65.84188 Y40.97083
G04 P0 ( dwell for no time -- G64 should not smooth over this point )
G00 Z2.00000 ( retract )

G00 X65.89331 Y38.27403 ( rapid move to begin. )
F50.00000
G01 Z-0.30000
G04 P0 ( dwell for no time -- G64 should not smooth over this point )
F100.00000
X65.89331 Y38.27403
X65.90847 Y38.30081
X65.89445 Y38.32915
X65.16977 Y39.68582
X53.66092 Y39.68582
X53.61757 Y38.35082
X53.66489 Y36.95082
X65.13715 Y36.95082
X65.89331 Y38.27403
G04 P0 ( dwell for no time -- G64 should not smooth over this point )
G00 Z2.00000 ( retract )

G00 X65.89364 Y35.53081 ( rapid move to begin. )
F50.00000
G01 Z-0.30000
G04 P0 ( dwell for no time -- G64 should not smooth over this point )
F100.00000
X65.89364 Y35.53081
X65.13715 Y36.95082
X53.66489 Y36.95082
X53.61757 Y35.55080
X53.66458 Y34.15580
X65.13893 Y34.15580
X65.89364 Y35.53081
G04 P0 ( dwell for no time -- G64 should not smooth over this point )
G00 Z2.00000 ( retract )

G00 X65.86070 Y32.84997 ( rapid move to begin. )
F50.00000
G01 Z-0.30000
G04 P0 ( dwell for no time -- G64 should not smooth over this point )
F100.00000
X65.86070 Y32.84997
X65.13893 Y34.15580
X53.66458 Y34.15580
X53.61757 Y32.76081
X53.66458 Y31.36582
X65.13964 Y31.36582
X65.89610 Y32.78580
X65.86070 Y32.84997
G04 P0 ( dwell for no time -- G64 should not smooth over this point )
G00 Z2.00000 ( retract )

G00 X65.87998 Y30.06198 ( rapid move to begin. )
F50.00000
G01 Z-0.30000
G04 P0 ( dwell for no time -- G64 should not smooth over this point )
F100.00000
X65.87998 Y30.06198
X65.13964 Y31.36582
X53.66458 Y31.36582
X53.61757 Y29.97080
X53.66092 Y28.63580
X65.16977 Y28.63580
X65.89445 Y29.99249
X65.90599 Y30.01581
X65.87998 Y30.06198
G04 P0 ( dwell for no time -- G64 should not smooth over this point )
G00 Z2.00000 ( retract )

G00 X65.89288 Y27.25081 ( rapid move to begin. )
F50.00000
G01 Z-0.30000
G04 P0 ( dwell for no time -- G64 should not smooth over this point )
F100.00000
X65.89288 Y27.25081
X65.16977 Y28.63580
X53.66092 Y28.63580
X53.61757 Y27.30080
X53.66458 Y25.90581
X65.13913 Y25.90581
X65.89288 Y27.25081
G04 P0 ( dwell for no time -- G64 should not smooth over this point )
G00 Z2.00000 ( retract )

G00 X65.89453 Y24.50236 ( rapid move to begin. )
F50.00000
G01 Z-0.30000
G04 P0 ( dwell for no time -- G64 should not smooth over this point )
F100.00000
X65.89453 Y24.50236
X65.13913 Y25.90581
X53.66458 Y25.90581
X53.61757 Y24.51081
X53.66489 Y23.11082
X65.13642 Y23.11082
X65.89453 Y24.50236
G04 P0 ( dwell for no time -- G64 should not smooth over this point )
G00 Z2.00000 ( retract )

G00 X65.89407 Y21.66299 ( rapid move to begin. )
F50.00000
G01 Z-0.30000
G04 P0 ( dwell for no time -- G64 should not smooth over this point )
F100.00000
X65.89407 Y21.66299
X65.92011 Y21.71082
X65.13642 Y23.11082
X53.66489 Y23.11082
X53.61757 Y21.71082
X53.66458 Y20.31583
X65.13913 Y20.31583
X65.89407 Y21.66299
G04 P0 ( dwell for no time -- G64 should not smooth over this point )
G00 Z2.00000 ( retract )

G00 X65.84624 Y19.00846 ( rapid move to begin. )
F50.00000
G01 Z-0.30000
G04 P0 ( dwell for no time -- G64 should not smooth over this point )
F100.00000
X65.84624 Y19.00846
X65.13913 Y20.31583
X53.66458 Y20.31583
X53.61757 Y18.92081
X53.66092 Y17.58581
X65.16977 Y17.58581
X65.88081 Y18.94583
X65.84624 Y19.00846
G04 P0 ( dwell for no time -- G64 should not smooth over this point )
G00 Z2.00000 ( retract )

G00 X65.89438 Y16.22257 ( rapid move to begin. )
F50.00000
G01 Z-0.30000
G04 P0 ( dwell for no time -- G64 should not smooth over this point )
F100.00000
X65.89438 Y16.22257
X65.16977 Y17.58581
X53.66092 Y17.58581
X53.62651 Y16.84548
X53.89676 Y14.85582
X65.13891 Y14.85582
X65.89438 Y16.22257
G04 P0 ( dwell for no time -- G64 should not smooth over this point )
G00 Z2.00000 ( retract )

G00 X65.89438 Y13.43255 ( rapid move to begin. )
F50.00000
G01 Z-0.30000
G04 P0 ( dwell for no time -- G64 should not smooth over this point )
F100.00000
X65.89438 Y13.43255
X65.90672 Y13.45582
X65.89448 Y13.47921
X65.13891 Y14.85582
X53.89676 Y14.85582
X53.89773 Y12.37988
X54.63146 Y12.06080
X65.13626 Y12.06080
X65.89438 Y13.43255
G04 P0 ( dwell for no time -- G64 should not smooth over this point )
G00 Z2.00000 ( retract )

G00 X65.86070 Y10.74996 ( rapid move to begin. )
F50.00000
G01 Z-0.30000
G04 P0 ( dwell for no time -- G64 should not smooth over this point )
F100.00000
X65.86070 Y10.74996
X65.13626 Y12.06080
X54.63146 Y12.06080
X57.96069 Y10.07914
X60.08027 Y8.88067
X61.29020 Y8.24857
X62.11250 Y7.85007
X62.92758 Y7.48893
X63.62423 Y7.21037
X64.17337 Y7.37128
X65.25681 Y7.73996
X66.05219 Y8.04902
X67.09755 Y8.50371
X65.86070 Y10.74996
G04 P0 ( dwell for no time -- G64 should not smooth over this point )
G00 Z2.00000 ( retract )

G00 X75.04780 Y9.22095 ( rapid move to begin. )
F50.00000
G01 Z-0.30000
G04 P0 ( dwell for no time -- G64 should not smooth over this point )
F100.00000
X75.04780 Y9.22095
X72.42733 Y8.89957
X70.41649 Y8.69119
X68.69328 Y8.55865
X68.00044 Y8.52449
X67.09755 Y8.50371
X66.05219 Y8.04902
X65.25681 Y7.73996
X64.17337 Y7.37128
X63.62423 Y7.21037
X64.01714 Y3.30885
X64.34683 Y0.62580
X75.04661 Y0.62707
X75.04780 Y9.22095
G04 P0 ( dwell for no time -- G64 should not smooth over this point )
G00 Z2.00000 ( retract )

G00 X75.04780 Y13.45582 ( rapid move to begin. )
F50.00000
G01 Z-0.30000
G04 P0 ( dwell for no time -- G64 should not smooth over this point )
F100.00000
X75.04780 Y13.45582
X65.90672 Y13.45582
X65.13626 Y12.06080
X67.09755 Y8.50371
X68.00044 Y8.52449
X68.69328 Y8.55865
X70.41649 Y8.69119
X72.42733 Y8.89957
X75.04780 Y9.22093
X75.04780 Y13.45582
G04 P0 ( dwell for no time -- G64 should not smooth over this point )
G00 Z2.00000 ( retract )

G00 X75.04780 Y16.22582 ( rapid move to begin. )
F50.00000
G01 Z-0.30000
G04 P0 ( dwell for no time -- G64 should not smooth over this point )
F100.00000
X75.04780 Y16.22582
X65.89610 Y16.22582
X65.13891 Y14.85582
X65.90672 Y13.45582
X75.04780 Y13.45582
X75.04780 Y16.22582
G04 P0 ( dwell for no time -- G64 should not smooth over this point )
G00 Z2.00000 ( retract )

G00 X75.04780 Y18.94583 ( rapid move to begin. )
F50.00000
G01 Z-0.30000
G04 P0 ( dwell for no time -- G64 should not smooth over this point )
F100.00000
X75.04780 Y18.94583
X65.88081 Y18.94583
X65.16977 Y17.58581
X65.89610 Y16.22582
X75.04780 Y16.22582
X75.04780 Y18.94583
G04 P0 ( dwell for no time -- G64 should not smooth over this point )
G00 Z2.00000 ( retract )

G00 X75.04780 Y21.71082 ( rapid move to begin. )
F50.00000
G01 Z-0.30000
G04 P0 ( dwell for no time -- G64 should not smooth over this point )
F100.00000
X75.04780 Y21.71082
X65.92011 Y21.71082
X65.13913 Y20.31583
X65.88081 Y18.94583
X75.04780 Y18.94583
X75.04780 Y21.71082
G04 P0 ( dwell for no time -- G64 should not smooth over this point )
G00 Z2.00000 ( retract )

G00 X75.04780 Y24.50581 ( rapid move to begin. )
F50.00000
G01 Z-0.30000
G04 P0 ( dwell for no time -- G64 should not smooth over this point )
F100.00000
X75.04780 Y24.50581
X65.89633 Y24.50581
X65.13642 Y23.11082
X65.92011 Y21.71082
X75.04780 Y21.71082
X75.04780 Y24.50581
G04 P0 ( dwell for no time -- G64 should not smooth over this point )
G00 Z2.00000 ( retract )

G00 X75.04780 Y27.25081 ( rapid move to begin. )
F50.00000
G01 Z-0.30000
G04 P0 ( dwell for no time -- G64 should not smooth over this point )
F100.00000
X75.04780 Y27.25081
X65.89288 Y27.25081
X65.13913 Y25.90581
X65.89633 Y24.50581
X75.04780 Y24.50581
X75.04780 Y27.25081
G04 P0 ( dwell for no time -- G64 should not smooth over this point )
G00 Z2.00000 ( retract )

G00 X75.04780 Y30.01581 ( rapid move to begin. )
F50.00000
G01 Z-0.30000
G04 P0 ( dwell for no time -- G64 should not smooth over this point )
F100.00000
X75.04780 Y30.01581
X65.90599 Y30.01581
X65.16977 Y28.63580
X65.89288 Y27.25081
X75.04780 Y27.25081
X75.04780 Y30.01581
G04 P0 ( dwell for no time -- G64 should not smooth over this point )
G00 Z2.00000 ( retract )

G00 X75.04780 Y32.78580 ( rapid move to begin. )
F50.00000
G01 Z-0.30000
G04 P0 ( dwell for no time -- G64 should not smooth over this point )
F100.00000
X75.04780 Y32.78580
X65.89610 Y32.78580
X65.13964 Y31.36582
X65.90599 Y30.01581
X75.04780 Y30.01583
X75.04780 Y32.78580
G04 P0 ( dwell for no time -- G64 should not smooth over this point )
G00 Z2.00000 ( retract )

G00 X75.04780 Y35.53081 ( rapid move to begin. )
F50.00000
G01 Z-0.30000
G04 P0 ( dwell for no time -- G64 should not smooth over this point )
F100.00000
X75.04780 Y35.53081
X65.89364 Y35.53081
X65.13893 Y34.15580
X65.89610 Y32.78580
X75.04780 Y32.78580
X75.04780 Y35.53081
G04 P0 ( dwell for no time -- G64 should not smooth over this point )
G00 Z2.00000 ( retract )

G00 X75.04780 Y38.30081 ( rapid move to begin. )
F50.00000
G01 Z-0.30000
G04 P0 ( dwell for no time -- G64 should not smooth over this point )
F100.00000
X75.04780 Y38.30081
X65.90847 Y38.30081
X65.13715 Y36.95082
X65.89364 Y35.53081
X75.04780 Y35.53083
X75.04780 Y38.30081
G04 P0 ( dwell for no time -- G64 should not smooth over this point )
G00 Z2.00000 ( retract )

G00 X75.04780 Y40.97080 ( rapid move to begin. )
F50.00000
G01 Z-0.30000
G04 P0 ( dwell for no time -- G64 should not smooth over this point )
F100.00000
X75.04780 Y40.97080
X65.84188 Y40.97083
X65.16977 Y39.68582
X65.90847 Y38.30081
X75.04780 Y38.30081
X75.04780 Y40.97080
G04 P0 ( dwell for no time -- G64 should not smooth over this point )
G00 Z2.00000 ( retract )

G00 X75.04780 Y45.26170 ( rapid move to begin. )
F50.00000
G01 Z-0.30000
G04 P0 ( dwell for no time -- G64 should not smooth over this point )
F100.00000
X75.04780 Y45.26170
X72.67054 Y45.54247
X70.57435 Y45.75256
X69.20644 Y45.85974
X67.74792 Y45.93310
X66.87223 Y44.88192
X66.42061 Y44.37367
X66.11122 Y43.96704
X65.81358 Y43.45342
X65.52595 Y42.73595
X65.37093 Y42.47014
X65.21780 Y42.26173
X65.84188 Y40.97083
X75.04780 Y40.97080
X75.04780 Y45.26170
G04 P0 ( dwell for no time -- G64 should not smooth over this point )
G00 Z2.00000 ( retract )

G00 X42.55937 Y34.19700 ( rapid move to begin. )
F50.00000
G01 Z-0.30000
G04 P0 ( dwell for no time -- G64 should not smooth over this point )
F100.00000
X42.55937 Y34.19700
X42.55114 Y34.52139
X42.50824 Y34.84955
X42.42739 Y35.18852
X42.28180 Y35.59659
X42.28180 Y41.98203
X42.13623 Y42.39010
X42.03054 Y42.88586
X42.00425 Y43.38162
X42.05539 Y43.86655
X42.13623 Y44.20552
X42.20207 Y44.40760
X42.36603 Y44.79665
X42.60588 Y45.22952
X42.83956 Y45.57623
X45.15965 Y47.11783
X44.81779 Y47.53734
X42.27852 Y49.12585
X40.81579 Y49.13490
X39.73857 Y49.12375
X37.19789 Y47.52979
X35.15954 Y44.97742
X35.32560 Y44.52416
X35.38806 Y44.01680
X35.42659 Y43.50943
X35.44956 Y42.78980
X35.42659 Y42.07019
X35.38159 Y41.49963
X35.28146 Y40.77230
X35.16980 Y40.17258
X35.16980 Y36.89804
X35.05817 Y36.29832
X34.95804 Y35.57099
X34.90480 Y34.84366
X34.89007 Y34.28080
X34.90480 Y33.71796
X34.98001 Y32.79845
X36.68273 Y28.24896
X37.82136 Y28.86013
X38.76857 Y29.43572
X39.58645 Y29.98634
X40.29638 Y30.53696
X40.63164 Y30.82200
X41.09019 Y31.26381
X41.48101 Y31.69571
X41.85592 Y32.19233
X42.19760 Y32.78197
X42.36156 Y33.17102
X42.46941 Y33.52987
X42.53308 Y33.86886
X42.55937 Y34.19700
G04 P0 ( dwell for no time -- G64 should not smooth over this point )
G00 Z2.00000 ( retract )

G00 X36.11524 Y29.76646 ( rapid move to begin. )
F50.00000
G01 Z-0.30000
G04 P0 ( dwell for no time -- G64 should not smooth over this point )
F100.00000
X36.11524 Y29.76646
X34.98001 Y32.79845
X34.91303 Y33.56119
X34.89007 Y34.28080
X34.91303 Y35.00043
X34.95804 Y35.57099
X35.03333 Y36.14155
X35.16980 Y36.89804
X35.16980 Y40.17258
X35.28146 Y40.77230
X35.38159 Y41.49963
X35.42659 Y42.07019
X35.44956 Y42.78980
X35.42659 Y43.50943
X35.38806 Y44.01680
X35.32560 Y44.52416
X35.15954 Y44.97742
X34.66404 Y45.36894
X31.36417 Y46.96746
X28.26623 Y46.97422
X27.99897 Y41.62556
X28.05780 Y41.47403
X28.05780 Y37.50159
X28.20339 Y37.09352
X28.30908 Y36.59776
X28.33537 Y36.10200
X28.28424 Y35.61707
X28.20339 Y35.27810
X28.13756 Y35.07602
X27.97360 Y34.68697
X27.73375 Y34.25410
X27.38399 Y33.75748
X26.86619 Y33.16881
X26.70942 Y33.01207
X26.40764 Y32.72700
X25.69591 Y32.14034
X26.01544 Y31.73762
X27.03365 Y29.37288
X28.09318 Y27.02869
X29.05795 Y25.90705
X29.53319 Y25.41655
X29.99625 Y24.97871
X32.54159 Y22.83795
X34.26091 Y21.36454
X34.91875 Y22.57506
X35.32154 Y23.41750
X35.67140 Y24.25994
X36.00521 Y25.18780
X36.23414 Y25.95884
X36.45021 Y26.83931
X36.58468 Y27.56298
X36.68273 Y28.24896
X36.11524 Y29.76646
G04 P0 ( dwell for no time -- G64 should not smooth over this point )
G00 Z2.00000 ( retract )

G00 X27.53629 Y28.25048 ( rapid move to begin. )
F50.00000
G01 Z-0.30000
G04 P0 ( dwell for no time -- G64 should not smooth over this point )
F100.00000
X27.53629 Y28.25048
X26.81066 Y29.88190
X26.01544 Y31.73762
X25.69591 Y32.14034
X25.48689 Y32.18979
X21.92822 Y30.32688
X15.49732 Y27.06997
X19.75700 Y27.05816
X22.60523 Y26.99577
X23.43901 Y26.92948
X23.87170 Y26.85107
X24.17325 Y26.76082
X24.44777 Y26.69887
X24.86149 Y26.66110
X25.09746 Y26.67065
X25.35717 Y26.70593
X25.91798 Y26.85701
X26.31818 Y26.92841
X27.00177 Y26.98739
X28.09318 Y27.02869
X27.53629 Y28.25048
G04 P0 ( dwell for no time -- G64 should not smooth over this point )
G00 Z2.00000 ( retract )

G00 X24.61102 Y34.25304 ( rapid move to begin. )
F50.00000
G01 Z-0.30000
G04 P0 ( dwell for no time -- G64 should not smooth over this point )
F100.00000
X24.61102 Y34.25304
X23.98788 Y35.71915
X23.97376 Y36.40266
X24.05326 Y37.15699
X24.15138 Y37.61724
X24.24780 Y37.96182
X24.24780 Y41.14080
X24.07290 Y41.83151
X24.69174 Y46.78395
X23.16795 Y47.29157
X21.14956 Y46.02698
X20.76188 Y45.48352
X20.52203 Y45.05065
X20.35807 Y44.66160
X20.25022 Y44.30275
X20.18654 Y43.96376
X20.16025 Y43.63562
X20.16848 Y43.31123
X20.21139 Y42.98307
X20.32523 Y42.53389
X20.55040 Y42.28373
X20.62541 Y42.01675
X20.68908 Y41.67776
X20.71537 Y41.18200
X20.66424 Y40.69707
X20.58339 Y40.35810
X20.45736 Y39.99920
X20.35360 Y39.76697
X20.11375 Y39.33410
X19.76399 Y38.83748
X19.24619 Y38.24881
X18.78764 Y37.80700
X18.45238 Y37.52196
X17.74245 Y36.97134
X16.90707 Y36.40937
X16.19821 Y36.15786
X16.02618 Y35.23431
X15.85285 Y34.18512
X15.62415 Y32.61126
X15.36176 Y30.45401
X15.01023 Y26.87949
X15.49732 Y27.06997
X19.92373 Y29.30415
X22.62908 Y30.68807
X25.48689 Y32.18979
X24.61102 Y34.25304
G04 P0 ( dwell for no time -- G64 should not smooth over this point )
G00 Z2.00000 ( retract )

G00 X28.33537 Y36.10200 ( rapid move to begin. )
F50.00000
G01 Z-0.30000
G04 P0 ( dwell for no time -- G64 should not smooth over this point )
F100.00000
X28.33537 Y36.10200
X28.32714 Y36.42639
X28.28424 Y36.75455
X28.20339 Y37.09352
X28.05780 Y37.50159
X28.05780 Y41.47403
X27.99897 Y41.62556
X28.26623 Y46.97422
X28.06026 Y47.03612
X25.52026 Y47.03686
X24.69174 Y46.78395
X24.07290 Y41.83151
X24.24780 Y41.14080
X24.24780 Y37.96182
X24.15138 Y37.61724
X24.05326 Y37.15699
X23.97376 Y36.40266
X23.98788 Y35.71915
X25.48689 Y32.18979
X25.69591 Y32.14034
X26.40764 Y32.72700
X26.86619 Y33.16881
X27.25701 Y33.60071
X27.63192 Y34.09733
X27.89372 Y34.53018
X28.13756 Y35.07602
X28.20339 Y35.27810
X28.28424 Y35.61707
X28.33537 Y36.10200
G04 P0 ( dwell for no time -- G64 should not smooth over this point )
G00 Z2.00000 ( retract )

G00 X20.71537 Y41.18200 ( rapid move to begin. )
F50.00000
G01 Z-0.30000
G04 P0 ( dwell for no time -- G64 should not smooth over this point )
F100.00000
X20.71537 Y41.18200
X20.68908 Y41.67776
X20.62541 Y42.01675
X20.55040 Y42.28373
X20.32523 Y42.53389
X20.21139 Y42.98307
X20.16848 Y43.31123
X20.16848 Y43.79239
X20.21139 Y44.12055
X20.29223 Y44.45952
X20.41827 Y44.81842
X20.60191 Y45.20745
X20.76188 Y45.48352
X21.14956 Y46.02698
X23.16795 Y47.29157
X22.97341 Y47.56716
X20.43554 Y49.37503
X19.36821 Y49.38867
X18.14212 Y49.38102
X17.89549 Y49.37338
X17.82739 Y49.32750
X15.35351 Y47.55776
X13.60507 Y45.05911
X12.81198 Y44.36175
X12.54114 Y44.04522
X12.44975 Y43.97397
X13.29209 Y41.96201
X13.88259 Y40.63166
X14.39710 Y39.54248
X15.19316 Y37.97215
X15.66410 Y37.09921
X16.19821 Y36.15786
X16.90707 Y36.40937
X17.74245 Y36.97134
X18.25879 Y37.36517
X18.78764 Y37.80700
X19.24619 Y38.24881
X19.63701 Y38.68071
X19.76399 Y38.83748
X20.11375 Y39.33410
X20.27372 Y39.61018
X20.45736 Y39.99920
X20.62541 Y40.51487
X20.68908 Y40.85386
X20.71537 Y41.18200
G04 P0 ( dwell for no time -- G64 should not smooth over this point )
G00 Z2.00000 ( retract )

G00 X9.00826 Y44.54159 ( rapid move to begin. )
F50.00000
G01 Z-0.30000
G04 P0 ( dwell for no time -- G64 should not smooth over this point )
F100.00000
X9.00826 Y44.54159
X9.00211 Y41.01419
X6.46780 Y38.46433
X6.46780 Y22.21580
X11.99111 Y22.21580
X14.07421 Y25.32836
X14.63708 Y26.24081
X15.01023 Y26.87949
X15.36176 Y30.45401
X15.62415 Y32.61126
X15.85285 Y34.18512
X16.02618 Y35.23431
X16.19821 Y36.15786
X15.66410 Y37.09921
X15.19316 Y37.97215
X14.39710 Y39.54248
X13.88259 Y40.63166
X13.29209 Y41.96201
X12.44975 Y43.97397
X10.51077 Y44.27867
X9.00826 Y44.54159
G04 P0 ( dwell for no time -- G64 should not smooth over this point )
G00 Z2.00000 ( retract )

G00 X6.46780 Y22.21580 ( rapid move to begin. )
F50.00000
G01 Z-0.30000
G04 P0 ( dwell for no time -- G64 should not smooth over this point )
F100.00000
X6.46780 Y22.21580
X6.46780 Y5.71332
X8.31598 Y3.85764
X8.97854 Y4.32571
X9.63940 Y4.75304
X10.46302 Y5.22376
X11.11846 Y5.54377
X11.58359 Y5.74522
X12.81656 Y6.20943
X13.46705 Y6.79264
X14.39125 Y7.57107
X15.34904 Y8.33135
X16.01531 Y9.19616
X17.91228 Y11.55483
X19.83470 Y14.78190
X17.87994 Y16.52005
X16.01452 Y18.25032
X14.06746 Y20.13310
X11.99111 Y22.21580
X6.46780 Y22.21580
G04 P0 ( dwell for no time -- G64 should not smooth over this point )
G00 Z2.00000 ( retract )

G00 X8.31601 Y3.85767 ( rapid move to begin. )
F50.00000
G01 Z-0.30000
G04 P0 ( dwell for no time -- G64 should not smooth over this point )
F100.00000
X8.31601 Y3.85767
X8.98586 Y3.18779
X9.00638 Y3.14939
X9.00907 Y0.62704
X12.82026 Y0.62580
X12.81656 Y6.20943
X11.58359 Y5.74522
X11.11846 Y5.54377
X10.46302 Y5.22376
X9.63940 Y4.75304
X8.97854 Y4.32571
X8.31601 Y3.85767
G04 P0 ( dwell for no time -- G64 should not smooth over this point )
G00 Z2.00000 ( retract )

G00 X12.82026 Y0.62580 ( rapid move to begin. )
F50.00000
G01 Z-0.30000
G04 P0 ( dwell for no time -- G64 should not smooth over this point )
F100.00000
X12.82026 Y0.62580
X15.36026 Y0.62580
X15.36273 Y6.98581
X15.34904 Y8.33135
X14.39125 Y7.57107
X13.46705 Y6.79264
X12.81656 Y6.20943
X12.82026 Y0.62580
G04 P0 ( dwell for no time -- G64 should not smooth over this point )
G00 Z2.00000 ( retract )

G00 X15.36026 Y0.62580 ( rapid move to begin. )
F50.00000
G01 Z-0.30000
G04 P0 ( dwell for no time -- G64 should not smooth over this point )
F100.00000
X15.36026 Y0.62580
X17.90026 Y0.62580
X17.90273 Y6.98581
X17.89013 Y8.54313
X17.91228 Y11.55483
X16.01531 Y9.19616
X15.34904 Y8.33135
X15.36273 Y6.98581
X15.36026 Y0.62580
G04 P0 ( dwell for no time -- G64 should not smooth over this point )
G00 Z2.00000 ( retract )

G00 X17.90026 Y0.62580 ( rapid move to begin. )
F50.00000
G01 Z-0.30000
G04 P0 ( dwell for no time -- G64 should not smooth over this point )
F100.00000
X17.90026 Y0.62580
X20.44026 Y0.62580
X20.44273 Y6.98581
X20.43013 Y8.54313
X20.44948 Y10.95346
X20.44212 Y14.64073
X19.83470 Y14.78190
X17.91228 Y11.55483
X17.89013 Y8.54313
X17.90273 Y6.98581
X17.90026 Y0.62580
G04 P0 ( dwell for no time -- G64 should not smooth over this point )
G00 Z2.00000 ( retract )

G00 X20.44026 Y0.62580 ( rapid move to begin. )
F50.00000
G01 Z-0.30000
G04 P0 ( dwell for no time -- G64 should not smooth over this point )
F100.00000
X20.44026 Y0.62580
X22.98026 Y0.62580
X22.98273 Y6.98581
X22.97013 Y8.54313
X22.99167 Y12.09283
X22.98319 Y14.35122
X20.44212 Y14.64073
X20.44948 Y10.95346
X20.43013 Y8.54313
X20.44273 Y6.98581
X20.44026 Y0.62580
G04 P0 ( dwell for no time -- G64 should not smooth over this point )
G00 Z2.00000 ( retract )

G00 X22.98026 Y0.62580 ( rapid move to begin. )
F50.00000
G01 Z-0.30000
G04 P0 ( dwell for no time -- G64 should not smooth over this point )
F100.00000
X22.98026 Y0.62580
X26.78826 Y0.62580
X26.78244 Y14.24154
X24.89563 Y14.34977
X22.98319 Y14.35122
X22.98948 Y10.95346
X22.97013 Y8.54313
X22.98273 Y6.98581
X22.98026 Y0.62580
G04 P0 ( dwell for no time -- G64 should not smooth over this point )
G00 Z2.00000 ( retract )

G00 X26.78826 Y0.62580 ( rapid move to begin. )
F50.00000
G01 Z-0.30000
G04 P0 ( dwell for no time -- G64 should not smooth over this point )
F100.00000
X26.78826 Y0.62580
X30.60026 Y0.62580
X30.60273 Y6.98581
X30.59013 Y8.54313
X30.61167 Y12.09283
X30.60110 Y14.90608
X26.78244 Y14.24154
X26.78826 Y0.62580
G04 P0 ( dwell for no time -- G64 should not smooth over this point )
G00 Z2.00000 ( retract )

G00 X30.60026 Y0.62580 ( rapid move to begin. )
F50.00000
G01 Z-0.30000
G04 P0 ( dwell for no time -- G64 should not smooth over this point )
F100.00000
X30.60026 Y0.62580
X33.14026 Y0.62580
X33.14273 Y6.98581
X33.13013 Y8.54313
X33.14948 Y10.95346
X33.14540 Y13.76501
X31.84657 Y15.27868
X30.60110 Y14.90608
X30.61167 Y12.09283
X30.59013 Y8.54313
X30.60273 Y6.98581
X30.60026 Y0.62580
G04 P0 ( dwell for no time -- G64 should not smooth over this point )
G00 Z2.00000 ( retract )

G00 X33.14026 Y0.62580 ( rapid move to begin. )
F50.00000
G01 Z-0.30000
G04 P0 ( dwell for no time -- G64 should not smooth over this point )
F100.00000
X33.14026 Y0.62580
X35.68026 Y0.62580
X35.68273 Y6.98581
X35.67013 Y8.54313
X35.69208 Y11.44401
X33.14540 Y13.76501
X33.14948 Y10.95346
X33.13013 Y8.54313
X33.14273 Y6.98581
X33.14026 Y0.62580
G04 P0 ( dwell for no time -- G64 should not smooth over this point )
G00 Z2.00000 ( retract )

G00 X35.68026 Y0.62580 ( rapid move to begin. )
F50.00000
G01 Z-0.30000
G04 P0 ( dwell for no time -- G64 should not smooth over this point )
F100.00000
X35.68026 Y0.62580
X38.22026 Y0.62580
X38.22006 Y9.78095
X35.69208 Y11.44401
X35.67013 Y8.54313
X35.68273 Y6.98581
X35.68026 Y0.62580
G04 P0 ( dwell for no time -- G64 should not smooth over this point )
G00 Z2.00000 ( retract )

G00 X38.22026 Y0.62580 ( rapid move to begin. )
F50.00000
G01 Z-0.30000
G04 P0 ( dwell for no time -- G64 should not smooth over this point )
F100.00000
X38.22026 Y0.62580
X40.76026 Y0.62580
X40.76273 Y6.98581
X40.75181 Y8.75382
X38.22006 Y9.78095
X38.22026 Y0.62580
G04 P0 ( dwell for no time -- G64 should not smooth over this point )
G00 Z2.00000 ( retract )

G00 X40.76026 Y0.62580 ( rapid move to begin. )
F50.00000
G01 Z-0.30000
G04 P0 ( dwell for no time -- G64 should not smooth over this point )
F100.00000
X40.76026 Y0.62580
X43.30026 Y0.62580
X43.30273 Y6.98581
X43.28914 Y8.36660
X40.75181 Y8.75382
X40.76026 Y0.62580
G04 P0 ( dwell for no time -- G64 should not smooth over this point )
G00 Z2.00000 ( retract )

G00 X43.30026 Y0.62580 ( rapid move to begin. )
F50.00000
G01 Z-0.30000
G04 P0 ( dwell for no time -- G64 should not smooth over this point )
F100.00000
X43.30026 Y0.62580
X45.84026 Y0.62580
X45.83076 Y8.62332
X43.28914 Y8.36660
X43.30273 Y6.98581
X43.30026 Y0.62580
G04 P0 ( dwell for no time -- G64 should not smooth over this point )
G00 Z2.00000 ( retract )

G00 X45.84026 Y0.62580 ( rapid move to begin. )
F50.00000
G01 Z-0.30000
G04 P0 ( dwell for no time -- G64 should not smooth over this point )
F100.00000
X45.84026 Y0.62580
X53.50332 Y0.62580
X53.51747 Y2.15734
X53.50179 Y5.85065
X53.44914 Y7.81534
X53.36722 Y9.82255
X53.28592 Y11.28516
X45.83076 Y8.62332
X45.84026 Y0.62580
G04 P0 ( dwell for no time -- G64 should not smooth over this point )
G00 Z2.00000 ( retract )

G00 X53.50332 Y0.62580 ( rapid move to begin. )
F50.00000
G01 Z-0.30000
G04 P0 ( dwell for no time -- G64 should not smooth over this point )
F100.00000
X53.50332 Y0.62580
X64.34686 Y0.62580
X64.01714 Y3.30885
X63.62423 Y7.21037
X62.92758 Y7.48893
X62.11250 Y7.85007
X61.29020 Y8.24857
X60.08027 Y8.88067
X57.96069 Y10.07914
X54.63146 Y12.06080
X53.89773 Y12.37988
X53.28592 Y11.28516
X53.36722 Y9.82255
X53.44914 Y7.81534
X53.50179 Y5.85065
X53.51747 Y2.15734
X53.50332 Y0.62580
G04 P0 ( dwell for no time -- G64 should not smooth over this point )
G00 Z2.00000 ( retract )

G00 X53.89773 Y12.45194 ( rapid move to begin. )
F50.00000
G01 Z-0.30000
G04 P0 ( dwell for no time -- G64 should not smooth over this point )
F100.00000
X53.89773 Y12.45194
X53.89676 Y14.85582
X53.62651 Y16.84548
X53.66092 Y17.58581
X53.61757 Y18.92081
X53.66458 Y20.31583
X53.61757 Y21.71082
X53.66489 Y23.11082
X53.61757 Y24.51081
X53.66458 Y25.90581
X53.61757 Y27.30080
X53.66092 Y28.63580
X53.61757 Y29.97080
X53.66458 Y31.36582
X53.61757 Y32.76081
X53.66458 Y34.15580
X53.61757 Y35.55080
X53.66489 Y36.95082
X53.61757 Y38.35082
X53.66092 Y39.68582
X53.64911 Y39.90151
X53.73004 Y40.64081
X52.42864 Y42.31644
X49.89924 Y44.76833
X47.37059 Y46.40219
X45.15965 Y47.11783
X42.83956 Y45.57623
X42.60588 Y45.22952
X42.36603 Y44.79665
X42.20207 Y44.40760
X42.13623 Y44.20552
X42.05539 Y43.86655
X42.00425 Y43.38162
X42.03054 Y42.88586
X42.13623 Y42.39010
X42.28180 Y41.98203
X42.28180 Y35.59659
X42.36156 Y35.39060
X42.46941 Y35.03175
X42.53308 Y34.69276
X42.55937 Y34.36462
X42.55114 Y34.04023
X42.50824 Y33.71207
X42.42739 Y33.37310
X42.30136 Y33.01420
X42.11772 Y32.62518
X41.95775 Y32.34910
X41.60799 Y31.85248
X41.09019 Y31.26381
X40.63164 Y30.82200
X40.29638 Y30.53696
X39.58645 Y29.98634
X38.76857 Y29.43572
X37.82136 Y28.86013
X36.68273 Y28.24896
X36.58468 Y27.56298
X36.45021 Y26.83931
X36.27615 Y26.11564
X36.00521 Y25.18780
X35.73160 Y24.41676
X35.32154 Y23.41750
X34.91875 Y22.57506
X34.26091 Y21.36454
X34.02665 Y20.25743
X33.72289 Y19.15030
X33.34956 Y18.04316
X32.90674 Y16.93605
X31.84657 Y15.27868
X33.14540 Y13.76501
X35.69208 Y11.44401
X38.22006 Y9.78095
X40.75181 Y8.75382
X43.28914 Y8.36660
X45.83076 Y8.62332
X53.28592 Y11.28516
X53.89773 Y12.37988
X53.89773 Y12.45194
G04 P0 ( dwell for no time -- G64 should not smooth over this point )
G00 Z2.00000 ( retract )

G00 X26.78244 Y14.24154 ( rapid move to begin. )
F50.00000
G01 Z-0.30000
G04 P0 ( dwell for no time -- G64 should not smooth over this point )
F100.00000
X26.78244 Y14.24154
X30.60110 Y14.90608
X31.84657 Y15.27868
X32.90674 Y16.93605
X33.34956 Y18.04316
X33.72289 Y19.15030
X34.02665 Y20.25743
X34.26091 Y21.36454
X32.54159 Y22.83795
X29.99625 Y24.97871
X29.53319 Y25.41655
X29.05795 Y25.90705
X28.09318 Y27.02869
X27.00177 Y26.98739
X26.31818 Y26.92841
X25.91798 Y26.85701
X25.35717 Y26.70593
X25.09746 Y26.67065
X24.86149 Y26.66110
X24.44777 Y26.69887
X24.17325 Y26.76082
X23.87170 Y26.85107
X23.43901 Y26.92948
X23.16134 Y26.95907
X22.15908 Y27.01401
X18.68518 Y27.06786
X15.49732 Y27.06997
X15.01023 Y26.87949
X14.63708 Y26.24081
X14.07421 Y25.32836
X11.99111 Y22.21580
X14.06746 Y20.13310
X16.01452 Y18.25032
X17.87994 Y16.52005
X19.83470 Y14.78190
X20.44212 Y14.64073
X22.98319 Y14.35122
X24.89563 Y14.34977
X26.78244 Y14.24154

G04 P0 ( dwell for no time -- G64 should not smooth over this point )
G00 Z30.000 ( retract )

M5 ( Spindle off. )
M9 ( Coolant off. )
M2 ( Program end. )

