( pcb2gcode 1.3.2 )
( Software-independent Gcode )
( This file uses a mill head of 1.00000mm to drill the 5 bit sizes. )
( Bit sizes: [0.03900] [0.04000] [0.04000] [0.12000] [0.12000] )

G94       (Millimeters per minute feed rate.)
G21       (Units == Millimeters.)
G91.1     (Incremental arc distance mode.)
G90       (Absolute coordinates.)
S20000    (RPM spindle speed.)
F610.00000 (Feedrate)
M3        (Spindle on clockwise.)
G00 Z2.00000

G0 X12.69080 Y24.75580
G1 Z-2.50000
G0 Z2.00000

G0 X12.69080 Y27.29580
G1 Z-2.50000
G0 Z2.00000

G0 X35.16980 Y20.43780
G1 Z-2.50000
G0 Z2.00000

G0 X43.17080 Y13.57980
G1 Z-2.50000
G0 Z2.00000

G0 X40.24980 Y10.78580
G1 Z-2.50000
G0 Z2.00000

G0 X45.83780 Y19.04080
G1 Z-2.50000
G0 Z2.00000

G0 X48.25080 Y24.62880
G1 Z-2.50000
G0 Z2.00000

G0 X43.17080 Y33.64580
G1 Z-2.50000
G0 Z2.00000

G0 X45.83780 Y36.18580
G1 Z-2.50000
G0 Z2.00000

G0 X48.25080 Y38.72580
G1 Z-2.50000
G0 Z2.00000

G0 X52.06080 Y34.91580
G1 Z-2.50000
G0 Z2.00000

G0 X40.24980 Y47.10780
G1 Z-2.50000
G0 Z2.00000

G0 X35.16980 Y46.59980
G1 Z-2.50000
G0 Z2.00000

G0 X52.06080 Y8.24580
G1 Z-2.50000
G0 Z2.00000

G0 X5.71380 Y3.16580
G1 Z-2.50000
G2 X5.71380 Y3.16580 I-0.00800 J0
G0 Z2.00000
G0 X8.25380 Y3.16580
G1 Z-2.50000
G2 X8.25380 Y3.16580 I-0.00800 J0
G0 Z2.00000
G0 X10.79380 Y3.16580
G1 Z-2.50000
G2 X10.79380 Y3.16580 I-0.00800 J0
G0 Z2.00000
G0 X13.33380 Y3.16580
G1 Z-2.50000
G2 X13.33380 Y3.16580 I-0.00800 J0
G0 Z2.00000
G0 X15.87380 Y3.16580
G1 Z-2.50000
G2 X15.87380 Y3.16580 I-0.00800 J0
G0 Z2.00000
G0 X18.41380 Y3.16580
G1 Z-2.50000
G2 X18.41380 Y3.16580 I-0.00800 J0
G0 Z2.00000
G0 X23.49380 Y3.16580
G1 Z-2.50000
G2 X23.49380 Y3.16580 I-0.00800 J0
G0 Z2.00000
G0 X26.03380 Y3.16580
G1 Z-2.50000
G2 X26.03380 Y3.16580 I-0.00800 J0
G0 Z2.00000
G0 X28.57380 Y3.16580
G1 Z-2.50000
G2 X28.57380 Y3.16580 I-0.00800 J0
G0 Z2.00000
G0 X31.11380 Y3.16580
G1 Z-2.50000
G2 X31.11380 Y3.16580 I-0.00800 J0
G0 Z2.00000
G0 X33.65380 Y3.16580
G1 Z-2.50000
G2 X33.65380 Y3.16580 I-0.00800 J0
G0 Z2.00000
G0 X36.19380 Y3.16580
G1 Z-2.50000
G2 X36.19380 Y3.16580 I-0.00800 J0
G0 Z2.00000
G0 X38.73380 Y3.16580
G1 Z-2.50000
G2 X38.73380 Y3.16580 I-0.00800 J0
G0 Z2.00000
G0 X41.27380 Y3.16580
G1 Z-2.50000
G2 X41.27380 Y3.16580 I-0.00800 J0
G0 Z2.00000
G0 X40.25780 Y51.42580
G1 Z-2.50000
G2 X40.25780 Y51.42580 I-0.00800 J0
G0 Z2.00000
G0 X37.71780 Y51.42580
G1 Z-2.50000
G2 X37.71780 Y51.42580 I-0.00800 J0
G0 Z2.00000
G0 X35.17780 Y51.42580
G1 Z-2.50000
G2 X35.17780 Y51.42580 I-0.00800 J0
G0 Z2.00000
G0 X32.63780 Y51.42580
G1 Z-2.50000
G2 X32.63780 Y51.42580 I-0.00800 J0
G0 Z2.00000
G0 X30.09780 Y51.42580
G1 Z-2.50000
G2 X30.09780 Y51.42580 I-0.00800 J0
G0 Z2.00000
G0 X27.55780 Y51.42580
G1 Z-2.50000
G2 X27.55780 Y51.42580 I-0.00800 J0
G0 Z2.00000
G0 X23.49380 Y51.42580
G1 Z-2.50000
G2 X23.49380 Y51.42580 I-0.00800 J0
G0 Z2.00000
G0 X20.95380 Y51.42580
G1 Z-2.50000
G2 X20.95380 Y51.42580 I-0.00800 J0
G0 Z2.00000
G0 X18.41380 Y51.42580
G1 Z-2.50000
G2 X18.41380 Y51.42580 I-0.00800 J0
G0 Z2.00000
G0 X15.87380 Y51.42580
G1 Z-2.50000
G2 X15.87380 Y51.42580 I-0.00800 J0
G0 Z2.00000
G0 X13.33380 Y51.42580
G1 Z-2.50000
G2 X13.33380 Y51.42580 I-0.00800 J0
G0 Z2.00000
G0 X10.79380 Y51.42580
G1 Z-2.50000
G2 X10.79380 Y51.42580 I-0.00800 J0
G0 Z2.00000
G0 X8.25380 Y51.42580
G1 Z-2.50000
G2 X8.25380 Y51.42580 I-0.00800 J0
G0 Z2.00000
G0 X5.71380 Y51.42580
G1 Z-2.50000
G2 X5.71380 Y51.42580 I-0.00800 J0
G0 Z2.00000
G0 X42.79780 Y51.42580
G1 Z-2.50000
G2 X42.79780 Y51.42580 I-0.00800 J0
G0 Z2.00000
G0 X45.33780 Y51.42580
G1 Z-2.50000
G2 X45.33780 Y51.42580 I-0.00800 J0
G0 Z2.00000
G0 X47.87780 Y51.42580
G1 Z-2.50000
G2 X47.87780 Y51.42580 I-0.00800 J0
G0 Z2.00000
G0 X50.41780 Y51.42580
G1 Z-2.50000
G2 X50.41780 Y51.42580 I-0.00800 J0
G0 Z2.00000
G0 X59.56180 Y10.74008
G1 Z-2.50000
G2 X59.56180 Y10.74008 I-0.00800 J0
G0 Z2.00000
G0 X59.56180 Y13.52900
G1 Z-2.50000
G2 X59.56180 Y13.52900 I-0.00800 J0
G0 Z2.00000
G0 X59.56180 Y16.19854
G1 Z-2.50000
G2 X59.56180 Y16.19854 I-0.00800 J0
G0 Z2.00000
G0 X59.56180 Y19.00016
G1 Z-2.50000
G2 X59.56180 Y19.00016 I-0.00800 J0
G0 Z2.00000
G0 X59.56180 Y21.78908
G1 Z-2.50000
G2 X59.56180 Y21.78908 I-0.00800 J0
G0 Z2.00000
G0 X59.56180 Y24.58054
G1 Z-2.50000
G2 X59.56180 Y24.58054 I-0.00800 J0
G0 Z2.00000
G0 X59.56180 Y27.25008
G1 Z-2.50000
G2 X59.56180 Y27.25008 I-0.00800 J0
G0 Z2.00000
G0 X59.56180 Y30.03900
G1 Z-2.50000
G2 X59.56180 Y30.03900 I-0.00800 J0
G0 Z2.00000
G0 X59.56180 Y32.84062
G1 Z-2.50000
G2 X59.56180 Y32.84062 I-0.00800 J0
G0 Z2.00000
G0 X59.56180 Y35.62954
G1 Z-2.50000
G2 X59.56180 Y35.62954 I-0.00800 J0
G0 Z2.00000
G0 X59.56180 Y38.29908
G1 Z-2.50000
G2 X59.56180 Y38.29908 I-0.00800 J0
G0 Z2.00000
G0 X59.56180 Y41.09054
G1 Z-2.50000
G2 X59.56180 Y41.09054 I-0.00800 J0
G0 Z2.00000
G0 X59.56180 Y43.88962
G1 Z-2.50000
G2 X59.56180 Y43.88962 I-0.00800 J0
G0 Z2.00000
G0 X62.10180 Y42.49008
G1 Z-2.50000
G2 X62.10180 Y42.49008 I-0.00800 J0
G0 Z2.00000
G0 X62.10180 Y39.69862
G1 Z-2.50000
G2 X62.10180 Y39.69862 I-0.00800 J0
G0 Z2.00000
G0 X62.10180 Y36.95034
G1 Z-2.50000
G2 X62.10180 Y36.95034 I-0.00800 J0
G0 Z2.00000
G0 X62.10180 Y34.26048
G1 Z-2.50000
G2 X62.10180 Y34.26048 I-0.00800 J0
G0 Z2.00000
G0 X62.10180 Y31.42076
G1 Z-2.50000
G2 X62.10180 Y31.42076 I-0.00800 J0
G0 Z2.00000
G0 X62.10180 Y28.66994
G1 Z-2.50000
G2 X62.10180 Y28.66994 I-0.00800 J0
G0 Z2.00000
G0 X62.10180 Y25.92928
G1 Z-2.50000
G2 X62.10180 Y25.92928 I-0.00800 J0
G0 Z2.00000
G0 X62.10180 Y23.14036
G1 Z-2.50000
G2 X62.10180 Y23.14036 I-0.00800 J0
G0 Z2.00000
G0 X62.10180 Y20.38954
G1 Z-2.50000
G2 X62.10180 Y20.38954 I-0.00800 J0
G0 Z2.00000
G0 X62.10180 Y17.64888
G1 Z-2.50000
G2 X62.10180 Y17.64888 I-0.00800 J0
G0 Z2.00000
G0 X62.10180 Y14.84980
G1 Z-2.50000
G2 X62.10180 Y14.84980 I-0.00800 J0
G0 Z2.00000
G0 X62.10180 Y12.30980
G1 Z-2.50000
G2 X62.10180 Y12.30980 I-0.00800 J0
G0 Z2.00000
G0 X4.18980 Y8.24580
G1 Z-2.50000
G2 X4.18980 Y8.24580 I-1.02400 J0
G0 Z2.00000
G0 X4.18980 Y36.18580
G1 Z-2.50000
G2 X4.18980 Y36.18580 I-1.02400 J0
G0 Z2.00000
G0 X54.98980 Y51.42580
G1 Z-2.50000
G2 X54.98980 Y51.42580 I-1.02400 J0
G0 Z2.00000
G0 X56.25980 Y3.16580
G1 Z-2.50000
G2 X56.25980 Y3.16580 I-1.02400 J0
G0 Z2.00000
G0 X63.11780 Y3.76016
G1 Z-2.50000
G2 X63.11780 Y3.76016 I-1.02400 J0
G0 Z2.00000
G0 X63.11780 Y50.75016
G1 Z-2.50000
G2 X63.11780 Y50.75016 I-1.02400 J0
G0 Z2.00000
G00 Z30.000 ( All done -- retract )

M5      (Spindle off.)
M9      (Coolant off.)
M2      (Program end.)

