( pcb2gcode 1.3.2 )
( Software-independent Gcode )
( This file uses a mill head of 1.00000mm to drill the 5 bit sizes. )
( Bit sizes: [0.03900] [0.04000] [0.04000] [0.12000] [0.12000] )

G94       (Millimeters per minute feed rate.)
G21       (Units == Millimeters.)
G91.1     (Incremental arc distance mode.)
G90       (Absolute coordinates.)
S20000    (RPM spindle speed.)
F610.00000 (Feedrate)
M3        (Spindle on clockwise.)
G00 Z2.00000

G0 X32.12180 Y13.45280
G1 Z-2.49900
G0 Z2.00000

G0 X34.66180 Y34.28080
G1 Z-2.49900
G0 Z2.00000

G0 X32.12180 Y43.29780
G1 Z-2.49900
G0 Z2.00000

G0 X34.66180 Y47.10780
G1 Z-2.49900
G0 Z2.00000

G0 X46.34580 Y42.78980
G1 Z-2.49900
G0 Z2.00000

G0 X48.88580 Y42.91680
G1 Z-2.49900
G0 Z2.00000

G0 X53.96580 Y43.55180
G1 Z-2.49900
G0 Z2.00000

G0 X56.50580 Y41.26580
G1 Z-2.49900
G0 Z2.00000

G0 X56.50580 Y47.61580
G1 Z-2.49900
G0 Z2.00000

G0 X53.96580 Y34.02680
G1 Z-2.49900
G0 Z2.00000

G0 X48.88580 Y36.18580
G1 Z-2.49900
G0 Z2.00000

G0 X46.21880 Y29.96280
G1 Z-2.49900
G0 Z2.00000

G0 X50.79080 Y27.93080
G1 Z-2.49900
G0 Z2.00000

G0 X50.79080 Y25.39080
G1 Z-2.49900
G0 Z2.00000

G0 X28.57380 Y3.16580
G1 Z-2.49900
G2 X28.57380 Y3.16580 I-0.00800 J0
G0 Z2.00000
G0 X31.11380 Y3.16580
G1 Z-2.49900
G2 X31.11380 Y3.16580 I-0.00800 J0
G0 Z2.00000
G0 X33.65380 Y3.16580
G1 Z-2.49900
G2 X33.65380 Y3.16580 I-0.00800 J0
G0 Z2.00000
G0 X36.19380 Y3.16580
G1 Z-2.49900
G2 X36.19380 Y3.16580 I-0.00800 J0
G0 Z2.00000
G0 X38.73380 Y3.16580
G1 Z-2.49900
G2 X38.73380 Y3.16580 I-0.00800 J0
G0 Z2.00000
G0 X41.27380 Y3.16580
G1 Z-2.49900
G2 X41.27380 Y3.16580 I-0.00800 J0
G0 Z2.00000
G0 X43.81380 Y3.16580
G1 Z-2.49900
G2 X43.81380 Y3.16580 I-0.00800 J0
G0 Z2.00000
G0 X46.35380 Y3.16580
G1 Z-2.49900
G2 X46.35380 Y3.16580 I-0.00800 J0
G0 Z2.00000
G0 X51.43380 Y3.16580
G1 Z-2.49900
G2 X51.43380 Y3.16580 I-0.00800 J0
G0 Z2.00000
G0 X53.97380 Y3.16580
G1 Z-2.49900
G2 X53.97380 Y3.16580 I-0.00800 J0
G0 Z2.00000
G0 X56.51380 Y3.16580
G1 Z-2.49900
G2 X56.51380 Y3.16580 I-0.00800 J0
G0 Z2.00000
G0 X59.05380 Y3.16580
G1 Z-2.49900
G2 X59.05380 Y3.16580 I-0.00800 J0
G0 Z2.00000
G0 X61.59380 Y3.16580
G1 Z-2.49900
G2 X61.59380 Y3.16580 I-0.00800 J0
G0 Z2.00000
G0 X64.13380 Y3.16580
G1 Z-2.49900
G2 X64.13380 Y3.16580 I-0.00800 J0
G0 Z2.00000
G0 X64.13380 Y51.42580
G1 Z-2.49900
G2 X64.13380 Y51.42580 I-0.00800 J0
G0 Z2.00000
G0 X61.59380 Y51.42580
G1 Z-2.49900
G2 X61.59380 Y51.42580 I-0.00800 J0
G0 Z2.00000
G0 X59.05380 Y51.42580
G1 Z-2.49900
G2 X59.05380 Y51.42580 I-0.00800 J0
G0 Z2.00000
G0 X56.51380 Y51.42580
G1 Z-2.49900
G2 X56.51380 Y51.42580 I-0.00800 J0
G0 Z2.00000
G0 X53.97380 Y51.42580
G1 Z-2.49900
G2 X53.97380 Y51.42580 I-0.00800 J0
G0 Z2.00000
G0 X51.43380 Y51.42580
G1 Z-2.49900
G2 X51.43380 Y51.42580 I-0.00800 J0
G0 Z2.00000
G0 X48.89380 Y51.42580
G1 Z-2.49900
G2 X48.89380 Y51.42580 I-0.00800 J0
G0 Z2.00000
G0 X46.35380 Y51.42580
G1 Z-2.49900
G2 X46.35380 Y51.42580 I-0.00800 J0
G0 Z2.00000
G0 X42.28980 Y51.42580
G1 Z-2.49900
G2 X42.28980 Y51.42580 I-0.00800 J0
G0 Z2.00000
G0 X39.74980 Y51.42580
G1 Z-2.49900
G2 X39.74980 Y51.42580 I-0.00800 J0
G0 Z2.00000
G0 X37.20980 Y51.42580
G1 Z-2.49900
G2 X37.20980 Y51.42580 I-0.00800 J0
G0 Z2.00000
G0 X34.66980 Y51.42580
G1 Z-2.49900
G2 X34.66980 Y51.42580 I-0.00800 J0
G0 Z2.00000
G0 X32.12980 Y51.42580
G1 Z-2.49900
G2 X32.12980 Y51.42580 I-0.00800 J0
G0 Z2.00000
G0 X29.58980 Y51.42580
G1 Z-2.49900
G2 X29.58980 Y51.42580 I-0.00800 J0
G0 Z2.00000
G0 X27.04980 Y51.42580
G1 Z-2.49900
G2 X27.04980 Y51.42580 I-0.00800 J0
G0 Z2.00000
G0 X24.50980 Y51.42580
G1 Z-2.49900
G2 X24.50980 Y51.42580 I-0.00800 J0
G0 Z2.00000
G0 X21.96980 Y51.42580
G1 Z-2.49900
G2 X21.96980 Y51.42580 I-0.00800 J0
G0 Z2.00000
G0 X19.42980 Y51.42580
G1 Z-2.49900
G2 X19.42980 Y51.42580 I-0.00800 J0
G0 Z2.00000
G0 X8.88880 Y12.06088
G1 Z-2.49900
G2 X8.88880 Y12.06088 I-0.00800 J0
G0 Z2.00000
G0 X11.42880 Y10.66134
G1 Z-2.49900
G2 X11.42880 Y10.66134 I-0.00800 J0
G0 Z2.00000
G0 X11.42880 Y13.46042
G1 Z-2.49900
G2 X11.42880 Y13.46042 I-0.00800 J0
G0 Z2.00000
G0 X11.42880 Y16.25188
G1 Z-2.49900
G2 X11.42880 Y16.25188 I-0.00800 J0
G0 Z2.00000
G0 X11.42880 Y18.92142
G1 Z-2.49900
G2 X11.42880 Y18.92142 I-0.00800 J0
G0 Z2.00000
G0 X11.42880 Y21.71034
G1 Z-2.49900
G2 X11.42880 Y21.71034 I-0.00800 J0
G0 Z2.00000
G0 X11.42880 Y24.51196
G1 Z-2.49900
G2 X11.42880 Y24.51196 I-0.00800 J0
G0 Z2.00000
G0 X11.42880 Y27.30088
G1 Z-2.49900
G2 X11.42880 Y27.30088 I-0.00800 J0
G0 Z2.00000
G0 X11.42880 Y29.97042
G1 Z-2.49900
G2 X11.42880 Y29.97042 I-0.00800 J0
G0 Z2.00000
G0 X11.42880 Y32.76188
G1 Z-2.49900
G2 X11.42880 Y32.76188 I-0.00800 J0
G0 Z2.00000
G0 X11.42880 Y35.55080
G1 Z-2.49900
G2 X11.42880 Y35.55080 I-0.00800 J0
G0 Z2.00000
G0 X11.42880 Y38.34988
G1 Z-2.49900
G2 X11.42880 Y38.34988 I-0.00800 J0
G0 Z2.00000
G0 X11.42880 Y41.02196
G1 Z-2.49900
G2 X11.42880 Y41.02196 I-0.00800 J0
G0 Z2.00000
G0 X11.42880 Y43.81088
G1 Z-2.49900
G2 X11.42880 Y43.81088 I-0.00800 J0
G0 Z2.00000
G0 X8.88880 Y42.24116
G1 Z-2.49900
G2 X8.88880 Y42.24116 I-0.00800 J0
G0 Z2.00000
G0 X8.88880 Y39.70116
G1 Z-2.49900
G2 X8.88880 Y39.70116 I-0.00800 J0
G0 Z2.00000
G0 X8.88880 Y36.89954
G1 Z-2.49900
G2 X8.88880 Y36.89954 I-0.00800 J0
G0 Z2.00000
G0 X8.88880 Y34.16142
G1 Z-2.49900
G2 X8.88880 Y34.16142 I-0.00800 J0
G0 Z2.00000
G0 X8.88880 Y31.41060
G1 Z-2.49900
G2 X8.88880 Y31.41060 I-0.00800 J0
G0 Z2.00000
G0 X8.88880 Y28.62168
G1 Z-2.49900
G2 X8.88880 Y28.62168 I-0.00800 J0
G0 Z2.00000
G0 X8.88880 Y25.88102
G1 Z-2.49900
G2 X8.88880 Y25.88102 I-0.00800 J0
G0 Z2.00000
G0 X8.88880 Y23.13020
G1 Z-2.49900
G2 X8.88880 Y23.13020 I-0.00800 J0
G0 Z2.00000
G0 X8.88880 Y20.29048
G1 Z-2.49900
G2 X8.88880 Y20.29048 I-0.00800 J0
G0 Z2.00000
G0 X8.88880 Y17.60062
G1 Z-2.49900
G2 X8.88880 Y17.60062 I-0.00800 J0
G0 Z2.00000
G0 X8.88880 Y14.84980
G1 Z-2.49900
G2 X8.88880 Y14.84980 I-0.00800 J0
G0 Z2.00000
G0 X15.61980 Y3.16580
G1 Z-2.49900
G2 X15.61980 Y3.16580 I-1.02400 J0
G0 Z2.00000
G0 X16.88980 Y51.42580
G1 Z-2.49900
G2 X16.88980 Y51.42580 I-1.02400 J0
G0 Z2.00000
G0 X67.68980 Y36.18580
G1 Z-2.49900
G2 X67.68980 Y36.18580 I-1.02400 J0
G0 Z2.00000
G0 X67.68980 Y8.24580
G1 Z-2.49900
G2 X67.68980 Y8.24580 I-1.02400 J0
G0 Z2.00000
G0 X9.90480 Y3.80080
G1 Z-2.49900
G2 X9.90480 Y3.80080 I-1.02400 J0
G0 Z2.00000
G0 X9.90480 Y50.79080
G1 Z-2.49900
G2 X9.90480 Y50.79080 I-1.02400 J0
G0 Z2.00000
G00 Z30.000 ( All done -- retract )

M5      (Spindle off.)
M9      (Coolant off.)
M2      (Program end.)

