( pcb2gcode 1.3.2 )
( Software-independent Gcode )

G94 ( Millimeters per minute feed rate. )
G21 ( Units == Millimeters. )

G90 ( Absolute coordinates. )
S15000 ( RPM spindle speed. )
G64 P0.01016 ( set maximum deviation from commanded toolpath )
F100.00000 ( Feedrate. )

F100.00000 ( Feedrate. )
M3 ( Spindle on clockwise. )
G04 P0 ( dwell for no time -- G64 should not smooth over this point )
G00 Z2.00000 ( retract )

G00 X0.62580 Y45.47138 ( rapid move to begin. )
F50.00000
G01 Z-0.30000
G04 P0 ( dwell for no time -- G64 should not smooth over this point )
F100.00000
G01 X0.62580 Y45.47138
X2.10327 Y45.65106
X4.45292 Y45.88974
X5.83722 Y45.99198
X6.53016 Y46.02614
X7.43303 Y46.04692
X9.39434 Y42.48982
X8.62391 Y41.09481
X0.62580 Y41.09481
X0.62580 Y45.47138
G04 P0 ( dwell for no time -- G64 should not smooth over this point )
G00 Z2.00000 ( retract )

G00 X0.62580 Y41.09481 ( rapid move to begin. )
F50.00000
G01 Z-0.30000
G04 P0 ( dwell for no time -- G64 should not smooth over this point )
F100.00000
G01 X0.62580 Y41.09481
X8.62391 Y41.09481
X9.39167 Y39.69481
X8.63450 Y38.32481
X0.62580 Y38.32481
X0.62580 Y41.09481
G04 P0 ( dwell for no time -- G64 should not smooth over this point )
G00 Z2.00000 ( retract )

G00 X0.62580 Y38.32481 ( rapid move to begin. )
F50.00000
G01 Z-0.30000
G04 P0 ( dwell for no time -- G64 should not smooth over this point )
F100.00000
G01 X0.62580 Y38.32481
X8.63450 Y38.32481
X9.36084 Y36.96482
X8.64979 Y35.60482
X0.62580 Y35.60482
X0.62580 Y38.32481
G04 P0 ( dwell for no time -- G64 should not smooth over this point )
G00 Z2.00000 ( retract )

G00 X0.62580 Y35.60482 ( rapid move to begin. )
F50.00000
G01 Z-0.30000
G04 P0 ( dwell for no time -- G64 should not smooth over this point )
F100.00000
G01 X0.62580 Y35.60482
X8.64979 Y35.60482
X9.39147 Y34.23482
X8.61049 Y32.83983
X0.62580 Y32.83983
X0.62580 Y35.60482
G04 P0 ( dwell for no time -- G64 should not smooth over this point )
G00 Z2.00000 ( retract )

G00 X0.62580 Y32.83983 ( rapid move to begin. )
F50.00000
G01 Z-0.30000
G04 P0 ( dwell for no time -- G64 should not smooth over this point )
F100.00000
G01 X0.62580 Y32.83983
X8.61049 Y32.83983
X9.39419 Y31.43981
X8.63427 Y30.04481
X0.62580 Y30.04481
X0.62580 Y32.83983
G04 P0 ( dwell for no time -- G64 should not smooth over this point )
G00 Z2.00000 ( retract )

G00 X0.62580 Y30.04481 ( rapid move to begin. )
F50.00000
G01 Z-0.30000
G04 P0 ( dwell for no time -- G64 should not smooth over this point )
F100.00000
G01 X0.62580 Y30.04481
X8.63427 Y30.04481
X9.39147 Y28.64482
X8.63772 Y27.29984
X0.62580 Y27.29981
X0.62580 Y30.04481
G04 P0 ( dwell for no time -- G64 should not smooth over this point )
G00 Z2.00000 ( retract )

G00 X0.62580 Y27.29981 ( rapid move to begin. )
F50.00000
G01 Z-0.30000
G04 P0 ( dwell for no time -- G64 should not smooth over this point )
F100.00000
G01 X0.62580 Y27.29981
X8.63772 Y27.29984
X9.36084 Y25.91480
X8.62462 Y24.53482
X0.62580 Y24.53482
X0.62580 Y27.29981
G04 P0 ( dwell for no time -- G64 should not smooth over this point )
G00 Z2.00000 ( retract )

G00 X0.62580 Y24.53482 ( rapid move to begin. )
F50.00000
G01 Z-0.30000
G04 P0 ( dwell for no time -- G64 should not smooth over this point )
F100.00000
G01 X0.62580 Y24.53482
X8.62462 Y24.53482
X9.39096 Y23.18481
X8.63450 Y21.76482
X0.62580 Y21.76482
X0.62580 Y24.53482
G04 P0 ( dwell for no time -- G64 should not smooth over this point )
G00 Z2.00000 ( retract )

G00 X0.62580 Y21.76482 ( rapid move to begin. )
F50.00000
G01 Z-0.30000
G04 P0 ( dwell for no time -- G64 should not smooth over this point )
F100.00000
G01 X0.62580 Y21.76482
X8.63450 Y21.76482
X9.39170 Y20.39482
X8.63696 Y19.01982
X0.62580 Y19.01982
X0.62580 Y21.76482
G04 P0 ( dwell for no time -- G64 should not smooth over this point )
G00 Z2.00000 ( retract )

G00 X0.62580 Y19.01982 ( rapid move to begin. )
F50.00000
G01 Z-0.30000
G04 P0 ( dwell for no time -- G64 should not smooth over this point )
F100.00000
G01 X0.62580 Y19.01982
X8.63696 Y19.01982
X9.39345 Y17.59981
X8.62213 Y16.24982
X0.62580 Y16.24982
X0.62580 Y19.01982
G04 P0 ( dwell for no time -- G64 should not smooth over this point )
G00 Z2.00000 ( retract )

G00 X0.62580 Y16.24982 ( rapid move to begin. )
F50.00000
G01 Z-0.30000
G04 P0 ( dwell for no time -- G64 should not smooth over this point )
F100.00000
G01 X0.62580 Y16.24982
X8.62213 Y16.24982
X9.36084 Y14.86481
X8.68873 Y13.57980
X0.62580 Y13.57980
X0.62580 Y16.24982
G04 P0 ( dwell for no time -- G64 should not smooth over this point )
G00 Z2.00000 ( retract )

G00 X0.62580 Y13.57980 ( rapid move to begin. )
F50.00000
G01 Z-0.30000
G04 P0 ( dwell for no time -- G64 should not smooth over this point )
F100.00000
G01 X0.62580 Y13.57980
X8.68873 Y13.57980
X9.31280 Y12.28892
X9.15967 Y12.08049
X9.00465 Y11.81468
X8.71702 Y11.09720
X8.41938 Y10.58359
X8.10999 Y10.17696
X7.65837 Y9.66871
X6.78268 Y8.61753
X5.77286 Y8.66243
X4.34827 Y8.76363
X2.12895 Y8.97988
X0.62580 Y9.15296
X0.62580 Y13.57980
G04 P0 ( dwell for no time -- G64 should not smooth over this point )
G00 Z2.00000 ( retract )

G00 X0.62580 Y9.15298 ( rapid move to begin. )
F50.00000
G01 Z-0.30000
G04 P0 ( dwell for no time -- G64 should not smooth over this point )
F100.00000
G01 X0.62580 Y9.15298
X2.12895 Y8.97988
X4.34827 Y8.76363
X5.77286 Y8.66243
X6.78268 Y8.61753
X7.53869 Y8.26988
X8.42045 Y7.92926
X8.80186 Y7.80821
X10.17521 Y7.45344
X10.57346 Y7.32406
X11.37673 Y7.01275
X11.34016 Y6.38299
X11.11821 Y3.60474
X10.83724 Y0.62580
X0.62580 Y0.62580
X0.62580 Y9.15298
G04 P0 ( dwell for no time -- G64 should not smooth over this point )
G00 Z2.00000 ( retract )

G00 X9.26650 Y7.68263 ( rapid move to begin. )
F50.00000
G01 Z-0.30000
G04 P0 ( dwell for no time -- G64 should not smooth over this point )
F100.00000
G01 X9.26650 Y7.68263
X8.42045 Y7.92926
X7.93691 Y8.10600
X7.53869 Y8.26988
X6.78268 Y8.61753
X7.65837 Y9.66871
X8.10999 Y10.17696
X8.41938 Y10.58359
X8.71702 Y11.09720
X9.00465 Y11.81468
X9.15967 Y12.08049
X9.31280 Y12.28892
X9.90551 Y12.16065
X10.35723 Y12.13690
X10.79050 Y12.18295
X11.48986 Y12.33159
X12.08587 Y12.39420
X13.34523 Y12.44962
X14.23794 Y12.46428
X14.29125 Y11.98204
X14.30903 Y11.49979
X14.30903 Y10.28412
X14.08254 Y9.36213
X13.80799 Y8.34923
X13.34206 Y8.04283
X12.42804 Y7.51268
X11.89484 Y7.24450
X11.37673 Y7.01275
X10.57346 Y7.32406
X10.17521 Y7.45344
X9.26650 Y7.68263
G04 P0 ( dwell for no time -- G64 should not smooth over this point )
G00 Z2.00000 ( retract )

G00 X13.87383 Y8.57646 ( rapid move to begin. )
F50.00000
G01 Z-0.30000
G04 P0 ( dwell for no time -- G64 should not smooth over this point )
F100.00000
G01 X13.87383 Y8.57646
X14.30903 Y10.28412
X14.30903 Y11.49979
X14.29125 Y11.98204
X14.23794 Y12.46428
X14.30004 Y13.18681
X14.30004 Y13.87284
X14.19659 Y14.86481
X14.29171 Y15.69795
X14.30004 Y16.54283
X14.21846 Y17.39671
X14.18612 Y17.59981
X14.21846 Y17.80293
X14.30004 Y18.65680
X14.29171 Y19.50168
X14.18696 Y20.39482
X14.30004 Y21.44681
X14.29171 Y22.29169
X14.18696 Y23.18481
X14.30004 Y24.23680
X14.29171 Y25.08168
X14.19659 Y25.91480
X14.29171 Y26.74795
X14.30004 Y27.59283
X14.18696 Y28.64482
X14.29171 Y29.53796
X14.30004 Y30.38284
X14.21846 Y31.23671
X14.18612 Y31.43981
X14.29171 Y32.33795
X14.30893 Y32.87747
X13.93014 Y34.23482
X14.19123 Y36.96482
X15.42603 Y39.69481
X16.04843 Y40.45376
X19.42051 Y37.07396
X19.66196 Y36.51310
X19.81781 Y36.00698
X19.91111 Y35.52898
X19.94339 Y35.22293
X19.95159 Y34.76548
X19.88627 Y34.14585
X19.81781 Y33.82464
X19.67580 Y33.35515
X19.67580 Y26.18948
X19.53376 Y25.71998
X19.44047 Y25.24198
X19.39998 Y24.77914
X19.40819 Y24.32169
X19.44047 Y24.01564
X19.57578 Y23.38085
X19.74982 Y22.87470
X19.92487 Y22.48283
X20.36945 Y21.71562
X20.88230 Y21.02850
X20.70209 Y20.19309
X20.61801 Y19.47435
X20.60978 Y18.76406
X20.67725 Y18.04532
X20.86889 Y17.14639
X21.13409 Y16.36046
X21.52451 Y15.50850
X21.73988 Y15.11299
X22.00130 Y14.68914
X21.95517 Y14.15308
X21.93605 Y13.57982
X21.95517 Y13.00655
X21.98850 Y12.58414
X22.06906 Y12.00497
X22.15057 Y11.56631
X22.29810 Y10.97086
X22.40930 Y10.58938
X24.02334 Y7.90267
X24.03790 Y7.83505
X22.15847 Y3.71479
X19.81334 Y4.63770
X18.49678 Y5.20656
X17.63798 Y5.61916
X16.73585 Y6.11423
X16.02694 Y6.57016
X15.44210 Y6.99203
X14.42300 Y7.81522
X13.80799 Y8.34923
X13.87383 Y8.57646
G04 P0 ( dwell for no time -- G64 should not smooth over this point )
G00 Z2.00000 ( retract )

G00 X8.70846 Y13.61493 ( rapid move to begin. )
F50.00000
G01 Z-0.30000
G04 P0 ( dwell for no time -- G64 should not smooth over this point )
F100.00000
G01 X8.70846 Y13.61493
X9.36084 Y14.86481
X14.19659 Y14.86481
X14.30004 Y13.87284
X14.30004 Y13.18681
X14.23794 Y12.46428
X13.34523 Y12.44962
X12.08587 Y12.39420
X11.48986 Y12.33159
X10.79050 Y12.18295
X10.49119 Y12.14394
X10.06439 Y12.14394
X9.76508 Y12.18295
X9.31280 Y12.28892
X8.68873 Y13.57980
X8.70846 Y13.61493
G04 P0 ( dwell for no time -- G64 should not smooth over this point )
G00 Z2.00000 ( retract )

G00 X8.64580 Y16.29150 ( rapid move to begin. )
F50.00000
G01 Z-0.30000
G04 P0 ( dwell for no time -- G64 should not smooth over this point )
F100.00000
G01 X8.64580 Y16.29150
X9.39345 Y17.59981
X14.18612 Y17.59981
X14.21846 Y17.39671
X14.30004 Y16.54283
X14.29171 Y15.69795
X14.19659 Y14.86481
X9.36084 Y14.86481
X8.63615 Y16.22147
X8.62213 Y16.24982
X8.64580 Y16.29150
G04 P0 ( dwell for no time -- G64 should not smooth over this point )
G00 Z2.00000 ( retract )

G00 X8.67471 Y19.08845 ( rapid move to begin. )
F50.00000
G01 Z-0.30000
G04 P0 ( dwell for no time -- G64 should not smooth over this point )
F100.00000
G01 X8.67471 Y19.08845
X9.39170 Y20.39482
X14.18696 Y20.39482
X14.29171 Y19.50168
X14.30004 Y18.65680
X14.21846 Y17.80293
X14.18612 Y17.59981
X9.39345 Y17.59981
X8.63696 Y19.01982
X8.67471 Y19.08845
G04 P0 ( dwell for no time -- G64 should not smooth over this point )
G00 Z2.00000 ( retract )

G00 X8.63622 Y21.76157 ( rapid move to begin. )
F50.00000
G01 Z-0.30000
G04 P0 ( dwell for no time -- G64 should not smooth over this point )
F100.00000
G01 X8.63622 Y21.76157
X9.39096 Y23.18481
X14.18696 Y23.18481
X14.30004 Y22.13284
X14.29171 Y21.28796
X14.18696 Y20.39482
X9.39170 Y20.39482
X8.63622 Y21.76157
G04 P0 ( dwell for no time -- G64 should not smooth over this point )
G00 Z2.00000 ( retract )

G00 X8.63699 Y24.51262 ( rapid move to begin. )
F50.00000
G01 Z-0.30000
G04 P0 ( dwell for no time -- G64 should not smooth over this point )
F100.00000
G01 X8.63699 Y24.51262
X8.62462 Y24.53482
X8.63615 Y24.55816
X9.36084 Y25.91480
X14.19659 Y25.91480
X14.29171 Y25.08168
X14.30004 Y24.23680
X14.18696 Y23.18481
X9.39096 Y23.18481
X8.63699 Y24.51262
G04 P0 ( dwell for no time -- G64 should not smooth over this point )
G00 Z2.00000 ( retract )

G00 X8.66025 Y27.33997 ( rapid move to begin. )
F50.00000
G01 Z-0.30000
G04 P0 ( dwell for no time -- G64 should not smooth over this point )
F100.00000
G01 X8.66025 Y27.33997
X9.39147 Y28.64482
X14.18696 Y28.64482
X14.30004 Y27.59283
X14.29171 Y26.74795
X14.19659 Y25.91480
X9.36084 Y25.91480
X8.63772 Y27.29984
X8.66025 Y27.33997
G04 P0 ( dwell for no time -- G64 should not smooth over this point )
G00 Z2.00000 ( retract )

G00 X8.67953 Y30.12797 ( rapid move to begin. )
F50.00000
G01 Z-0.30000
G04 P0 ( dwell for no time -- G64 should not smooth over this point )
F100.00000
G01 X8.67953 Y30.12797
X9.39419 Y31.43981
X14.18612 Y31.43981
X14.21846 Y31.23671
X14.30004 Y30.38284
X14.29171 Y29.53796
X14.18696 Y28.64482
X9.39147 Y28.64482
X8.63427 Y30.04481
X8.67953 Y30.12797
G04 P0 ( dwell for no time -- G64 should not smooth over this point )
G00 Z2.00000 ( retract )

G00 X8.66025 Y32.92998 ( rapid move to begin. )
F50.00000
G01 Z-0.30000
G04 P0 ( dwell for no time -- G64 should not smooth over this point )
F100.00000
G01 X8.66025 Y32.92998
X9.39147 Y34.23482
X13.93014 Y34.23482
X14.30893 Y32.87747
X14.29171 Y32.33795
X14.18612 Y31.43981
X9.39419 Y31.43981
X8.61049 Y32.83983
X8.66025 Y32.92998
G04 P0 ( dwell for no time -- G64 should not smooth over this point )
G00 Z2.00000 ( retract )

G00 X8.64979 Y35.60482 ( rapid move to begin. )
F50.00000
G01 Z-0.30000
G04 P0 ( dwell for no time -- G64 should not smooth over this point )
F100.00000
G01 X8.64979 Y35.60482
X9.36084 Y36.96482
X14.19123 Y36.96482
X13.93014 Y34.23482
X9.39147 Y34.23482
X8.64979 Y35.60482
G04 P0 ( dwell for no time -- G64 should not smooth over this point )
G00 Z2.00000 ( retract )

G00 X8.66990 Y38.38897 ( rapid move to begin. )
F50.00000
G01 Z-0.30000
G04 P0 ( dwell for no time -- G64 should not smooth over this point )
F100.00000
G01 X8.66990 Y38.38897
X9.39167 Y39.69481
X15.42603 Y39.69481
X14.19123 Y36.96482
X9.36084 Y36.96482
X8.63450 Y38.32481
X8.66990 Y38.38897
G04 P0 ( dwell for no time -- G64 should not smooth over this point )
G00 Z2.00000 ( retract )

G00 X8.66990 Y41.17896 ( rapid move to begin. )
F50.00000
G01 Z-0.30000
G04 P0 ( dwell for no time -- G64 should not smooth over this point )
F100.00000
G01 X8.66990 Y41.17896
X9.39434 Y42.48982
X16.47489 Y42.48982
X16.04843 Y40.45376
X15.42603 Y39.69481
X9.39167 Y39.69481
X8.62391 Y41.09481
X8.66990 Y41.17896
G04 P0 ( dwell for no time -- G64 should not smooth over this point )
G00 Z2.00000 ( retract )

G00 X8.63622 Y43.86155 ( rapid move to begin. )
F50.00000
G01 Z-0.30000
G04 P0 ( dwell for no time -- G64 should not smooth over this point )
F100.00000
G01 X8.63622 Y43.86155
X7.43303 Y46.04692
X8.47844 Y46.50163
X9.55410 Y46.91171
X10.53797 Y47.23459
X11.59979 Y47.54033
X12.00896 Y47.64275
X12.90650 Y46.99139
X13.81041 Y46.28705
X14.44564 Y45.76592
X15.84459 Y44.55497
X16.95561 Y43.54225
X16.47489 Y42.48982
X9.39434 Y42.48982
X8.63622 Y43.86155
G04 P0 ( dwell for no time -- G64 should not smooth over this point )
G00 Z2.00000 ( retract )

G00 X11.48557 Y53.96580 ( rapid move to begin. )
F50.00000
G01 Z-0.30000
G04 P0 ( dwell for no time -- G64 should not smooth over this point )
F100.00000
G01 X11.48557 Y53.96580
X18.56028 Y53.96580
X18.32371 Y52.85407
X18.23372 Y52.13779
X18.21845 Y51.11536
X18.24736 Y50.56243
X18.32460 Y49.99243
X18.58726 Y48.76845
X19.18827 Y46.49177
X19.69165 Y44.80430
X18.76374 Y44.39424
X16.95561 Y43.54225
X15.84459 Y44.55497
X14.44564 Y45.76592
X13.81041 Y46.28705
X12.90650 Y46.99139
X12.00896 Y47.64275
X11.75054 Y50.97137
X11.48557 Y53.96580
G04 P0 ( dwell for no time -- G64 should not smooth over this point )
G00 Z2.00000 ( retract )

G00 X11.48555 Y53.96580 ( rapid move to begin. )
F50.00000
G01 Z-0.30000
G04 P0 ( dwell for no time -- G64 should not smooth over this point )
F100.00000
G01 X11.48555 Y53.96580
X11.75054 Y50.97137
X12.00896 Y47.64275
X11.59979 Y47.54033
X10.53797 Y47.23459
X9.55410 Y46.91171
X8.47844 Y46.50163
X7.43303 Y46.04692
X6.53016 Y46.02614
X5.83722 Y45.99198
X4.45292 Y45.88974
X2.10327 Y45.65106
X0.62580 Y45.47140
X0.62580 Y53.96580
X11.48555 Y53.96580
G04 P0 ( dwell for no time -- G64 should not smooth over this point )
G00 Z2.00000 ( retract )

G00 X18.56026 Y53.96580 ( rapid move to begin. )
F50.00000
G01 Z-0.30000
G04 P0 ( dwell for no time -- G64 should not smooth over this point )
F100.00000
G01 X18.56026 Y53.96580
X20.69426 Y53.96580
X20.69272 Y44.97519
X19.69165 Y44.80430
X19.18827 Y46.49177
X18.51284 Y49.07061
X18.32460 Y49.99243
X18.24736 Y50.56243
X18.21845 Y51.11536
X18.21967 Y51.78831
X18.25203 Y52.32747
X18.32371 Y52.85407
X18.56026 Y53.96580
G04 P0 ( dwell for no time -- G64 should not smooth over this point )
G00 Z2.00000 ( retract )

G00 X20.69424 Y53.96580 ( rapid move to begin. )
F50.00000
G01 Z-0.30000
G04 P0 ( dwell for no time -- G64 should not smooth over this point )
F100.00000
G01 X20.69424 Y53.96580
X23.23426 Y53.96580
X23.23335 Y44.89680
X20.69272 Y44.97519
X20.69424 Y53.96580
G04 P0 ( dwell for no time -- G64 should not smooth over this point )
G00 Z2.00000 ( retract )

G00 X23.23424 Y53.96580 ( rapid move to begin. )
F50.00000
G01 Z-0.30000
G04 P0 ( dwell for no time -- G64 should not smooth over this point )
F100.00000
G01 X23.23424 Y53.96580
X25.77426 Y53.96580
X25.77581 Y47.53734
X23.59436 Y44.81433
X23.23335 Y44.89680
X23.23424 Y53.96580
G04 P0 ( dwell for no time -- G64 should not smooth over this point )
G00 Z2.00000 ( retract )

G00 X25.77424 Y53.96580 ( rapid move to begin. )
F50.00000
G01 Z-0.30000
G04 P0 ( dwell for no time -- G64 should not smooth over this point )
F100.00000
G01 X25.77424 Y53.96580
X28.31426 Y53.96580
X28.31508 Y49.12585
X25.77581 Y47.53734
X25.77424 Y53.96580
G04 P0 ( dwell for no time -- G64 should not smooth over this point )
G00 Z2.00000 ( retract )

G00 X28.31424 Y53.96580 ( rapid move to begin. )
F50.00000
G01 Z-0.30000
G04 P0 ( dwell for no time -- G64 should not smooth over this point )
F100.00000
G01 X28.31424 Y53.96580
X30.85426 Y53.96580
X30.85503 Y49.12375
X29.77781 Y49.13490
X28.31508 Y49.12585
X28.31424 Y53.96580
G04 P0 ( dwell for no time -- G64 should not smooth over this point )
G00 Z2.00000 ( retract )

G00 X30.85424 Y53.96580 ( rapid move to begin. )
F50.00000
G01 Z-0.30000
G04 P0 ( dwell for no time -- G64 should not smooth over this point )
F100.00000
G01 X30.85424 Y53.96580
X33.39426 Y53.96580
X33.38896 Y48.87223
X32.26181 Y48.25293
X30.85503 Y49.12375
X30.85424 Y53.96580
G04 P0 ( dwell for no time -- G64 should not smooth over this point )
G00 Z2.00000 ( retract )

G00 X33.39424 Y53.96580 ( rapid move to begin. )
F50.00000
G01 Z-0.30000
G04 P0 ( dwell for no time -- G64 should not smooth over this point )
F100.00000
G01 X33.39424 Y53.96580
X35.93426 Y53.96580
X35.92901 Y48.87378
X33.38896 Y48.87223
X33.39424 Y53.96580
G04 P0 ( dwell for no time -- G64 should not smooth over this point )
G00 Z2.00000 ( retract )

G00 X35.93424 Y53.96580 ( rapid move to begin. )
F50.00000
G01 Z-0.30000
G04 P0 ( dwell for no time -- G64 should not smooth over this point )
F100.00000
G01 X35.93424 Y53.96580
X38.47426 Y53.96580
X38.47480 Y47.45862
X35.92901 Y48.87378
X35.93424 Y53.96580
G04 P0 ( dwell for no time -- G64 should not smooth over this point )
G00 Z2.00000 ( retract )

G00 X38.47424 Y53.96580 ( rapid move to begin. )
F50.00000
G01 Z-0.30000
G04 P0 ( dwell for no time -- G64 should not smooth over this point )
F100.00000
G01 X38.47424 Y53.96580
X41.01426 Y53.96580
X41.01670 Y47.60584
X41.00410 Y46.04852
X41.01553 Y44.62398
X38.47480 Y47.45862
X38.47424 Y53.96580
G04 P0 ( dwell for no time -- G64 should not smooth over this point )
G00 Z2.00000 ( retract )

G00 X41.01424 Y53.96580 ( rapid move to begin. )
F50.00000
G01 Z-0.30000
G04 P0 ( dwell for no time -- G64 should not smooth over this point )
F100.00000
G01 X41.01424 Y53.96580
X44.31421 Y53.96580
X44.31487 Y41.15043
X43.53714 Y41.80809
X42.81662 Y42.46574
X42.05876 Y43.20671
X41.52813 Y43.77296
X41.01553 Y44.62398
X41.00410 Y46.04852
X41.01670 Y47.60584
X41.01424 Y53.96580
G04 P0 ( dwell for no time -- G64 should not smooth over this point )
G00 Z2.00000 ( retract )

G00 X44.31418 Y53.96580 ( rapid move to begin. )
F50.00000
G01 Z-0.30000
G04 P0 ( dwell for no time -- G64 should not smooth over this point )
F100.00000
G01 X44.31418 Y53.96580
X47.61826 Y53.96580
X47.62070 Y47.60584
X47.60810 Y46.04852
X47.62964 Y42.49882
X47.61169 Y37.71102
X46.91400 Y38.36476
X45.80128 Y39.47342
X44.79592 Y40.58206
X44.31487 Y41.15043
X44.31418 Y53.96580
G04 P0 ( dwell for no time -- G64 should not smooth over this point )
G00 Z2.00000 ( retract )

G00 X47.61824 Y53.96580 ( rapid move to begin. )
F50.00000
G01 Z-0.30000
G04 P0 ( dwell for no time -- G64 should not smooth over this point )
F100.00000
G01 X47.61824 Y53.96580
X50.15826 Y53.96580
X50.16070 Y47.60584
X50.14810 Y46.04852
X50.16964 Y42.49882
X50.15453 Y38.46664
X47.67465 Y37.64185
X47.61169 Y37.71102
X47.62964 Y42.49882
X47.60810 Y46.04852
X47.62070 Y47.60584
X47.61824 Y53.96580
G04 P0 ( dwell for no time -- G64 should not smooth over this point )
G00 Z2.00000 ( retract )

G00 X50.15824 Y53.96580 ( rapid move to begin. )
F50.00000
G01 Z-0.30000
G04 P0 ( dwell for no time -- G64 should not smooth over this point )
F100.00000
G01 X50.15824 Y53.96580
X52.69826 Y53.96580
X52.70070 Y47.60584
X52.68810 Y46.04852
X52.70964 Y42.49882
X52.69661 Y39.02199
X50.15453 Y38.46664
X50.16964 Y42.49882
X50.14810 Y46.04852
X50.16070 Y47.60584
X50.15824 Y53.96580
G04 P0 ( dwell for no time -- G64 should not smooth over this point )
G00 Z2.00000 ( retract )

G00 X52.69824 Y53.96580 ( rapid move to begin. )
F50.00000
G01 Z-0.30000
G04 P0 ( dwell for no time -- G64 should not smooth over this point )
F100.00000
G01 X52.69824 Y53.96580
X55.23826 Y53.96580
X55.24070 Y47.60584
X55.22810 Y46.04852
X55.24964 Y42.49882
X55.24159 Y40.35102
X53.67505 Y39.12610
X52.69661 Y39.02199
X52.70964 Y42.49882
X52.68810 Y46.04852
X52.70070 Y47.60584
X52.69824 Y53.96580
G04 P0 ( dwell for no time -- G64 should not smooth over this point )
G00 Z2.00000 ( retract )

G00 X55.23824 Y53.96580 ( rapid move to begin. )
F50.00000
G01 Z-0.30000
G04 P0 ( dwell for no time -- G64 should not smooth over this point )
F100.00000
G01 X55.23824 Y53.96580
X57.77826 Y53.96580
X57.78070 Y47.60584
X57.76810 Y46.04852
X57.78964 Y42.49882
X57.78756 Y41.94400
X55.24159 Y40.35102
X55.24746 Y43.63818
X55.22810 Y46.04852
X55.24070 Y47.60584
X55.23824 Y53.96580
G04 P0 ( dwell for no time -- G64 should not smooth over this point )
G00 Z2.00000 ( retract )

G00 X57.77824 Y53.96580 ( rapid move to begin. )
F50.00000
G01 Z-0.30000
G04 P0 ( dwell for no time -- G64 should not smooth over this point )
F100.00000
G01 X57.77824 Y53.96580
X60.31826 Y53.96580
X60.32070 Y47.60584
X60.30810 Y46.04852
X60.33008 Y43.13712
X57.78756 Y41.94400
X57.76810 Y46.04852
X57.78070 Y47.60584
X57.77824 Y53.96580
G04 P0 ( dwell for no time -- G64 should not smooth over this point )
G00 Z2.00000 ( retract )

G00 X60.31824 Y53.96580 ( rapid move to begin. )
F50.00000
G01 Z-0.30000
G04 P0 ( dwell for no time -- G64 should not smooth over this point )
F100.00000
G01 X60.31824 Y53.96580
X62.85824 Y53.96580
X62.86070 Y47.60587
X62.84808 Y46.04857
X62.86512 Y43.92477
X61.17127 Y43.38649
X60.33008 Y43.13712
X60.30810 Y46.04852
X60.32070 Y47.60584
X60.31824 Y53.96580
G04 P0 ( dwell for no time -- G64 should not smooth over this point )
G00 Z2.00000 ( retract )

G00 X62.85821 Y53.96580 ( rapid move to begin. )
F50.00000
G01 Z-0.30000
G04 P0 ( dwell for no time -- G64 should not smooth over this point )
F100.00000
G01 X62.85821 Y53.96580
X65.14180 Y53.96580
X66.66580 Y52.44180
X66.66580 Y44.54169
X65.16283 Y44.27867
X62.86512 Y43.92477
X62.84808 Y46.04857
X62.86070 Y47.60587
X62.85821 Y53.96580
G04 P0 ( dwell for no time -- G64 should not smooth over this point )
G00 Z2.00000 ( retract )

G00 X66.66580 Y44.54166 ( rapid move to begin. )
F50.00000
G01 Z-0.30000
G04 P0 ( dwell for no time -- G64 should not smooth over this point )
F100.00000
G01 X66.66580 Y44.54166
X66.66580 Y41.01180
X69.20580 Y38.47180
X69.20580 Y23.07081
X66.50329 Y25.61168
X65.74256 Y26.44581
X64.99684 Y27.31198
X64.65283 Y27.73679
X63.39616 Y29.36409
X62.64107 Y30.28495
X61.37275 Y31.70580
X60.32403 Y32.76978
X59.43264 Y33.61237
X57.81969 Y35.04214
X56.84286 Y35.94059
X55.21093 Y37.60383
X53.67505 Y39.12610
X55.24159 Y40.35102
X57.78756 Y41.94400
X60.33008 Y43.13712
X61.17127 Y43.38649
X62.86512 Y43.92477
X65.16283 Y44.27867
X66.66580 Y44.54166
G04 P0 ( dwell for no time -- G64 should not smooth over this point )
G00 Z2.00000 ( retract )

G00 X56.25896 Y25.87223 ( rapid move to begin. )
F50.00000
G01 Z-0.30000
G04 P0 ( dwell for no time -- G64 should not smooth over this point )
F100.00000
G01 X56.25896 Y25.87223
X55.92592 Y25.79194
X55.69696 Y25.75714
X54.86318 Y25.69085
X54.41701 Y25.67264
X50.94307 Y25.61879
X45.58764 Y25.61523
X45.57156 Y26.44581
X45.57156 Y28.14578
X45.60440 Y29.33280
X45.70298 Y30.51982
X45.86729 Y31.70681
X46.09731 Y32.89383
X46.39307 Y34.08082
X46.75454 Y35.26784
X47.18174 Y36.45483
X47.67465 Y37.64185
X50.15453 Y38.46664
X52.69661 Y39.02199
X53.67505 Y39.12610
X55.21093 Y37.60383
X56.84286 Y35.94059
X57.81969 Y35.04214
X59.43264 Y33.61237
X60.32403 Y32.76978
X61.37275 Y31.70580
X62.64107 Y30.28495
X63.39616 Y29.36409
X64.33202 Y28.14578
X64.99684 Y27.31198
X65.74256 Y26.44581
X66.50329 Y25.61168
X60.92342 Y25.64673
X59.25977 Y25.69926
X58.57618 Y25.75823
X58.34202 Y25.79445
X57.61515 Y25.98071
X57.18345 Y26.02473
X56.96894 Y26.01927
X56.70575 Y25.98775
X56.25896 Y25.87223
G04 P0 ( dwell for no time -- G64 should not smooth over this point )
G00 Z2.00000 ( retract )

G00 X69.20580 Y23.07084 ( rapid move to begin. )
F50.00000
G01 Z-0.30000
G04 P0 ( dwell for no time -- G64 should not smooth over this point )
F100.00000
G01 X69.20580 Y23.07084
X69.20580 Y21.64148
X66.45341 Y19.91334
X64.63941 Y18.80135
X62.71127 Y17.65071
X60.49706 Y16.37441
X58.53544 Y15.28053
X56.66313 Y14.26590
X56.27700 Y14.06029
X55.22943 Y14.09097
X52.69085 Y14.46771
X48.88654 Y15.48467
X47.02850 Y16.42089
X45.58665 Y23.96538
X45.57252 Y24.93530
X45.58764 Y25.61523
X50.94307 Y25.61879
X54.41701 Y25.67264
X54.86318 Y25.69085
X55.69696 Y25.75714
X56.12965 Y25.83558
X56.43120 Y25.92580
X56.70575 Y25.98775
X57.11946 Y26.02554
X57.35543 Y26.01599
X57.61515 Y25.98071
X58.17598 Y25.82961
X58.57618 Y25.75823
X59.25977 Y25.69926
X60.92342 Y25.64673
X66.50329 Y25.61168
X69.20580 Y23.07084
G04 P0 ( dwell for no time -- G64 should not smooth over this point )
G00 Z2.00000 ( retract )

G00 X69.20580 Y21.64145 ( rapid move to begin. )
F50.00000
G01 Z-0.30000
G04 P0 ( dwell for no time -- G64 should not smooth over this point )
F100.00000
G01 X69.20580 Y21.64145
X69.20580 Y5.70580
X67.35765 Y3.85762
X66.69506 Y4.32571
X66.03420 Y4.75304
X65.21058 Y5.22376
X64.55514 Y5.54377
X64.09001 Y5.74522
X62.85705 Y6.20943
X62.20655 Y6.79264
X61.28235 Y7.57107
X60.32456 Y8.33135
X59.65830 Y9.19616
X57.76132 Y11.55483
X56.27700 Y14.06029
X58.92833 Y15.49841
X60.76533 Y16.52625
X62.71127 Y17.65071
X64.63941 Y18.80135
X66.45341 Y19.91334
X69.20580 Y21.64145
G04 P0 ( dwell for no time -- G64 should not smooth over this point )
G00 Z2.00000 ( retract )

G00 X67.35762 Y3.85764 ( rapid move to begin. )
F50.00000
G01 Z-0.30000
G04 P0 ( dwell for no time -- G64 should not smooth over this point )
F100.00000
G01 X67.35762 Y3.85764
X66.66580 Y3.16580
X66.66580 Y0.62580
X62.85331 Y0.62580
X62.85705 Y6.20943
X64.09001 Y5.74522
X64.55514 Y5.54377
X65.21058 Y5.22376
X66.03420 Y4.75304
X66.69506 Y4.32571
X67.35762 Y3.85764
G04 P0 ( dwell for no time -- G64 should not smooth over this point )
G00 Z2.00000 ( retract )

G00 X62.85334 Y0.62580 ( rapid move to begin. )
F50.00000
G01 Z-0.30000
G04 P0 ( dwell for no time -- G64 should not smooth over this point )
F100.00000
G01 X62.85334 Y0.62580
X60.31331 Y0.62580
X60.31087 Y6.98581
X60.32456 Y8.33135
X61.28235 Y7.57107
X62.20655 Y6.79264
X62.85705 Y6.20943
X62.85334 Y0.62580
G04 P0 ( dwell for no time -- G64 should not smooth over this point )
G00 Z2.00000 ( retract )

G00 X60.31334 Y0.62580 ( rapid move to begin. )
F50.00000
G01 Z-0.30000
G04 P0 ( dwell for no time -- G64 should not smooth over this point )
F100.00000
G01 X60.31334 Y0.62580
X57.77331 Y0.62580
X57.77087 Y6.98581
X57.78347 Y8.54313
X57.76132 Y11.55483
X59.65830 Y9.19616
X60.32456 Y8.33135
X60.31087 Y6.98581
X60.31334 Y0.62580
G04 P0 ( dwell for no time -- G64 should not smooth over this point )
G00 Z2.00000 ( retract )

G00 X57.77334 Y0.62580 ( rapid move to begin. )
F50.00000
G01 Z-0.30000
G04 P0 ( dwell for no time -- G64 should not smooth over this point )
F100.00000
G01 X57.77334 Y0.62580
X55.23331 Y0.62580
X55.23087 Y6.98581
X55.24347 Y8.54313
X55.22412 Y10.95346
X55.22943 Y14.09097
X56.27700 Y14.06029
X57.76132 Y11.55483
X57.78347 Y8.54313
X57.77087 Y6.98581
X57.77334 Y0.62580
G04 P0 ( dwell for no time -- G64 should not smooth over this point )
G00 Z2.00000 ( retract )

G00 X55.23334 Y0.62580 ( rapid move to begin. )
F50.00000
G01 Z-0.30000
G04 P0 ( dwell for no time -- G64 should not smooth over this point )
F100.00000
G01 X55.23334 Y0.62580
X52.69331 Y0.62580
X52.69087 Y6.98581
X52.70347 Y8.54313
X52.68412 Y10.95346
X52.69085 Y14.46771
X55.22943 Y14.09097
X55.22412 Y10.95346
X55.24347 Y8.54313
X55.23087 Y6.98581
X55.23334 Y0.62580
G04 P0 ( dwell for no time -- G64 should not smooth over this point )
G00 Z2.00000 ( retract )

G00 X52.69334 Y0.62580 ( rapid move to begin. )
F50.00000
G01 Z-0.30000
G04 P0 ( dwell for no time -- G64 should not smooth over this point )
F100.00000
G01 X52.69334 Y0.62580
X48.88534 Y0.62580
X48.88654 Y15.48467
X52.69085 Y14.46771
X52.68412 Y10.95346
X52.70347 Y8.54313
X52.69087 Y6.98581
X52.69334 Y0.62580
G04 P0 ( dwell for no time -- G64 should not smooth over this point )
G00 Z2.00000 ( retract )

G00 X48.88532 Y0.62580 ( rapid move to begin. )
F50.00000
G01 Z-0.30000
G04 P0 ( dwell for no time -- G64 should not smooth over this point )
F100.00000
G01 X48.88532 Y0.62580
X45.07331 Y0.62580
X45.07087 Y6.98581
X45.08347 Y8.54313
X45.06193 Y12.09283
X45.07311 Y15.07489
X47.02850 Y16.42089
X48.88654 Y15.48467
X48.88532 Y0.62580
G04 P0 ( dwell for no time -- G64 should not smooth over this point )
G00 Z2.00000 ( retract )

G00 X45.07334 Y0.62580 ( rapid move to begin. )
F50.00000
G01 Z-0.30000
G04 P0 ( dwell for no time -- G64 should not smooth over this point )
F100.00000
G01 X45.07334 Y0.62580
X42.53331 Y0.62580
X42.53087 Y6.98581
X42.54347 Y8.54313
X42.52193 Y12.09283
X42.52800 Y13.70789
X45.07311 Y15.07489
X45.06193 Y12.09283
X45.08347 Y8.54313
X45.07087 Y6.98581
X45.07334 Y0.62580
G04 P0 ( dwell for no time -- G64 should not smooth over this point )
G00 Z2.00000 ( retract )

G00 X42.53334 Y0.62580 ( rapid move to begin. )
F50.00000
G01 Z-0.30000
G04 P0 ( dwell for no time -- G64 should not smooth over this point )
F100.00000
G01 X42.53334 Y0.62580
X39.99331 Y0.62580
X39.99087 Y6.98581
X40.00347 Y8.54313
X39.98193 Y12.09283
X39.98429 Y12.72140
X42.52800 Y13.70789
X42.52412 Y10.95346
X42.54347 Y8.54313
X42.53087 Y6.98581
X42.53334 Y0.62580
G04 P0 ( dwell for no time -- G64 should not smooth over this point )
G00 Z2.00000 ( retract )

G00 X39.99334 Y0.62580 ( rapid move to begin. )
F50.00000
G01 Z-0.30000
G04 P0 ( dwell for no time -- G64 should not smooth over this point )
F100.00000
G01 X39.99334 Y0.62580
X37.45331 Y0.62580
X37.45087 Y6.98581
X37.46347 Y8.54313
X37.44249 Y11.20078
X38.35821 Y12.33251
X39.98429 Y12.72140
X40.00347 Y8.54313
X39.99087 Y6.98581
X39.99334 Y0.62580
G04 P0 ( dwell for no time -- G64 should not smooth over this point )
G00 Z2.00000 ( retract )

G00 X37.45334 Y0.62580 ( rapid move to begin. )
F50.00000
G01 Z-0.30000
G04 P0 ( dwell for no time -- G64 should not smooth over this point )
F100.00000
G01 X37.45334 Y0.62580
X34.91331 Y0.62580
X34.92030 Y8.94036
X37.44249 Y11.20078
X37.46347 Y8.54313
X37.45087 Y6.98581
X37.45334 Y0.62580
G04 P0 ( dwell for no time -- G64 should not smooth over this point )
G00 Z2.00000 ( retract )

G00 X34.91334 Y0.62580 ( rapid move to begin. )
F50.00000
G01 Z-0.30000
G04 P0 ( dwell for no time -- G64 should not smooth over this point )
F100.00000
G01 X34.91334 Y0.62580
X32.37331 Y0.62580
X32.37087 Y6.98581
X32.37796 Y7.53290
X34.92030 Y8.94036
X34.91334 Y0.62580
G04 P0 ( dwell for no time -- G64 should not smooth over this point )
G00 Z2.00000 ( retract )

G00 X32.37334 Y0.62580 ( rapid move to begin. )
F50.00000
G01 Z-0.30000
G04 P0 ( dwell for no time -- G64 should not smooth over this point )
F100.00000
G01 X32.37334 Y0.62580
X29.83331 Y0.62580
X29.83087 Y6.98581
X29.83113 Y7.00610
X32.37796 Y7.53290
X32.37334 Y0.62580
G04 P0 ( dwell for no time -- G64 should not smooth over this point )
G00 Z2.00000 ( retract )

G00 X29.83334 Y0.62580 ( rapid move to begin. )
F50.00000
G01 Z-0.30000
G04 P0 ( dwell for no time -- G64 should not smooth over this point )
F100.00000
G01 X29.83334 Y0.62580
X22.17028 Y0.62580
X22.15847 Y3.71479
X24.03790 Y7.83505
X26.63606 Y7.45007
X29.83113 Y7.00610
X29.83334 Y0.62580
G04 P0 ( dwell for no time -- G64 should not smooth over this point )
G00 Z2.00000 ( retract )

G00 X22.17026 Y0.62580 ( rapid move to begin. )
F50.00000
G01 Z-0.30000
G04 P0 ( dwell for no time -- G64 should not smooth over this point )
F100.00000
G01 X22.17026 Y0.62580
X10.83721 Y0.62580
X11.11821 Y3.60474
X11.34016 Y6.38299
X11.37673 Y7.01275
X11.89484 Y7.24450
X12.42804 Y7.51268
X13.34206 Y8.04283
X13.80799 Y8.34923
X14.80820 Y7.49396
X15.44210 Y6.99203
X16.27182 Y6.40811
X16.73585 Y6.11423
X17.32699 Y5.78017
X18.31975 Y5.28540
X19.38350 Y4.81672
X21.22045 Y4.07591
X22.15847 Y3.71479
X22.17026 Y0.62580
G04 P0 ( dwell for no time -- G64 should not smooth over this point )
G00 Z2.00000 ( retract )

G00 X26.58242 Y10.57465 ( rapid move to begin. )
F50.00000
G01 Z-0.30000
G04 P0 ( dwell for no time -- G64 should not smooth over this point )
F100.00000
G01 X26.58242 Y10.57465
X28.11703 Y12.17807
X28.29521 Y12.72682
X28.34294 Y12.95072
X28.39011 Y13.31927
X28.39011 Y13.84035
X28.34294 Y14.20891
X28.25320 Y14.58960
X28.12128 Y14.97042
X28.12128 Y32.25520
X28.25320 Y32.63602
X28.34294 Y33.01672
X28.39011 Y33.38527
X28.39011 Y33.90635
X28.34294 Y34.27491
X28.25320 Y34.65560
X28.11277 Y35.05867
X27.98762 Y35.33878
X27.61508 Y35.98171
X27.32252 Y36.38267
X27.04409 Y36.71899
X26.97596 Y37.23748
X26.86598 Y37.75333
X26.64297 Y38.46560
X26.22798 Y39.39455
X26.03680 Y39.74568
X25.72527 Y40.24431
X25.57289 Y40.93979
X25.40690 Y41.51424
X25.19850 Y42.08868
X25.00774 Y42.54799
X24.70823 Y43.16412
X24.42519 Y43.68393
X24.10581 Y44.20371
X23.89591 Y44.52424
X23.59436 Y44.81433
X25.77581 Y47.53734
X28.31508 Y49.12585
X29.77781 Y49.13490
X30.85503 Y49.12375
X32.26181 Y48.25293
X31.97428 Y45.37862
X32.12180 Y44.82380
X32.12180 Y22.21382
X32.02536 Y21.86924
X31.92724 Y21.40899
X31.85594 Y20.81146
X31.85594 Y20.06416
X31.92724 Y19.46663
X32.06737 Y18.84961
X32.22919 Y18.35302
X32.61563 Y17.48792
X32.98139 Y16.85670
X33.34087 Y16.32622
X33.75550 Y15.79572
X34.14770 Y15.33827
X34.74019 Y14.72407
X35.35768 Y14.14078
X36.06883 Y13.53713
X38.35821 Y12.33251
X37.44249 Y11.20078
X34.92030 Y8.94036
X32.37796 Y7.53290
X29.83113 Y7.00610
X26.63606 Y7.45007
X24.03790 Y7.83505
X24.02334 Y7.90267
X26.58242 Y10.57465
G04 P0 ( dwell for no time -- G64 should not smooth over this point )
G00 Z2.00000 ( retract )

G00 X21.94694 Y13.16334 ( rapid move to begin. )
F50.00000
G01 Z-0.30000
G04 P0 ( dwell for no time -- G64 should not smooth over this point )
F100.00000
G01 X21.94694 Y13.16334
X21.93605 Y13.57982
X21.94694 Y13.99628
X22.00130 Y14.68914
X23.65682 Y15.49338
X24.07219 Y15.89681
X24.61181 Y16.50964
X24.97645 Y17.02665
X25.14671 Y17.32046
X25.33746 Y17.72546
X25.51031 Y18.25586
X25.55212 Y18.45195
X25.59644 Y18.79358
X25.59644 Y19.28804
X25.55212 Y19.62967
X25.51031 Y19.82576
X25.32730 Y20.38225
X25.32730 Y32.30437
X25.18625 Y32.70407
X25.10246 Y33.05695
X25.05814 Y33.39858
X25.05814 Y33.89304
X25.10246 Y34.23467
X25.14427 Y34.43076
X25.27962 Y34.86355
X27.04409 Y36.71899
X27.32252 Y36.38267
X27.61508 Y35.98171
X27.98762 Y35.33878
X28.17294 Y34.90185
X28.29521 Y34.49881
X28.36778 Y34.11814
X28.39831 Y33.74956
X28.39011 Y33.38527
X28.34294 Y33.01672
X28.25320 Y32.63602
X28.12128 Y32.25520
X28.12128 Y14.97042
X28.29521 Y14.43281
X28.34294 Y14.20891
X28.39011 Y13.84035
X28.39011 Y13.31927
X28.34294 Y12.95072
X28.29521 Y12.72682
X28.11703 Y12.17807
X24.02334 Y7.90267
X22.40930 Y10.58938
X22.25609 Y11.12766
X22.15057 Y11.56631
X22.06906 Y12.00497
X21.98850 Y12.58414
X21.94694 Y13.16334
G04 P0 ( dwell for no time -- G64 should not smooth over this point )
G00 Z2.00000 ( retract )

G00 X20.60978 Y18.76406 ( rapid move to begin. )
F50.00000
G01 Z-0.30000
G04 P0 ( dwell for no time -- G64 should not smooth over this point )
F100.00000
G01 X20.60978 Y18.76406
X20.61801 Y19.47435
X20.67725 Y20.03630
X20.88230 Y21.02850
X21.21641 Y21.31191
X21.65919 Y21.73881
X22.02815 Y22.14656
X22.38819 Y22.62278
X22.63968 Y23.03789
X22.81618 Y23.41097
X22.93744 Y23.75511
X23.04016 Y24.23698
X23.06500 Y24.55166
X23.04016 Y25.02064
X22.93744 Y25.50251
X22.78730 Y25.91808
X22.78730 Y34.89654
X22.69820 Y35.12476
X22.59515 Y35.46891
X22.51778 Y35.95189
X22.51778 Y36.41973
X22.59515 Y36.90271
X22.69820 Y37.24686
X22.77369 Y37.44236
X25.72527 Y40.24431
X26.03680 Y39.74568
X26.22798 Y39.39455
X26.64297 Y38.46560
X26.86598 Y37.75333
X26.97596 Y37.23748
X27.04409 Y36.71899
X25.27962 Y34.86355
X25.14427 Y34.43076
X25.10246 Y34.23467
X25.05814 Y33.89304
X25.05814 Y33.39858
X25.10246 Y33.05695
X25.18625 Y32.70407
X25.32730 Y32.30437
X25.32730 Y20.38225
X25.51031 Y19.82576
X25.55212 Y19.62967
X25.59644 Y19.28804
X25.59644 Y18.79358
X25.55212 Y18.45195
X25.51031 Y18.25586
X25.33746 Y17.72546
X25.14671 Y17.32046
X24.97645 Y17.02665
X24.61181 Y16.50964
X24.07219 Y15.89681
X23.65682 Y15.49338
X22.00130 Y14.68914
X21.73988 Y15.11299
X21.44463 Y15.66529
X21.07389 Y16.51726
X20.86889 Y17.14639
X20.70209 Y17.88853
X20.60978 Y18.76406
G04 P0 ( dwell for no time -- G64 should not smooth over this point )
G00 Z2.00000 ( retract )

G00 X19.39998 Y24.47848 ( rapid move to begin. )
F50.00000
G01 Z-0.30000
G04 P0 ( dwell for no time -- G64 should not smooth over this point )
F100.00000
G01 X19.39998 Y24.47848
X19.40819 Y24.93593
X19.46531 Y25.39877
X19.53376 Y25.71998
X19.67580 Y26.18948
X19.67580 Y33.35515
X19.81781 Y33.82464
X19.88627 Y34.14585
X19.94339 Y34.60869
X19.94339 Y35.22293
X19.88627 Y35.68577
X19.77580 Y36.16378
X19.66196 Y36.51310
X19.42051 Y37.07396
X16.04843 Y40.45376
X16.47489 Y42.48982
X16.95561 Y43.54225
X18.76374 Y44.39424
X19.69165 Y44.80430
X20.69272 Y44.97519
X23.23335 Y44.89680
X23.59436 Y44.81433
X23.89591 Y44.52424
X24.42519 Y43.68393
X24.70823 Y43.16412
X25.00774 Y42.54799
X25.19850 Y42.08868
X25.40690 Y41.51424
X25.57289 Y40.93979
X25.72527 Y40.24431
X22.77369 Y37.44236
X22.69820 Y37.24686
X22.59515 Y36.90271
X22.51778 Y36.41973
X22.51778 Y35.95189
X22.59515 Y35.46891
X22.69820 Y35.12476
X22.78730 Y34.89654
X22.78730 Y25.91808
X22.93744 Y25.50251
X23.04016 Y25.02064
X23.06500 Y24.70596
X23.04016 Y24.23698
X22.93744 Y23.75511
X22.81618 Y23.41097
X22.63968 Y23.03789
X22.38819 Y22.62278
X22.02815 Y22.14656
X21.65919 Y21.73881
X21.21641 Y21.31191
X20.88230 Y21.02850
X20.26762 Y21.87242
X20.00476 Y22.32606
X19.74982 Y22.87470
X19.53376 Y23.53764
X19.44047 Y24.01564
X19.39998 Y24.47848
G04 P0 ( dwell for no time -- G64 should not smooth over this point )
G00 Z2.00000 ( retract )

G00 X31.84773 Y20.22096 ( rapid move to begin. )
F50.00000
G01 Z-0.30000
G04 P0 ( dwell for no time -- G64 should not smooth over this point )
F100.00000
G01 X31.84773 Y20.22096
X31.85594 Y20.81146
X31.90240 Y21.25220
X32.02536 Y21.86924
X32.12180 Y22.21382
X32.12180 Y44.82380
X31.97428 Y45.37862
X32.26181 Y48.25293
X33.38896 Y48.87223
X35.92901 Y48.87378
X38.47480 Y47.45862
X41.01553 Y44.62398
X41.52813 Y43.77296
X42.05876 Y43.20671
X42.81662 Y42.46574
X43.53714 Y41.80809
X44.31487 Y41.15043
X44.79592 Y40.58206
X45.80128 Y39.47342
X46.91400 Y38.36476
X47.67465 Y37.64185
X47.18174 Y36.45483
X46.75454 Y35.26784
X46.39307 Y34.08082
X46.09731 Y32.89383
X45.86729 Y31.70681
X45.70298 Y30.51982
X45.60440 Y29.33280
X45.57156 Y28.14578
X45.57156 Y26.44581
X45.58764 Y25.61523
X45.57252 Y24.93530
X45.58665 Y23.96538
X47.02850 Y16.42089
X45.07311 Y15.07489
X42.52800 Y13.70789
X39.98429 Y12.72140
X38.35821 Y12.33251
X36.06883 Y13.53713
X35.35768 Y14.14078
X34.74019 Y14.72407
X34.14770 Y15.33827
X33.75550 Y15.79572
X33.34087 Y16.32622
X32.98139 Y16.85670
X32.61563 Y17.48792
X32.28939 Y18.19620
X32.02536 Y19.00638
X31.90240 Y19.62342
X31.84773 Y20.22096

G04 P0 ( dwell for no time -- G64 should not smooth over this point )
G00 Z30.000 ( retract )

M5 ( Spindle off. )
M9 ( Coolant off. )
M2 ( Program end. )

