( pcb2gcode 1.3.2 )
( Software-independent Gcode )

G94 ( Millimeters per minute feed rate. )
G21 ( Units == Millimeters. )

G90 ( Absolute coordinates. )
S15000 ( RPM spindle speed. )
G64 P0.01016 ( set maximum deviation from commanded toolpath )
F100.00000 ( Feedrate. )

F100.00000 ( Feedrate. )
M3 ( Spindle on clockwise. )
G04 P0 ( dwell for no time -- G64 should not smooth over this point )
G00 Z2.00000 ( retract )

G00 X0.62580 Y46.26617 ( rapid move to begin. )
F50.00000
G01 Z-0.30000
G04 P0 ( dwell for no time -- G64 should not smooth over this point )
F100.00000
X0.62580 Y46.26617
X3.59618 Y46.30033
X4.80268 Y46.29396
X5.38904 Y46.32352
X6.33521 Y46.40854
X7.21492 Y46.55997
X7.80796 Y46.70130
X8.68169 Y46.95265
X9.07991 Y47.04663
X9.59606 Y47.14285
X10.24455 Y47.23833
X10.64282 Y47.32299
X11.07071 Y47.43800
X11.46896 Y47.56739
X11.95517 Y47.75461
X12.56949 Y48.03350
X13.44185 Y47.72819
X13.92877 Y47.59733
X14.35356 Y47.50706
X14.80063 Y47.43604
X15.22542 Y47.39139
X15.65341 Y47.36891
X16.07820 Y47.36891
X16.50616 Y47.39139
X16.93095 Y47.43604
X17.37796 Y47.50704
X17.80275 Y47.59733
X18.28985 Y47.72822
X18.81520 Y47.90002
X19.50694 Y47.87353
X19.77616 Y47.88123
X20.31570 Y48.16893
X20.69007 Y48.40653
X21.01931 Y48.47693
X21.46335 Y48.59723
X22.17135 Y48.86878
X22.61395 Y49.10287
X22.99802 Y49.35953
X23.22901 Y49.54500
X23.54928 Y49.58013
X23.99931 Y49.66510
X24.36037 Y49.77348
X24.65903 Y49.89842
X24.98747 Y50.08498
X25.19344 Y50.23715
X25.37874 Y50.40543
X25.54734 Y50.59314
X25.77048 Y50.91866
X25.77424 Y53.96580
X65.14178 Y53.96453
X66.66438 Y52.44137
X66.66580 Y41.04286
X66.68775 Y40.98985
X67.67431 Y40.00332
X67.17393 Y39.59811
X66.87820 Y39.33344
X66.24378 Y38.70355
X66.12496 Y38.60718
X65.53022 Y38.21414
X65.11947 Y37.86393
X64.79095 Y37.51348
X64.53012 Y37.17355
X64.26227 Y36.74340
X63.96581 Y36.11557
X63.80871 Y35.67193
X63.63017 Y34.97617
X63.56911 Y34.64323
X63.49921 Y34.11237
X63.45887 Y33.58413
X63.44447 Y32.58398
X63.51966 Y31.49416
X63.59395 Y30.80554
X63.84856 Y29.33588
X64.10914 Y28.13075
X64.46103 Y26.83431
X64.98945 Y25.09184
X65.29994 Y24.16807
X65.64533 Y23.20940
X66.02562 Y22.21580
X65.05145 Y21.76690
X64.11186 Y21.28341
X62.57724 Y20.40653
X57.81327 Y20.40653
X57.02297 Y20.34323
X56.26389 Y20.31110
X55.53600 Y20.31021
X54.83933 Y20.34049
X53.83735 Y20.87033
X52.97025 Y21.40018
X52.23807 Y21.93002
X51.92255 Y22.19494
X51.64079 Y22.45984
X49.94079 Y24.15981
X49.79791 Y24.35034
X49.76220 Y24.44559
X49.75029 Y24.54084
X49.75029 Y26.24081
X49.76469 Y26.34556
X49.84236 Y26.42173
X49.94079 Y26.47718
X50.44536 Y26.68617
X50.81211 Y26.66110
X51.22583 Y26.69887
X51.50035 Y26.76082
X51.80190 Y26.85107
X52.11305 Y26.91101
X52.16481 Y26.97299
X52.37525 Y27.25239
X52.56781 Y27.57151
X52.74297 Y27.94375
X52.89811 Y28.38774
X52.95018 Y28.57890
X53.06138 Y29.14014
X53.11554 Y29.62178
X53.14109 Y30.38650
X53.51274 Y30.75815
X54.04419 Y30.96206
X54.49166 Y31.17496
X55.14378 Y31.57397
X55.58904 Y31.92581
X55.98574 Y32.31357
X56.24690 Y32.61946
X56.58271 Y33.09386
X56.88888 Y33.64084
X57.22206 Y34.44778
X57.40283 Y35.06147
X57.52703 Y35.62545
X57.61611 Y36.22453
X57.66887 Y36.73342
X57.80168 Y36.86624
X58.38278 Y37.24317
X58.99195 Y37.71026
X59.65324 Y38.32636
X60.34694 Y39.13895
X60.57775 Y39.45691
X60.79373 Y39.78973
X61.09149 Y40.29750
X61.29444 Y40.69719
X61.31308 Y41.26580
X61.30196 Y41.69092
X61.26431 Y42.23407
X61.89263 Y43.77989
X62.09370 Y44.44090
X62.22867 Y45.10851
X62.29583 Y45.78857
X62.30335 Y47.40942
X62.85885 Y48.14826
X63.13192 Y48.33828
X63.64848 Y48.73540
X64.14424 Y49.18638
X64.31031 Y49.36111
X64.47972 Y49.55758
X64.71455 Y49.87482
X64.96740 Y50.32887
X65.08450 Y50.64134
X65.16636 Y51.03850
X65.17988 Y51.27561
X65.17566 Y51.70479
X65.13609 Y51.99669
X64.93964 Y52.25117
X64.75831 Y52.42790
X64.54439 Y52.58886
X64.19860 Y52.63067
X63.94521 Y52.62417
X63.55021 Y52.55318
X63.31930 Y52.47736
X63.07183 Y52.36793
X62.85781 Y52.24822
X62.51351 Y52.42737
X62.10038 Y52.56900
X61.83337 Y52.61736
X61.44511 Y52.62722
X61.18496 Y52.59374
X60.95408 Y52.53707
X60.70658 Y52.44820
X60.31783 Y52.24820
X59.97351 Y52.42737
X59.56038 Y52.56900
X59.29337 Y52.61736
X58.90511 Y52.62722
X58.64496 Y52.59374
X58.41408 Y52.53707
X58.16658 Y52.44820
X57.77783 Y52.24820
X57.51730 Y52.38874
X57.19511 Y52.51899
X56.79546 Y52.61198
X56.53984 Y52.63166
X56.15051 Y52.60192
X55.87408 Y52.53707
X55.62658 Y52.44820
X55.23783 Y52.24820
X54.97730 Y52.38874
X54.65511 Y52.51899
X54.25546 Y52.61198
X53.99984 Y52.63166
X53.61051 Y52.60192
X53.33408 Y52.53707
X53.08658 Y52.44820
X52.69783 Y52.24820
X52.43730 Y52.38874
X52.11511 Y52.51899
X51.71546 Y52.61198
X51.45984 Y52.63166
X51.07051 Y52.60192
X50.79408 Y52.53707
X50.54658 Y52.44820
X50.15783 Y52.24820
X49.89730 Y52.38874
X49.57511 Y52.51899
X49.17546 Y52.61198
X48.91984 Y52.63166
X48.53051 Y52.60192
X48.25408 Y52.53707
X48.00658 Y52.44820
X47.61783 Y52.24820
X47.27351 Y52.42737
X46.86038 Y52.56900
X46.59337 Y52.61736
X46.20511 Y52.62722
X45.99051 Y52.60192
X45.77024 Y52.55318
X45.53933 Y52.47736
X45.29185 Y52.36793
X44.88840 Y52.12712
X44.53247 Y51.85046
X44.31281 Y51.65120
X44.08454 Y51.85950
X43.75564 Y52.11564
X43.58091 Y52.23080
X43.29330 Y52.38874
X43.03478 Y52.49717
X42.79638 Y52.56900
X42.57146 Y52.61198
X42.35462 Y52.63067
X42.10123 Y52.62417
X41.70624 Y52.55318
X41.40258 Y52.44820
X41.01383 Y52.24820
X40.75330 Y52.38874
X40.43111 Y52.51899
X40.20621 Y52.58066
X39.81462 Y52.63067
X39.56123 Y52.62417
X39.16624 Y52.55318
X38.86258 Y52.44820
X38.47383 Y52.24820
X38.21330 Y52.38874
X37.89111 Y52.51899
X37.66621 Y52.58066
X37.27462 Y52.63067
X37.02123 Y52.62417
X36.62624 Y52.55318
X36.32258 Y52.44820
X35.93383 Y52.24820
X35.67330 Y52.38874
X35.35111 Y52.51899
X35.12621 Y52.58066
X34.73462 Y52.63067
X34.48123 Y52.62417
X34.08624 Y52.55318
X33.78258 Y52.44820
X33.39383 Y52.24820
X33.13330 Y52.38874
X32.87478 Y52.49717
X32.63638 Y52.56900
X32.36937 Y52.61736
X32.15584 Y52.63166
X31.94123 Y52.62417
X31.54624 Y52.55318
X31.24258 Y52.44820
X30.85383 Y52.24820
X30.50951 Y52.42737
X30.27111 Y52.51899
X30.04621 Y52.58066
X29.82937 Y52.61736
X29.61584 Y52.63166
X29.40123 Y52.62417
X29.18096 Y52.59374
X28.95008 Y52.53707
X28.70964 Y52.45140
X28.53621 Y52.25854
X28.31310 Y51.93304
X28.31048 Y50.91866
X28.08734 Y50.59314
X27.91874 Y50.40543
X27.67154 Y50.18801
X27.45219 Y50.03677
X27.19903 Y49.89842
X26.76865 Y49.73032
X21.74717 Y44.70884
X21.26272 Y44.52347
X20.95766 Y44.47773
X12.65605 Y44.47656
X12.56179 Y44.57082
X12.37129 Y44.71370
X12.27604 Y44.74941
X12.18079 Y44.76132
X10.66081 Y44.76132
X10.56553 Y44.74941
X10.47028 Y44.71370
X10.27978 Y44.57080
X10.11613 Y44.40717
X9.78339 Y43.60382
X9.56208 Y43.57572
X9.23114 Y43.50692
X8.96023 Y43.42117
X8.73211 Y43.32241
X8.53534 Y43.21202
X8.36216 Y43.08982
X8.20714 Y42.95424
X7.98695 Y42.69866
X7.94357 Y42.46178
X7.93082 Y42.26079
X7.94357 Y42.01985
X7.97918 Y41.81202
X8.04164 Y41.59211
X8.13810 Y41.35378
X8.35715 Y40.97080
X8.13810 Y40.58785
X8.02175 Y40.28851
X7.94357 Y39.92178
X7.93082 Y39.72079
X7.93915 Y39.52199
X7.97918 Y39.27202
X8.10262 Y38.89326
X8.21908 Y38.65488
X8.44590 Y38.30081
X8.21908 Y37.94675
X8.10262 Y37.70838
X7.97918 Y37.32961
X7.93915 Y37.07965
X7.93082 Y36.88084
X7.94357 Y36.67985
X8.02175 Y36.31313
X8.10262 Y36.09327
X8.21908 Y35.85489
X8.42398 Y35.53081
X8.28078 Y35.31321
X8.13810 Y35.04785
X8.04164 Y34.80952
X7.97918 Y34.58961
X7.94357 Y34.38179
X7.93082 Y34.18080
X7.94357 Y33.93985
X7.97918 Y33.73203
X8.10262 Y33.35327
X8.26231 Y33.03770
X8.67026 Y32.78580
X9.77750 Y32.78580
X10.53396 Y31.36582
X9.87615 Y30.20511
X9.86823 Y30.05414
X9.87155 Y29.82424
X10.50384 Y28.63580
X9.87000 Y27.41818
X9.87511 Y27.08602
X10.53447 Y25.90581
X9.87257 Y24.67691
X9.87308 Y24.33500
X10.53719 Y23.11082
X9.87511 Y21.92563
X9.87511 Y21.49601
X10.53447 Y20.31583
X9.87257 Y19.08690
X9.87000 Y18.80349
X10.50384 Y17.58581
X9.87155 Y16.39742
X9.87409 Y16.05551
X10.53470 Y14.85582
X9.87359 Y13.64640
X9.87409 Y13.26550
X10.04171 Y12.96141
X10.36556 Y12.75984
X10.62520 Y12.63758
X10.86167 Y12.55608
X11.08250 Y12.50566
X11.34137 Y12.47815
X11.70680 Y12.49735
X11.91795 Y12.53944
X12.21638 Y12.63758
X12.47074 Y12.75681
X31.07867 Y12.75681
X31.33316 Y12.63723
X31.62947 Y12.53979
X31.83874 Y12.49811
X32.20019 Y12.47911
X32.76554 Y12.55404
X33.22045 Y12.56908
X33.71695 Y12.62247
X34.45479 Y12.77701
X35.15349 Y12.98056
X36.57285 Y12.39265
X41.93982 Y7.02568
X42.52963 Y6.68167
X43.06011 Y6.54730
X43.56267 Y6.38332
X44.14885 Y6.13404
X44.65281 Y5.85695
X45.07486 Y5.56800
X45.07334 Y0.62580
X39.99334 Y0.62580
X39.99699 Y3.67116
X39.80152 Y3.96051
X39.63753 Y4.15053
X39.45506 Y4.32305
X39.24955 Y4.48088
X39.01447 Y4.62564
X38.56179 Y4.82620
X38.01150 Y4.97263
X37.45862 Y5.04403
X37.03635 Y5.36333
X36.46106 Y5.69170
X35.96723 Y5.90008
X35.57447 Y6.02823
X34.91753 Y6.18362
X34.67254 Y6.34227
X34.07168 Y6.67468
X33.37267 Y6.97397
X32.73590 Y7.18174
X32.37466 Y7.27811
X31.68233 Y7.65766
X30.84957 Y8.02037
X29.84307 Y7.93935
X29.19526 Y8.00320
X28.23961 Y8.01859
X27.28003 Y7.93640
X26.87449 Y7.87415
X26.29423 Y7.75009
X25.86522 Y7.63876
X25.26149 Y7.44417
X24.79540 Y7.27115
X24.15458 Y6.99043
X23.63396 Y6.73445
X23.11336 Y6.44481
X22.17193 Y5.85487
X21.58626 Y6.25832
X20.57577 Y6.86350
X20.07961 Y7.13358
X19.58345 Y7.37087
X18.72587 Y7.73968
X18.29310 Y7.89332
X17.47807 Y8.14717
X16.66308 Y8.33137
X15.93542 Y8.44694
X15.51063 Y8.49157
X14.92173 Y8.52753
X14.47528 Y9.27689
X14.04637 Y9.89126
X13.68298 Y10.34313
X13.26977 Y10.77531
X13.11092 Y10.91836
X12.76924 Y11.18247
X12.37523 Y11.41330
X12.13881 Y11.51391
X11.91795 Y11.58219
X11.70680 Y11.62428
X11.50023 Y11.64348
X11.29367 Y11.64097
X11.08250 Y11.61597
X10.70277 Y11.51391
X10.36556 Y11.36179
X10.04171 Y11.16022
X8.57605 Y8.50371
X7.67316 Y8.52449
X6.98032 Y8.55865
X5.25711 Y8.69119
X3.24627 Y8.89957
X0.62580 Y9.22093
X0.62580 Y46.26617
G04 P0 ( dwell for no time -- G64 should not smooth over this point )
G00 Z2.00000 ( retract )

G00 X7.93082 Y42.22084 ( rapid move to begin. )
F50.00000
G01 Z-0.30000
G04 P0 ( dwell for no time -- G64 should not smooth over this point )
F100.00000
X7.93082 Y42.22084
X7.94357 Y42.46178
X7.98695 Y42.69866
X8.20714 Y42.95424
X8.40216 Y43.12051
X8.73211 Y43.32241
X9.05779 Y43.45556
X9.37252 Y43.54060
X9.78339 Y43.60382
X9.93140 Y43.29366
X10.14765 Y42.73595
X10.30267 Y42.47014
X10.45580 Y42.26173
X9.83173 Y40.97083
X8.35715 Y40.97080
X8.13810 Y41.35378
X8.04164 Y41.59211
X7.96874 Y41.86097
X7.93082 Y42.22084
G04 P0 ( dwell for no time -- G64 should not smooth over this point )
G00 Z2.00000 ( retract )

G00 X9.83173 Y40.97083 ( rapid move to begin. )
F50.00000
G01 Z-0.30000
G04 P0 ( dwell for no time -- G64 should not smooth over this point )
F100.00000
X9.83173 Y40.97083
X10.45580 Y42.26173
X10.90808 Y42.36768
X11.34137 Y42.41373
X11.79306 Y42.39000
X12.63286 Y42.21906
X13.34419 Y42.14723
X13.53362 Y42.03582
X22.11918 Y42.03582
X22.62609 Y42.07245
X23.02710 Y42.15236
X23.58961 Y42.34037
X27.80764 Y44.08753
X28.50967 Y43.31352
X28.96552 Y42.88733
X29.59039 Y42.39267
X30.12602 Y42.05518
X30.60077 Y41.82279
X30.87624 Y41.71672
X31.27977 Y41.59945
X31.82269 Y41.51324
X32.20019 Y41.50164
X32.57768 Y41.52970
X32.96381 Y41.59945
X33.36734 Y41.71672
X33.79962 Y41.89259
X34.11755 Y42.05518
X34.80996 Y42.50656
X35.43134 Y43.02536
X36.13287 Y43.08738
X36.69903 Y43.20214
X37.29131 Y43.38431
X40.27987 Y44.61392
X40.73497 Y44.81690
X41.42031 Y45.17397
X42.17852 Y44.06183
X42.51025 Y43.62726
X42.99877 Y43.06267
X43.49015 Y42.56859
X44.02665 Y42.11853
X44.48655 Y41.80702
X44.89414 Y41.58825
X45.26528 Y41.43590
X45.61177 Y41.33400
X45.94329 Y41.27291
X46.26742 Y41.24764
X46.59152 Y41.25643
X46.92302 Y41.30065
X47.26950 Y41.38495
X47.67912 Y41.53557
X48.12477 Y41.40037
X48.62672 Y41.32064
X49.14486 Y41.32064
X49.64681 Y41.40037
X50.13490 Y41.55173
X50.23553 Y41.80702
X50.34338 Y42.16587
X50.40706 Y42.50486
X50.43335 Y42.83300
X50.42512 Y43.15739
X50.38222 Y43.48555
X50.30137 Y43.82452
X50.15580 Y44.23259
X50.15783 Y52.24820
X50.54658 Y52.44820
X50.79408 Y52.53707
X51.07051 Y52.60192
X51.45984 Y52.63166
X51.71546 Y52.61198
X52.11511 Y52.51899
X52.43730 Y52.38874
X52.69783 Y52.24820
X52.69580 Y44.86759
X52.55021 Y44.45952
X52.46936 Y44.12055
X52.42646 Y43.79239
X52.41823 Y43.46800
X52.46936 Y42.98307
X52.55021 Y42.64410
X52.67624 Y42.28520
X52.85122 Y41.91317
X52.37426 Y40.77215
X52.20548 Y40.48909
X52.02903 Y40.28157
X51.35783 Y39.61266
X51.08100 Y39.40339
X50.80177 Y39.26133
X49.99177 Y38.92582
X13.23207 Y38.92582
X12.92938 Y39.13006
X12.60231 Y39.30779
X12.30452 Y39.43202
X11.94638 Y39.55280
X11.64384 Y39.68584
X10.50384 Y39.68582
X9.83173 Y40.97083
G04 P0 ( dwell for no time -- G64 should not smooth over this point )
G00 Z2.00000 ( retract )

G00 X10.59413 Y42.29381 ( rapid move to begin. )
F50.00000
G01 Z-0.30000
G04 P0 ( dwell for no time -- G64 should not smooth over this point )
F100.00000
X10.59413 Y42.29381
X10.45580 Y42.26173
X10.22479 Y42.59396
X10.09500 Y42.85007
X9.93140 Y43.29366
X9.78339 Y43.60382
X10.11613 Y44.40717
X10.27978 Y44.57080
X10.47028 Y44.71370
X10.56553 Y44.74941
X10.66081 Y44.76132
X12.18079 Y44.76132
X12.27604 Y44.74941
X12.37129 Y44.71370
X12.56179 Y44.57082
X12.65605 Y44.47656
X20.95766 Y44.47773
X21.26272 Y44.52347
X21.74717 Y44.70884
X26.76865 Y49.73032
X27.19903 Y49.89842
X27.45219 Y50.03677
X27.73344 Y50.23715
X28.03761 Y50.53365
X28.19359 Y50.73403
X28.31048 Y50.91866
X28.31310 Y51.93304
X28.53621 Y52.25854
X28.70964 Y52.45140
X28.95008 Y52.53707
X29.22651 Y52.60192
X29.44111 Y52.62722
X29.82937 Y52.61736
X30.09638 Y52.56900
X30.33478 Y52.49717
X30.59330 Y52.38874
X30.85383 Y52.24820
X30.85226 Y49.80612
X30.75724 Y49.61216
X30.50842 Y49.18620
X30.15714 Y48.70228
X29.86057 Y48.35440
X28.61533 Y45.34811
X28.14513 Y44.67273
X27.80764 Y44.08753
X23.58961 Y42.34037
X23.02710 Y42.15236
X22.62609 Y42.07245
X22.11918 Y42.03582
X13.53362 Y42.03582
X13.34419 Y42.14723
X12.63286 Y42.21906
X11.93350 Y42.36768
X11.63416 Y42.40669
X11.34137 Y42.41373
X11.04851 Y42.39000
X10.59413 Y42.29381
G04 P0 ( dwell for no time -- G64 should not smooth over this point )
G00 Z2.00000 ( retract )

G00 X7.93082 Y39.68084 ( rapid move to begin. )
F50.00000
G01 Z-0.30000
G04 P0 ( dwell for no time -- G64 should not smooth over this point )
F100.00000
X7.93082 Y39.68084
X7.93915 Y39.87964
X7.96874 Y40.08066
X8.04164 Y40.34952
X8.13810 Y40.58785
X8.35715 Y40.97080
X9.83173 Y40.97083
X10.50384 Y39.68582
X9.76513 Y38.30081
X8.44590 Y38.30081
X8.21908 Y38.65488
X8.04164 Y39.05211
X7.96874 Y39.32097
X7.93082 Y39.68084
G04 P0 ( dwell for no time -- G64 should not smooth over this point )
G00 Z2.00000 ( retract )

G00 X9.78029 Y38.27403 ( rapid move to begin. )
F50.00000
G01 Z-0.30000
G04 P0 ( dwell for no time -- G64 should not smooth over this point )
F100.00000
X9.78029 Y38.27403
X9.76513 Y38.30081
X9.77915 Y38.32915
X10.50384 Y39.68582
X11.64384 Y39.68584
X11.94638 Y39.55280
X12.30452 Y39.43202
X12.60231 Y39.30779
X12.92938 Y39.13006
X13.23207 Y38.92582
X49.99177 Y38.92582
X50.80177 Y39.26133
X51.08100 Y39.40339
X51.35783 Y39.61266
X52.02903 Y40.28157
X52.20548 Y40.48909
X52.37426 Y40.77215
X52.85122 Y41.91317
X53.35518 Y41.98774
X53.56382 Y42.03745
X53.88742 Y42.14192
X54.15978 Y42.26186
X54.39473 Y42.39572
X54.60131 Y42.54367
X54.78612 Y42.70768
X54.95351 Y42.89107
X55.10624 Y43.09879
X55.24588 Y43.33846
X55.37207 Y43.62076
X55.48241 Y43.96226
X55.57055 Y44.38769
X55.62559 Y45.01893
X55.77052 Y45.36884
X56.12988 Y45.46973
X56.42739 Y45.57465
X56.96531 Y45.83058
X57.16143 Y45.95057
X57.45995 Y46.16904
X57.72680 Y46.41090
X57.88047 Y46.57452
X57.96338 Y46.86487
X58.02706 Y47.20386
X58.05335 Y47.69962
X58.02706 Y48.02776
X57.96338 Y48.36675
X57.85553 Y48.72560
X57.77580 Y48.93159
X57.77783 Y52.24820
X58.16658 Y52.44820
X58.41408 Y52.53707
X58.69051 Y52.60192
X59.07984 Y52.63166
X59.33546 Y52.61198
X59.73511 Y52.51899
X60.05730 Y52.38874
X60.31783 Y52.24820
X60.31621 Y49.80492
X60.52421 Y49.40513
X60.69789 Y49.12748
X61.08875 Y48.60635
X61.66528 Y47.98509
X62.30335 Y47.40942
X62.29400 Y45.75123
X62.22867 Y45.10851
X62.10305 Y44.47824
X61.87927 Y43.74253
X61.26431 Y42.23407
X60.43396 Y42.46011
X59.64067 Y42.63826
X58.91603 Y42.74771
X58.32279 Y42.79633
X57.71235 Y42.79325
X57.24967 Y42.74377
X56.71253 Y42.61578
X56.33209 Y42.46023
X55.98322 Y42.24675
X55.75223 Y42.04982
X55.50090 Y41.75541
X55.37139 Y41.55201
X55.25457 Y41.31848
X55.15637 Y41.05940
X51.11628 Y37.01932
X50.94917 Y36.87406
X50.81018 Y36.77907
X50.65245 Y36.69273
X50.39934 Y36.58369
X50.09606 Y36.79398
X49.68021 Y37.00660
X49.38087 Y37.10505
X49.17020 Y37.14693
X48.96419 Y37.16598
X48.60137 Y37.14693
X48.39070 Y37.10505
X48.09136 Y37.00660
X47.83897 Y36.88831
X13.13060 Y36.88831
X12.94124 Y36.87520
X12.76012 Y36.83911
X12.35476 Y36.68750
X11.96413 Y36.81267
X11.62690 Y36.95082
X10.53645 Y36.95082
X9.78029 Y38.27403
G04 P0 ( dwell for no time -- G64 should not smooth over this point )
G00 Z2.00000 ( retract )

G00 X7.93082 Y36.88084 ( rapid move to begin. )
F50.00000
G01 Z-0.30000
G04 P0 ( dwell for no time -- G64 should not smooth over this point )
F100.00000
X7.93082 Y36.88084
X7.93915 Y37.07965
X7.96874 Y37.28066
X8.04164 Y37.54952
X8.21908 Y37.94675
X8.44590 Y38.30081
X9.76513 Y38.30081
X10.53645 Y36.95082
X9.77996 Y35.53081
X8.42398 Y35.53081
X8.21908 Y35.85489
X8.04164 Y36.25212
X7.96874 Y36.52098
X7.93082 Y36.88084
G04 P0 ( dwell for no time -- G64 should not smooth over this point )
G00 Z2.00000 ( retract )

G00 X9.77996 Y35.53081 ( rapid move to begin. )
F50.00000
G01 Z-0.30000
G04 P0 ( dwell for no time -- G64 should not smooth over this point )
F100.00000
X9.77996 Y35.53081
X10.53645 Y36.95082
X11.62690 Y36.95082
X11.96413 Y36.81267
X12.35476 Y36.68750
X12.76012 Y36.83911
X12.94124 Y36.87520
X13.13060 Y36.88831
X47.83897 Y36.88831
X48.09136 Y37.00660
X48.39070 Y37.10505
X48.60137 Y37.14693
X48.96419 Y37.16598
X49.17020 Y37.14693
X49.38087 Y37.10505
X49.68021 Y37.00660
X50.09606 Y36.79398
X50.39934 Y36.58369
X50.23749 Y36.12260
X50.11049 Y35.87025
X49.96977 Y35.65054
X49.81409 Y35.45547
X49.64089 Y35.27981
X49.31473 Y35.02972
X48.96419 Y34.84087
X48.48382 Y34.67148
X48.08814 Y34.58710
X47.79350 Y34.54892
X47.41153 Y34.52309
X47.29142 Y34.47330
X36.92192 Y34.47330
X36.37084 Y34.91867
X36.16076 Y35.05562
X35.83564 Y35.23223
X35.53957 Y35.35568
X35.26317 Y35.43876
X34.99873 Y35.48918
X34.74019 Y35.51100
X34.32484 Y35.48918
X34.06040 Y35.43876
X33.78400 Y35.35568
X33.36825 Y35.17330
X13.54996 Y35.17330
X12.97388 Y34.93851
X12.72004 Y34.87429
X12.47482 Y34.85580
X12.21191 Y34.73160
X11.97665 Y34.65055
X11.70576 Y34.59230
X11.34137 Y34.57315
X11.08461 Y34.60043
X10.70602 Y34.70218
X10.47079 Y34.80234
X10.21242 Y34.94493
X10.04089 Y35.05964
X9.77996 Y35.53081
G04 P0 ( dwell for no time -- G64 should not smooth over this point )
G00 Z2.00000 ( retract )

G00 X7.93082 Y34.14084 ( rapid move to begin. )
F50.00000
G01 Z-0.30000
G04 P0 ( dwell for no time -- G64 should not smooth over this point )
F100.00000
X7.93082 Y34.14084
X7.93915 Y34.33965
X7.96874 Y34.54067
X8.04164 Y34.80952
X8.21908 Y35.20675
X8.42398 Y35.53081
X9.77996 Y35.53081
X10.04089 Y35.05964
X10.21242 Y34.94493
X10.47079 Y34.80234
X10.70602 Y34.70218
X11.08461 Y34.60043
X11.34137 Y34.57315
X11.70576 Y34.59230
X11.97665 Y34.65055
X12.21191 Y34.73160
X12.47482 Y34.85580
X12.72004 Y34.87429
X12.97388 Y34.93851
X13.54996 Y35.17330
X33.36825 Y35.17330
X33.78400 Y35.35568
X34.06040 Y35.43876
X34.32484 Y35.48918
X34.74019 Y35.51100
X34.99873 Y35.48918
X35.26317 Y35.43876
X35.53957 Y35.35568
X35.83564 Y35.23223
X36.16076 Y35.05562
X36.37084 Y34.91867
X36.92192 Y34.47330
X36.45209 Y34.01384
X36.24793 Y33.84778
X35.93846 Y33.63432
X35.66421 Y33.48375
X35.41448 Y33.37813
X35.18133 Y33.30668
X34.80150 Y33.24636
X34.52208 Y33.24636
X34.29904 Y33.27336
X34.06589 Y33.32721
X33.71085 Y33.46081
X12.47769 Y33.46084
X12.21638 Y33.58405
X11.91795 Y33.68220
X11.70680 Y33.72428
X11.34137 Y33.74349
X11.08250 Y33.71598
X10.70277 Y33.61392
X10.46634 Y33.51331
X10.20666 Y33.37006
X10.04171 Y33.26023
X9.77750 Y32.78580
X8.67026 Y32.78580
X8.26231 Y33.03770
X8.13810 Y33.27379
X8.02175 Y33.57313
X7.96874 Y33.78098
X7.93082 Y34.14084
G04 P0 ( dwell for no time -- G64 should not smooth over this point )
G00 Z2.00000 ( retract )

G00 X9.81290 Y32.84997 ( rapid move to begin. )
F50.00000
G01 Z-0.30000
G04 P0 ( dwell for no time -- G64 should not smooth over this point )
F100.00000
X9.81290 Y32.84997
X10.04171 Y33.26023
X10.20666 Y33.37006
X10.46634 Y33.51331
X10.70277 Y33.61392
X11.08250 Y33.71598
X11.34137 Y33.74349
X11.70680 Y33.72428
X11.91795 Y33.68220
X12.21638 Y33.58405
X12.47769 Y33.46084
X33.71085 Y33.46081
X34.06589 Y33.32721
X34.29904 Y33.27336
X34.52208 Y33.24636
X34.74019 Y33.24313
X35.02454 Y33.27336
X35.25768 Y33.32721
X35.50739 Y33.41392
X35.78166 Y33.54379
X36.09116 Y33.73389
X36.45209 Y34.01384
X36.92192 Y34.47330
X47.29142 Y34.47330
X47.41153 Y34.52309
X47.79350 Y34.54892
X48.08814 Y34.58710
X48.48382 Y34.67148
X48.96419 Y34.84087
X49.31473 Y35.02972
X49.52131 Y35.17767
X49.70612 Y35.34168
X49.96977 Y35.65054
X50.11049 Y35.87025
X50.29205 Y36.25476
X50.39934 Y36.58369
X50.77716 Y36.75928
X51.07228 Y36.97744
X55.15637 Y41.05940
X55.32617 Y41.46859
X55.45564 Y41.68950
X55.59717 Y41.88088
X55.75223 Y42.04982
X55.92338 Y42.20085
X56.18838 Y42.38220
X56.58419 Y42.57049
X57.06262 Y42.70910
X57.24967 Y42.74377
X57.71235 Y42.79325
X58.32279 Y42.79633
X58.91603 Y42.74771
X59.64067 Y42.63826
X60.43396 Y42.46011
X61.26431 Y42.23407
X61.30196 Y41.69092
X61.31308 Y41.26580
X61.28837 Y40.68447
X61.09149 Y40.29750
X60.79373 Y39.78973
X60.57775 Y39.45691
X60.25068 Y39.01350
X59.65324 Y38.32636
X58.99195 Y37.71026
X58.38278 Y37.24317
X57.80168 Y36.86624
X57.66887 Y36.73342
X57.12081 Y36.76207
X56.45541 Y36.76888
X55.83397 Y36.73172
X55.22066 Y36.65229
X54.40212 Y36.45725
X53.88739 Y36.26606
X53.45549 Y36.05095
X53.08427 Y35.81387
X52.75925 Y35.55423
X52.56370 Y35.36718
X52.30060 Y35.19695
X52.07358 Y35.01072
X48.80457 Y31.75182
X48.60526 Y31.59068
X48.41344 Y31.46267
X48.16162 Y31.32614
X47.90935 Y31.21591
X47.38669 Y31.43704
X47.01001 Y31.54707
X46.64956 Y31.61276
X46.29719 Y31.63950
X45.94481 Y31.62922
X45.58436 Y31.58040
X45.20765 Y31.48797
X44.84972 Y31.36180
X10.53396 Y31.36582
X9.77750 Y32.78580
X9.81290 Y32.84997
G04 P0 ( dwell for no time -- G64 should not smooth over this point )
G00 Z2.00000 ( retract )

G00 X9.86823 Y29.88749 ( rapid move to begin. )
F50.00000
G01 Z-0.30000
G04 P0 ( dwell for no time -- G64 should not smooth over this point )
F100.00000
X9.86823 Y29.88749
X9.87615 Y30.20511
X10.53396 Y31.36582
X44.84972 Y31.36180
X45.20765 Y31.48797
X45.58436 Y31.58040
X45.94481 Y31.62922
X46.29719 Y31.63950
X46.64956 Y31.61276
X47.01001 Y31.54707
X47.38669 Y31.43704
X47.90935 Y31.21591
X47.86360 Y30.82180
X47.81641 Y30.56442
X47.71857 Y30.19925
X47.53147 Y29.74603
X47.38852 Y29.50026
X47.23216 Y29.28728
X47.06076 Y29.09920
X46.87153 Y28.93097
X46.56307 Y28.71993
X46.14042 Y28.51883
X45.72815 Y28.38947
X45.25185 Y28.49846
X44.87898 Y28.63181
X10.50384 Y28.63580
X9.87155 Y29.82424
X9.86823 Y29.88749
G04 P0 ( dwell for no time -- G64 should not smooth over this point )
G00 Z2.00000 ( retract )

G00 X9.86823 Y27.21749 ( rapid move to begin. )
F50.00000
G01 Z-0.30000
G04 P0 ( dwell for no time -- G64 should not smooth over this point )
F100.00000
X9.86823 Y27.21749
X9.87000 Y27.41818
X10.50384 Y28.63580
X44.87898 Y28.63181
X45.25185 Y28.49846
X45.72815 Y28.38947
X46.14042 Y28.51883
X46.41936 Y28.64190
X46.79137 Y28.86953
X47.06076 Y29.09920
X47.23216 Y29.28728
X47.38852 Y29.50026
X47.53147 Y29.74603
X47.66058 Y30.03549
X47.81641 Y30.56442
X47.86360 Y30.82180
X47.90935 Y31.21591
X48.16162 Y31.32614
X48.41344 Y31.46267
X48.60526 Y31.59068
X48.80457 Y31.75182
X52.07358 Y35.01072
X52.30060 Y35.19695
X52.56370 Y35.36718
X52.75925 Y35.55423
X53.08427 Y35.81387
X53.59920 Y36.12895
X54.04419 Y36.33101
X54.57319 Y36.50792
X55.03359 Y36.61762
X55.83397 Y36.73172
X56.45541 Y36.76888
X57.12081 Y36.76207
X57.66887 Y36.73342
X57.61611 Y36.22453
X57.52703 Y35.62545
X57.40283 Y35.06147
X57.16407 Y34.28405
X56.96049 Y33.79096
X56.66696 Y33.23135
X56.34316 Y32.74494
X55.98574 Y32.31357
X55.46943 Y31.82368
X55.01236 Y31.48365
X54.49166 Y31.17496
X54.04419 Y30.96206
X53.51274 Y30.75815
X53.14109 Y30.38650
X52.77477 Y30.37385
X52.00507 Y30.29569
X51.59837 Y30.21817
X51.09583 Y30.07855
X50.73182 Y29.94111
X50.33104 Y29.74088
X50.00871 Y29.53539
X49.72540 Y29.31093
X49.35270 Y28.92856
X49.13310 Y28.63633
X48.93221 Y28.30263
X48.72888 Y27.85978
X48.26619 Y27.39034
X48.08974 Y27.17233
X47.94763 Y26.95940
X47.78093 Y26.64683
X47.42035 Y25.79948
X47.21794 Y25.41754
X46.90295 Y24.94470
X46.56127 Y24.51899
X46.20912 Y24.14302
X42.53611 Y20.46973
X42.06318 Y20.64717
X41.44777 Y20.85080
X40.83238 Y21.02139
X40.20995 Y21.16228
X39.62488 Y21.26391
X39.02113 Y21.33929
X38.41737 Y21.38296
X37.85618 Y21.39672
X17.88680 Y21.39601
X17.46471 Y21.82553
X16.88373 Y22.36505
X16.42811 Y22.75545
X15.96621 Y23.11082
X15.59346 Y23.59949
X15.06814 Y24.20723
X14.36255 Y24.89997
X13.77922 Y25.36065
X13.27858 Y25.67515
X12.80205 Y25.90581
X10.53447 Y25.90581
X9.87511 Y27.08602
X9.86823 Y27.21749
G04 P0 ( dwell for no time -- G64 should not smooth over this point )
G00 Z2.00000 ( retract )

G00 X9.86823 Y24.42750 ( rapid move to begin. )
F50.00000
G01 Z-0.30000
G04 P0 ( dwell for no time -- G64 should not smooth over this point )
F100.00000
X9.86823 Y24.42750
X9.87257 Y24.67691
X10.53447 Y25.90581
X12.80205 Y25.90581
X12.99413 Y25.82057
X13.43751 Y25.58341
X13.93809 Y25.24521
X14.36255 Y24.89997
X14.52143 Y24.75694
X15.22702 Y24.03081
X15.59346 Y23.59949
X15.96621 Y23.11082
X10.53719 Y23.11082
X9.87308 Y24.33500
X9.86823 Y24.42750
G04 P0 ( dwell for no time -- G64 should not smooth over this point )
G00 Z2.00000 ( retract )

G00 X9.86823 Y21.62751 ( rapid move to begin. )
F50.00000
G01 Z-0.30000
G04 P0 ( dwell for no time -- G64 should not smooth over this point )
F100.00000
X9.86823 Y21.62751
X9.87511 Y21.92563
X10.53719 Y23.11082
X15.96621 Y23.11082
X16.42811 Y22.75545
X16.88373 Y22.36505
X17.46471 Y21.82553
X17.88680 Y21.39601
X17.04060 Y20.64209
X16.63052 Y20.31583
X10.53447 Y20.31583
X9.87511 Y21.49601
X9.86823 Y21.62751
G04 P0 ( dwell for no time -- G64 should not smooth over this point )
G00 Z2.00000 ( retract )

G00 X9.86823 Y18.83750 ( rapid move to begin. )
F50.00000
G01 Z-0.30000
G04 P0 ( dwell for no time -- G64 should not smooth over this point )
F100.00000
X9.86823 Y18.83750
X9.87257 Y19.08690
X10.53447 Y20.31583
X16.63052 Y20.31583
X16.28406 Y19.87803
X15.77875 Y19.29912
X15.43814 Y18.93872
X15.09753 Y18.61415
X14.40299 Y18.03536
X13.72189 Y17.58581
X10.50384 Y17.58581
X9.94135 Y18.66264
X9.87000 Y18.80349
X9.86823 Y18.83750
G04 P0 ( dwell for no time -- G64 should not smooth over this point )
G00 Z2.00000 ( retract )

G00 X9.86823 Y13.37749 ( rapid move to begin. )
F50.00000
G01 Z-0.30000
G04 P0 ( dwell for no time -- G64 should not smooth over this point )
F100.00000
X9.86823 Y13.37749
X9.87359 Y13.64640
X10.53470 Y14.85582
X11.62819 Y14.85582
X11.93040 Y14.73014
X12.34351 Y14.59567
X12.64239 Y14.47182
X30.92076 Y14.47182
X31.20080 Y14.58716
X31.49213 Y14.67426
X31.77087 Y14.72696
X32.20019 Y14.74949
X32.59465 Y14.70758
X32.88599 Y14.63809
X33.35484 Y14.45755
X33.69757 Y14.27195
X34.08426 Y14.00817
X34.37857 Y13.76877
X34.92357 Y13.23723
X35.15349 Y12.98056
X34.45479 Y12.77701
X33.71695 Y12.62247
X33.22045 Y12.56908
X32.76554 Y12.55404
X32.20019 Y12.47911
X31.83874 Y12.49811
X31.62947 Y12.53979
X31.33316 Y12.63723
X31.07867 Y12.75681
X12.47074 Y12.75681
X12.21638 Y12.63758
X11.91795 Y12.53944
X11.70680 Y12.49735
X11.34137 Y12.47815
X11.08250 Y12.50566
X10.70277 Y12.60771
X10.46634 Y12.70832
X10.20666 Y12.85158
X10.04171 Y12.96141
X9.87409 Y13.26550
X9.86823 Y13.37749
G04 P0 ( dwell for no time -- G64 should not smooth over this point )
G00 Z2.00000 ( retract )

G00 X9.81290 Y10.74996 ( rapid move to begin. )
F50.00000
G01 Z-0.30000
G04 P0 ( dwell for no time -- G64 should not smooth over this point )
F100.00000
X9.81290 Y10.74996
X10.04171 Y11.16022
X10.46634 Y11.41330
X10.86167 Y11.56555
X11.13477 Y11.62428
X11.34137 Y11.64348
X11.54790 Y11.64097
X11.91795 Y11.58219
X12.21638 Y11.48404
X12.63492 Y11.27005
X12.92814 Y11.06703
X13.26977 Y10.77531
X13.52412 Y10.51958
X14.04637 Y9.89126
X14.20525 Y9.67257
X14.47528 Y9.27689
X14.92173 Y8.52753
X13.56111 Y7.85007
X12.74602 Y7.48893
X12.04937 Y7.21037
X11.50023 Y7.37128
X10.41679 Y7.73996
X9.62141 Y8.04902
X8.57605 Y8.50371
X9.81290 Y10.74996
G04 P0 ( dwell for no time -- G64 should not smooth over this point )
G00 Z2.00000 ( retract )

G00 X0.62580 Y9.22095 ( rapid move to begin. )
F50.00000
G01 Z-0.30000
G04 P0 ( dwell for no time -- G64 should not smooth over this point )
F100.00000
X0.62580 Y9.22095
X3.24627 Y8.89957
X5.25711 Y8.69119
X6.98032 Y8.55865
X7.67316 Y8.52449
X8.57605 Y8.50371
X9.62141 Y8.04902
X10.41679 Y7.73996
X11.50023 Y7.37128
X12.04937 Y7.21037
X11.65646 Y3.30885
X11.32677 Y0.62580
X0.62699 Y0.62707
X0.62580 Y9.22095
G04 P0 ( dwell for no time -- G64 should not smooth over this point )
G00 Z2.00000 ( retract )

G00 X22.17028 Y0.62580 ( rapid move to begin. )
F50.00000
G01 Z-0.30000
G04 P0 ( dwell for no time -- G64 should not smooth over this point )
F100.00000
X22.17028 Y0.62580
X11.32674 Y0.62580
X11.65646 Y3.30885
X12.04937 Y7.21037
X12.74602 Y7.48893
X13.56111 Y7.85007
X14.92173 Y8.52753
X15.51063 Y8.49157
X15.93542 Y8.44694
X16.66308 Y8.33137
X17.08787 Y8.24107
X17.47807 Y8.14717
X17.86829 Y8.03135
X18.72587 Y7.73968
X19.58345 Y7.37087
X20.07961 Y7.13358
X21.00059 Y6.61824
X21.58626 Y6.25832
X22.17193 Y5.85487
X22.15669 Y4.05780
X22.17028 Y0.62580
G04 P0 ( dwell for no time -- G64 should not smooth over this point )
G00 Z2.00000 ( retract )

G00 X29.83334 Y0.62580 ( rapid move to begin. )
F50.00000
G01 Z-0.30000
G04 P0 ( dwell for no time -- G64 should not smooth over this point )
F100.00000
X29.83334 Y0.62580
X22.17028 Y0.62580
X22.15669 Y4.05780
X22.17193 Y5.85487
X23.11336 Y6.44481
X23.63396 Y6.73445
X24.15458 Y6.99043
X24.79540 Y7.27115
X25.26149 Y7.44417
X25.86522 Y7.63876
X26.29423 Y7.75009
X26.87449 Y7.87415
X27.45478 Y7.95865
X28.23961 Y8.01859
X29.19526 Y8.00320
X29.84307 Y7.93935
X29.83087 Y6.98581
X29.83334 Y0.62580
G04 P0 ( dwell for no time -- G64 should not smooth over this point )
G00 Z2.00000 ( retract )

G00 X32.37334 Y0.62580 ( rapid move to begin. )
F50.00000
G01 Z-0.30000
G04 P0 ( dwell for no time -- G64 should not smooth over this point )
F100.00000
X32.37334 Y0.62580
X29.83334 Y0.62580
X29.83087 Y6.98581
X29.84307 Y7.93935
X30.84957 Y8.02037
X31.68233 Y7.65766
X32.37466 Y7.27811
X32.37334 Y0.62580
G04 P0 ( dwell for no time -- G64 should not smooth over this point )
G00 Z2.00000 ( retract )

G00 X34.91334 Y0.62580 ( rapid move to begin. )
F50.00000
G01 Z-0.30000
G04 P0 ( dwell for no time -- G64 should not smooth over this point )
F100.00000
X34.91334 Y0.62580
X32.37334 Y0.62580
X32.37466 Y7.27811
X32.73590 Y7.18174
X33.55111 Y6.90531
X34.23574 Y6.59162
X34.67254 Y6.34227
X34.91753 Y6.18362
X34.91334 Y0.62580
G04 P0 ( dwell for no time -- G64 should not smooth over this point )
G00 Z2.00000 ( retract )

G00 X37.45334 Y0.62580 ( rapid move to begin. )
F50.00000
G01 Z-0.30000
G04 P0 ( dwell for no time -- G64 should not smooth over this point )
F100.00000
X37.45334 Y0.62580
X34.91334 Y0.62580
X34.91753 Y6.18362
X35.57447 Y6.02823
X35.96723 Y5.90008
X36.46106 Y5.69170
X37.03635 Y5.36333
X37.45862 Y5.04403
X37.45334 Y0.62580
G04 P0 ( dwell for no time -- G64 should not smooth over this point )
G00 Z2.00000 ( retract )

G00 X39.99334 Y0.62580 ( rapid move to begin. )
F50.00000
G01 Z-0.30000
G04 P0 ( dwell for no time -- G64 should not smooth over this point )
F100.00000
X39.99334 Y0.62580
X37.45334 Y0.62580
X37.45862 Y5.04403
X37.79959 Y5.00783
X38.21889 Y4.92764
X38.56179 Y4.82620
X39.01447 Y4.62564
X39.24955 Y4.48088
X39.51241 Y4.27253
X39.80152 Y3.96051
X39.99699 Y3.67116
X39.99334 Y0.62580
G04 P0 ( dwell for no time -- G64 should not smooth over this point )
G00 Z2.00000 ( retract )

G00 X48.88534 Y0.62580 ( rapid move to begin. )
F50.00000
G01 Z-0.30000
G04 P0 ( dwell for no time -- G64 should not smooth over this point )
F100.00000
X48.88534 Y0.62580
X45.07334 Y0.62580
X45.07486 Y5.56800
X45.36249 Y5.52094
X45.89871 Y5.39378
X46.33567 Y5.24077
X46.70226 Y5.06798
X47.01661 Y4.87799
X47.29162 Y4.67049
X47.53602 Y4.44347
X47.75581 Y4.19320
X47.95514 Y3.91378
X48.13617 Y3.59694
X48.38631 Y3.02676
X48.50488 Y2.70603
X48.64526 Y2.20024
X48.72268 Y1.79394
X48.88291 Y0.80540
X48.88534 Y0.62580
G04 P0 ( dwell for no time -- G64 should not smooth over this point )
G00 Z2.00000 ( retract )

G00 X52.69334 Y0.62580 ( rapid move to begin. )
F50.00000
G01 Z-0.30000
G04 P0 ( dwell for no time -- G64 should not smooth over this point )
F100.00000
X52.69334 Y0.62580
X48.88534 Y0.62580
X48.88291 Y0.80540
X48.64526 Y2.20024
X48.44001 Y2.88825
X48.22202 Y3.41708
X47.95514 Y3.91378
X47.75581 Y4.19320
X47.41090 Y4.56546
X47.01661 Y4.87799
X46.53823 Y5.15106
X46.15723 Y5.30943
X45.89871 Y5.39378
X45.36249 Y5.52094
X45.07486 Y5.56800
X44.65281 Y5.85695
X44.14885 Y6.13404
X43.56267 Y6.38332
X43.06011 Y6.54730
X42.52963 Y6.68167
X41.93982 Y7.02568
X36.57285 Y12.39265
X35.15349 Y12.98056
X34.92357 Y13.23723
X34.53536 Y13.62760
X34.08426 Y14.00817
X33.54077 Y14.36250
X33.35484 Y14.45755
X33.04278 Y14.58716
X32.59465 Y14.70758
X32.31593 Y14.74342
X32.04342 Y14.74949
X31.77087 Y14.72696
X31.49213 Y14.67426
X31.20080 Y14.58716
X30.92076 Y14.47182
X12.64239 Y14.47182
X12.34351 Y14.59567
X11.93040 Y14.73014
X11.62819 Y14.85582
X10.53470 Y14.85582
X9.87409 Y16.05551
X9.87155 Y16.39742
X10.50384 Y17.58581
X13.72189 Y17.58581
X13.80695 Y17.63493
X14.40299 Y18.03536
X15.09753 Y18.61415
X15.43814 Y18.93872
X15.77875 Y19.29912
X16.28406 Y19.87803
X16.63052 Y20.31583
X17.04060 Y20.64209
X17.88680 Y21.39601
X37.85618 Y21.39672
X38.41737 Y21.38296
X39.02113 Y21.33929
X39.62488 Y21.26391
X40.20995 Y21.16228
X40.83238 Y21.02139
X41.44777 Y20.85080
X42.10055 Y20.63381
X42.53611 Y20.46973
X43.53011 Y18.07471
X43.76610 Y17.54197
X44.02691 Y17.02094
X44.29028 Y16.55531
X44.57900 Y16.09706
X44.88820 Y15.65927
X45.18317 Y15.28109
X45.49485 Y14.91962
X45.84501 Y14.55048
X51.42151 Y8.97399
X52.15295 Y8.64067
X52.70451 Y8.34963
X52.69087 Y6.98581
X52.69334 Y0.62580
G04 P0 ( dwell for no time -- G64 should not smooth over this point )
G00 Z2.00000 ( retract )

G00 X55.23334 Y0.62580 ( rapid move to begin. )
F50.00000
G01 Z-0.30000
G04 P0 ( dwell for no time -- G64 should not smooth over this point )
F100.00000
X55.23334 Y0.62580
X52.69334 Y0.62580
X52.69087 Y6.98581
X52.70451 Y8.34963
X53.20700 Y8.20084
X53.81655 Y7.97920
X54.54233 Y7.65766
X55.23466 Y7.27811
X55.23334 Y0.62580
G04 P0 ( dwell for no time -- G64 should not smooth over this point )
G00 Z2.00000 ( retract )

G00 X57.77334 Y0.62580 ( rapid move to begin. )
F50.00000
G01 Z-0.30000
G04 P0 ( dwell for no time -- G64 should not smooth over this point )
F100.00000
X57.77334 Y0.62580
X55.23334 Y0.62580
X55.23466 Y7.27811
X55.59590 Y7.18174
X56.41111 Y6.90531
X57.09574 Y6.59160
X57.53254 Y6.34227
X57.77753 Y6.18360
X57.77334 Y0.62580
G04 P0 ( dwell for no time -- G64 should not smooth over this point )
G00 Z2.00000 ( retract )

G00 X60.31334 Y0.62580 ( rapid move to begin. )
F50.00000
G01 Z-0.30000
G04 P0 ( dwell for no time -- G64 should not smooth over this point )
F100.00000
X60.31334 Y0.62580
X57.77334 Y0.62580
X57.77753 Y6.18360
X58.43450 Y6.02823
X58.82723 Y5.90008
X59.32106 Y5.69168
X59.89635 Y5.36330
X60.31862 Y5.04400
X60.31334 Y0.62580
G04 P0 ( dwell for no time -- G64 should not smooth over this point )
G00 Z2.00000 ( retract )

G00 X62.85334 Y0.62580 ( rapid move to begin. )
F50.00000
G01 Z-0.30000
G04 P0 ( dwell for no time -- G64 should not smooth over this point )
F100.00000
X62.85334 Y0.62580
X60.31334 Y0.62580
X60.31862 Y5.04400
X60.65959 Y5.00783
X61.07889 Y4.92762
X61.42179 Y4.82617
X61.87447 Y4.62564
X62.10955 Y4.48088
X62.37241 Y4.27253
X62.66152 Y3.96051
X62.85699 Y3.67116
X62.85334 Y0.62580
G04 P0 ( dwell for no time -- G64 should not smooth over this point )
G00 Z2.00000 ( retract )

G00 X67.35760 Y3.85767 ( rapid move to begin. )
F50.00000
G01 Z-0.30000
G04 P0 ( dwell for no time -- G64 should not smooth over this point )
F100.00000
X67.35760 Y3.85767
X66.68775 Y3.18779
X66.66722 Y3.14939
X66.66453 Y0.62704
X62.85334 Y0.62580
X62.85699 Y3.67116
X62.66152 Y3.96051
X62.49753 Y4.15053
X62.31506 Y4.32305
X62.10955 Y4.48088
X61.87447 Y4.62564
X61.42179 Y4.82617
X60.87150 Y4.97263
X60.31862 Y5.04400
X60.11862 Y5.20453
X59.74575 Y5.45985
X59.32106 Y5.69168
X59.00567 Y5.83140
X58.43450 Y6.02823
X57.77753 Y6.18360
X57.53254 Y6.34227
X57.09574 Y6.59160
X56.41111 Y6.90531
X55.59590 Y7.18174
X55.23466 Y7.27811
X54.54233 Y7.65766
X53.63812 Y8.04786
X53.20700 Y8.20084
X52.70451 Y8.34963
X52.15295 Y8.64067
X51.42151 Y8.97399
X45.84501 Y14.55048
X45.49485 Y14.91962
X45.18317 Y15.28109
X44.86572 Y15.68960
X44.57900 Y16.09706
X44.29028 Y16.55531
X44.02691 Y17.02094
X43.76610 Y17.54197
X43.53011 Y18.07471
X42.53611 Y20.46973
X46.20912 Y24.14302
X46.56127 Y24.51899
X46.90295 Y24.94470
X47.21794 Y25.41754
X47.42035 Y25.79948
X47.79789 Y26.68269
X47.92784 Y26.92635
X48.08974 Y27.17233
X48.29131 Y27.41805
X48.72888 Y27.85978
X48.85044 Y28.14116
X49.03807 Y28.48812
X49.35270 Y28.92856
X49.72540 Y29.31093
X50.15372 Y29.63361
X50.48910 Y29.82602
X50.73182 Y29.94111
X51.09583 Y30.07855
X51.40312 Y30.17024
X52.00507 Y30.29569
X52.21836 Y30.32559
X52.77477 Y30.37385
X53.14109 Y30.38650
X53.11554 Y29.62178
X53.06138 Y29.14014
X52.95018 Y28.57890
X52.89811 Y28.38774
X52.74297 Y27.94375
X52.56781 Y27.57151
X52.37525 Y27.25239
X52.16481 Y26.97299
X52.11305 Y26.91101
X51.80190 Y26.85107
X51.50035 Y26.76082
X51.22583 Y26.69887
X50.81211 Y26.66110
X50.44536 Y26.68617
X49.94079 Y26.47718
X49.84236 Y26.42173
X49.76469 Y26.34556
X49.75029 Y26.24081
X49.75029 Y24.54084
X49.76220 Y24.44559
X49.79791 Y24.35034
X49.94079 Y24.15981
X51.64079 Y22.45984
X51.92255 Y22.19494
X52.23807 Y21.93002
X52.97025 Y21.40018
X53.83735 Y20.87033
X54.83933 Y20.34049
X55.53600 Y20.31021
X56.26389 Y20.31110
X57.02297 Y20.34323
X57.81327 Y20.40653
X62.57724 Y20.40653
X62.22667 Y18.73927
X62.08997 Y18.00181
X61.87325 Y16.65627
X61.73673 Y15.39094
X61.63843 Y13.87677
X61.63663 Y13.05986
X61.68151 Y11.89105
X61.73891 Y11.33553
X61.87346 Y10.39273
X62.07282 Y9.51478
X62.24686 Y8.92395
X62.40396 Y8.48029
X62.58953 Y8.03084
X62.78354 Y7.62411
X62.97538 Y7.27008
X63.20365 Y6.89759
X63.40294 Y6.60732
X63.87556 Y6.01931
X64.16705 Y5.71212
X64.55514 Y5.54377
X65.11033 Y5.27430
X65.76334 Y4.91403
X66.69506 Y4.32571
X67.35760 Y3.85767
G04 P0 ( dwell for no time -- G64 should not smooth over this point )
G00 Z2.00000 ( retract )

G00 X69.20580 Y22.21580 ( rapid move to begin. )
F50.00000
G01 Z-0.30000
G04 P0 ( dwell for no time -- G64 should not smooth over this point )
F100.00000
X69.20580 Y22.21580
X69.20580 Y5.71332
X67.35762 Y3.85764
X66.69506 Y4.32571
X65.76334 Y4.91403
X65.11033 Y5.27430
X64.55514 Y5.54377
X64.16705 Y5.71212
X63.66377 Y6.26739
X63.40294 Y6.60732
X62.97538 Y7.27008
X62.78354 Y7.62411
X62.58953 Y8.03084
X62.40396 Y8.48029
X62.24686 Y8.92395
X62.07282 Y9.51478
X61.95651 Y9.99924
X61.87346 Y10.39273
X61.80879 Y10.80464
X61.68151 Y11.89105
X61.63663 Y13.05986
X61.63843 Y13.87677
X61.73673 Y15.39094
X61.87325 Y16.65627
X62.08997 Y18.00181
X62.22667 Y18.73927
X62.57724 Y20.40653
X64.11186 Y21.28341
X65.05145 Y21.76690
X66.02562 Y22.21580
X69.20580 Y22.21580
G04 P0 ( dwell for no time -- G64 should not smooth over this point )
G00 Z2.00000 ( retract )

G00 X67.67428 Y40.00332 ( rapid move to begin. )
F50.00000
G01 Z-0.30000
G04 P0 ( dwell for no time -- G64 should not smooth over this point )
F100.00000
X67.67428 Y40.00332
X69.20580 Y38.46433
X69.20580 Y22.21580
X66.02562 Y22.21580
X65.64533 Y23.20940
X65.29994 Y24.16807
X64.98945 Y25.09184
X64.71389 Y25.98069
X64.46103 Y26.83431
X64.10914 Y28.13075
X63.84856 Y29.33588
X63.59395 Y30.80554
X63.46832 Y32.14628
X63.44447 Y32.58398
X63.44353 Y32.99871
X63.45887 Y33.58413
X63.49921 Y34.11237
X63.56911 Y34.64323
X63.63017 Y34.97617
X63.80871 Y35.67193
X64.02138 Y36.25021
X64.21541 Y36.65694
X64.53012 Y37.17355
X64.82697 Y37.55567
X65.15768 Y37.90017
X65.53022 Y38.21414
X66.12496 Y38.60718
X66.24378 Y38.70355
X66.87820 Y39.33344
X67.17393 Y39.59811
X67.67428 Y40.00332
G04 P0 ( dwell for no time -- G64 should not smooth over this point )
G00 Z2.00000 ( retract )

G00 X62.85410 Y51.57360 ( rapid move to begin. )
F50.00000
G01 Z-0.30000
G04 P0 ( dwell for no time -- G64 should not smooth over this point )
F100.00000
X62.85410 Y51.57360
X62.85781 Y52.24822
X63.24655 Y52.44820
X63.49405 Y52.53707
X63.72494 Y52.59374
X63.98508 Y52.62722
X64.19860 Y52.63067
X64.54439 Y52.58886
X64.75831 Y52.42790
X64.93964 Y52.25117
X65.13609 Y51.99669
X65.17764 Y51.66778
X65.17053 Y51.07937
X65.12976 Y50.81607
X65.06570 Y50.58163
X64.96740 Y50.32887
X64.71455 Y49.87482
X64.47972 Y49.55758
X64.31031 Y49.36111
X63.85204 Y48.91013
X63.64848 Y48.73540
X63.13192 Y48.33828
X62.85885 Y48.14826
X62.85410 Y51.57360
G04 P0 ( dwell for no time -- G64 should not smooth over this point )
G00 Z2.00000 ( retract )

G00 X60.31412 Y51.57360 ( rapid move to begin. )
F50.00000
G01 Z-0.30000
G04 P0 ( dwell for no time -- G64 should not smooth over this point )
F100.00000
X60.31412 Y51.57360
X60.31783 Y52.24820
X60.70658 Y52.44820
X61.01024 Y52.55318
X61.23051 Y52.60192
X61.44511 Y52.62722
X61.65862 Y52.63067
X61.87546 Y52.61198
X62.10038 Y52.56900
X62.33878 Y52.49717
X62.59730 Y52.38874
X62.85781 Y52.24822
X62.85885 Y48.14826
X62.30335 Y47.40942
X61.66528 Y47.98509
X61.08875 Y48.60635
X60.69789 Y49.12748
X60.52421 Y49.40513
X60.31621 Y49.80492
X60.31412 Y51.57360
G04 P0 ( dwell for no time -- G64 should not smooth over this point )
G00 Z2.00000 ( retract )

G00 X55.23412 Y51.57360 ( rapid move to begin. )
F50.00000
G01 Z-0.30000
G04 P0 ( dwell for no time -- G64 should not smooth over this point )
F100.00000
X55.23412 Y51.57360
X55.23783 Y52.24820
X55.62658 Y52.44820
X55.93024 Y52.55318
X56.15051 Y52.60192
X56.36511 Y52.62722
X56.57862 Y52.63067
X56.79546 Y52.61198
X57.02038 Y52.56900
X57.25878 Y52.49717
X57.51730 Y52.38874
X57.77783 Y52.24820
X57.77580 Y48.93159
X57.85553 Y48.72560
X57.96338 Y48.36675
X58.02706 Y48.02776
X58.05335 Y47.69962
X58.02706 Y47.20386
X57.92137 Y46.70810
X57.88047 Y46.57452
X57.72680 Y46.41090
X57.45995 Y46.16904
X57.16143 Y45.95057
X56.82160 Y45.75256
X56.58419 Y45.63960
X56.12988 Y45.46973
X55.77052 Y45.36884
X55.55985 Y45.68410
X55.39988 Y45.96018
X55.21624 Y46.34920
X55.04820 Y46.86487
X54.96646 Y47.37523
X54.96646 Y47.85639
X55.00936 Y48.18455
X55.09021 Y48.52352
X55.23580 Y48.93159
X55.23412 Y51.57360
G04 P0 ( dwell for no time -- G64 should not smooth over this point )
G00 Z2.00000 ( retract )

G00 X52.69412 Y51.57360 ( rapid move to begin. )
F50.00000
G01 Z-0.30000
G04 P0 ( dwell for no time -- G64 should not smooth over this point )
F100.00000
X52.69412 Y51.57360
X52.69783 Y52.24820
X53.08658 Y52.44820
X53.39024 Y52.55318
X53.61051 Y52.60192
X53.82511 Y52.62722
X54.03862 Y52.63067
X54.25546 Y52.61198
X54.48038 Y52.56900
X54.71878 Y52.49717
X54.97730 Y52.38874
X55.23783 Y52.24820
X55.23580 Y48.93159
X55.09021 Y48.52352
X55.00936 Y48.18455
X54.96646 Y47.85639
X54.96646 Y47.37523
X55.04820 Y46.86487
X55.21624 Y46.34920
X55.39988 Y45.96018
X55.55985 Y45.68410
X55.77052 Y45.36884
X55.62559 Y45.01893
X55.57055 Y44.38769
X55.52534 Y44.14105
X55.43006 Y43.78451
X55.24588 Y43.33846
X55.10624 Y43.09879
X54.95351 Y42.89107
X54.72089 Y42.64581
X54.52612 Y42.48604
X54.30349 Y42.33989
X54.04419 Y42.20687
X53.56382 Y42.03745
X53.16811 Y41.95307
X52.85122 Y41.91317
X52.67624 Y42.28520
X52.55021 Y42.64410
X52.46936 Y42.98307
X52.41823 Y43.46800
X52.42646 Y43.79239
X52.46936 Y44.12055
X52.55021 Y44.45952
X52.69580 Y44.86759
X52.69412 Y51.57360
G04 P0 ( dwell for no time -- G64 should not smooth over this point )
G00 Z2.00000 ( retract )

G00 X47.61412 Y51.57360 ( rapid move to begin. )
F50.00000
G01 Z-0.30000
G04 P0 ( dwell for no time -- G64 should not smooth over this point )
F100.00000
X47.61412 Y51.57360
X47.61783 Y52.24820
X48.00658 Y52.44820
X48.31024 Y52.55318
X48.53051 Y52.60192
X48.74511 Y52.62722
X48.95862 Y52.63067
X49.17546 Y52.61198
X49.40038 Y52.56900
X49.63878 Y52.49717
X49.89730 Y52.38874
X50.15783 Y52.24820
X50.15580 Y44.23259
X50.30137 Y43.82452
X50.38222 Y43.48555
X50.42512 Y43.15739
X50.42512 Y42.67623
X50.34338 Y42.16587
X50.23553 Y41.80702
X50.13490 Y41.55173
X49.85077 Y41.45515
X49.49002 Y41.36702
X49.14486 Y41.32064
X48.62672 Y41.32064
X48.12477 Y41.40037
X47.67912 Y41.53557
X47.55695 Y44.08106
X47.61580 Y44.23259
X47.61412 Y51.57360
G04 P0 ( dwell for no time -- G64 should not smooth over this point )
G00 Z2.00000 ( retract )

G00 X44.35774 Y51.69260 ( rapid move to begin. )
F50.00000
G01 Z-0.30000
G04 P0 ( dwell for no time -- G64 should not smooth over this point )
F100.00000
X44.35774 Y51.69260
X44.71365 Y51.99882
X44.88840 Y52.12712
X45.19480 Y52.31706
X45.53933 Y52.47736
X45.77024 Y52.55318
X45.99051 Y52.60192
X46.20511 Y52.62722
X46.41862 Y52.63067
X46.81021 Y52.58066
X47.03511 Y52.51899
X47.27351 Y52.42737
X47.61783 Y52.24820
X47.61580 Y44.23259
X47.55695 Y44.08106
X47.67912 Y41.53557
X47.26950 Y41.38495
X46.92302 Y41.30065
X46.59152 Y41.25643
X46.26742 Y41.24764
X45.94329 Y41.27291
X45.61177 Y41.33400
X45.26528 Y41.43590
X44.89414 Y41.58825
X44.48655 Y41.80702
X44.02665 Y42.11853
X43.64695 Y42.42739
X42.99877 Y43.06267
X42.51025 Y43.62726
X42.17852 Y44.06183
X41.42031 Y45.17397
X41.59796 Y45.89878
X42.03242 Y46.29322
X42.42719 Y46.68766
X42.89244 Y47.19248
X43.16252 Y47.52255
X43.67443 Y48.23635
X44.12160 Y49.03937
X44.31103 Y49.48691
X44.31281 Y51.65120
X44.35774 Y51.69260
G04 P0 ( dwell for no time -- G64 should not smooth over this point )
G00 Z2.00000 ( retract )

G00 X41.01012 Y51.57360 ( rapid move to begin. )
F50.00000
G01 Z-0.30000
G04 P0 ( dwell for no time -- G64 should not smooth over this point )
F100.00000
X41.01012 Y51.57360
X41.01383 Y52.24820
X41.40258 Y52.44820
X41.65008 Y52.53707
X41.92651 Y52.60192
X42.31584 Y52.63166
X42.57146 Y52.61198
X42.79638 Y52.56900
X43.03478 Y52.49717
X43.29330 Y52.38874
X43.58091 Y52.23080
X43.75564 Y52.11564
X44.08454 Y51.85950
X44.31281 Y51.65120
X44.31103 Y49.48691
X44.12160 Y49.03937
X43.67443 Y48.23635
X43.16252 Y47.52255
X42.89244 Y47.19248
X42.42719 Y46.68766
X42.03242 Y46.29322
X41.59796 Y45.89878
X41.00748 Y46.89393
X41.01012 Y51.57360
G04 P0 ( dwell for no time -- G64 should not smooth over this point )
G00 Z2.00000 ( retract )

G00 X33.39012 Y51.57360 ( rapid move to begin. )
F50.00000
G01 Z-0.30000
G04 P0 ( dwell for no time -- G64 should not smooth over this point )
F100.00000
X33.39012 Y51.57360
X33.39383 Y52.24820
X33.78258 Y52.44820
X34.08624 Y52.55318
X34.30651 Y52.60192
X34.52111 Y52.62722
X34.73462 Y52.63067
X34.95146 Y52.61198
X35.17638 Y52.56900
X35.41478 Y52.49717
X35.67330 Y52.38874
X35.93383 Y52.24820
X35.93180 Y48.42359
X36.02586 Y48.17912
X35.98237 Y47.77965
X35.87391 Y47.31402
X35.78232 Y47.06889
X35.67874 Y46.85977
X35.56381 Y46.67760
X35.43650 Y46.51577
X35.29474 Y46.36995
X35.11506 Y46.22332
X34.78065 Y46.17150
X34.58342 Y46.16937
X34.20849 Y46.22334
X33.99505 Y46.40198
X33.75977 Y46.67760
X33.61286 Y46.91875
X33.44966 Y47.31402
X33.34120 Y47.77965
X33.29769 Y48.17909
X33.39180 Y48.42359
X33.39012 Y51.57360
G04 P0 ( dwell for no time -- G64 should not smooth over this point )
G00 Z2.00000 ( retract )

G00 X30.85012 Y51.57360 ( rapid move to begin. )
F50.00000
G01 Z-0.30000
G04 P0 ( dwell for no time -- G64 should not smooth over this point )
F100.00000
X30.85012 Y51.57360
X30.85383 Y52.24820
X31.24258 Y52.44820
X31.54624 Y52.55318
X31.76651 Y52.60192
X31.98111 Y52.62722
X32.19462 Y52.63067
X32.41146 Y52.61198
X32.63638 Y52.56900
X32.87478 Y52.49717
X33.13330 Y52.38874
X33.39383 Y52.24820
X33.39180 Y48.42359
X33.29769 Y48.17909
X33.37245 Y47.60922
X33.44966 Y47.31402
X33.61286 Y46.91875
X33.75977 Y46.67760
X33.99505 Y46.40198
X34.20849 Y46.22334
X34.54293 Y46.17150
X34.78065 Y46.17150
X35.11506 Y46.22332
X35.29474 Y46.36995
X35.46754 Y46.55212
X35.67874 Y46.85977
X35.78232 Y47.06889
X35.87391 Y47.31402
X35.95110 Y47.60922
X36.02586 Y48.17912
X35.93180 Y48.42359
X35.93383 Y52.24820
X36.32258 Y52.44820
X36.57008 Y52.53707
X36.84651 Y52.60192
X37.23584 Y52.63166
X37.49146 Y52.61198
X37.89111 Y52.51899
X38.21330 Y52.38874
X38.47383 Y52.24820
X38.86258 Y52.44820
X39.16624 Y52.55318
X39.56123 Y52.62417
X39.77584 Y52.63166
X39.98937 Y52.61736
X40.25638 Y52.56900
X40.49478 Y52.49717
X40.75330 Y52.38874
X41.01383 Y52.24820
X41.00748 Y46.89393
X41.59796 Y45.89878
X41.42031 Y45.17397
X40.73497 Y44.81690
X40.27987 Y44.61392
X37.29131 Y43.38431
X36.69903 Y43.20214
X36.13287 Y43.08738
X35.43134 Y43.02536
X34.80996 Y42.50656
X34.27435 Y42.14570
X33.64280 Y41.82279
X33.36734 Y41.71672
X32.96381 Y41.59945
X32.57768 Y41.52970
X32.20019 Y41.50164
X31.82269 Y41.51324
X31.43656 Y41.56613
X31.03303 Y41.66577
X30.60077 Y41.82279
X29.96923 Y42.14570
X29.43362 Y42.50656
X28.96552 Y42.88733
X28.50967 Y43.31352
X27.80764 Y44.08753
X28.14513 Y44.67273
X28.61533 Y45.34811
X29.86057 Y48.35440
X30.15714 Y48.70228
X30.50842 Y49.18620
X30.75724 Y49.61216
X30.85226 Y49.80612
X30.85012 Y51.57360
G04 P0 ( dwell for no time -- G64 should not smooth over this point )
G00 Z2.00000 ( retract )

G00 X23.23424 Y53.96580 ( rapid move to begin. )
F50.00000
G01 Z-0.30000
G04 P0 ( dwell for no time -- G64 should not smooth over this point )
F100.00000
X23.23424 Y53.96580
X25.77424 Y53.96580
X25.77345 Y51.27807
X25.77048 Y50.91866
X25.70182 Y50.80533
X25.54734 Y50.59314
X25.37874 Y50.40543
X25.19344 Y50.23715
X24.98747 Y50.08498
X24.65903 Y49.89842
X24.17424 Y49.71249
X23.79657 Y49.62075
X23.22901 Y49.54500
X23.23424 Y53.96580
G04 P0 ( dwell for no time -- G64 should not smooth over this point )
G00 Z2.00000 ( retract )

G00 X20.69424 Y53.96580 ( rapid move to begin. )
F50.00000
G01 Z-0.30000
G04 P0 ( dwell for no time -- G64 should not smooth over this point )
F100.00000
X20.69424 Y53.96580
X23.23424 Y53.96580
X23.23246 Y49.81137
X23.22901 Y49.54500
X22.85392 Y49.25651
X22.45672 Y49.01298
X22.00026 Y48.79276
X21.64946 Y48.65821
X21.01931 Y48.47693
X20.69007 Y48.40653
X20.69424 Y53.96580
G04 P0 ( dwell for no time -- G64 should not smooth over this point )
G00 Z2.00000 ( retract )

G00 X18.56026 Y53.96580 ( rapid move to begin. )
F50.00000
G01 Z-0.30000
G04 P0 ( dwell for no time -- G64 should not smooth over this point )
F100.00000
X18.56026 Y53.96580
X20.69424 Y53.96580
X20.69007 Y48.40653
X20.31570 Y48.16893
X19.77616 Y47.88123
X19.50694 Y47.87353
X18.81520 Y47.90002
X18.51284 Y49.07061
X18.37197 Y49.75435
X18.32460 Y49.99243
X18.23684 Y50.66987
X18.21845 Y51.11536
X18.22932 Y52.04398
X18.25203 Y52.32747
X18.32371 Y52.85407
X18.56026 Y53.96580
G04 P0 ( dwell for no time -- G64 should not smooth over this point )
G00 Z2.00000 ( retract )

G00 X12.03071 Y53.96580 ( rapid move to begin. )
F50.00000
G01 Z-0.30000
G04 P0 ( dwell for no time -- G64 should not smooth over this point )
F100.00000
X12.03071 Y53.96580
X12.32616 Y50.95272
X12.56949 Y48.03350
X11.95517 Y47.75461
X11.46896 Y47.56739
X11.07071 Y47.43800
X10.64282 Y47.32299
X10.24455 Y47.23833
X9.59606 Y47.14285
X9.07991 Y47.04663
X8.68169 Y46.95265
X7.80796 Y46.70130
X7.21492 Y46.55997
X6.33521 Y46.40854
X5.38904 Y46.32352
X4.80268 Y46.29396
X3.59618 Y46.30033
X0.62580 Y46.26619
X0.62682 Y53.96458
X12.03071 Y53.96580
G04 P0 ( dwell for no time -- G64 should not smooth over this point )
G00 Z2.00000 ( retract )

G00 X12.03073 Y53.96580 ( rapid move to begin. )
F50.00000
G01 Z-0.30000
G04 P0 ( dwell for no time -- G64 should not smooth over this point )
F100.00000
X12.03073 Y53.96580
X18.56026 Y53.96580
X18.32371 Y52.85407
X18.25203 Y52.32747
X18.21967 Y51.78831
X18.22833 Y50.85636
X18.24736 Y50.56243
X18.32460 Y49.99243
X18.51284 Y49.07061
X18.81520 Y47.90002
X18.28985 Y47.72822
X17.80275 Y47.59733
X17.37796 Y47.50704
X16.93095 Y47.43604
X16.50616 Y47.39139
X16.07820 Y47.36891
X15.65341 Y47.36891
X15.22542 Y47.39139
X14.80063 Y47.43604
X14.35356 Y47.50706
X13.92877 Y47.59733
X13.44185 Y47.72819
X12.56949 Y48.03350
X12.32616 Y50.95272
X12.03073 Y53.96580

G04 P0 ( dwell for no time -- G64 should not smooth over this point )
G00 Z30.000 ( retract )

M5 ( Spindle off. )
M9 ( Coolant off. )
M2 ( Program end. )

