( pcb2gcode 1.3.2 )
( Software-independent Gcode )

G94 ( Millimeters per minute feed rate. )
G21 ( Units == Millimeters. )

G90 ( Absolute coordinates. )
S20000 ( RPM spindle speed. )
F610.00000 ( Feedrate. )

F610.00000 ( Feedrate. )
M3 ( Spindle on clockwise. )
G04 P0 ( dwell for no time -- G64 should not smooth over this point )
G00 Z2.00000 ( retract )

G00 X67.16580 Y41.21891 ( rapid move to begin. )
G01 Z-2.49900 F305.00000 ( plunge. )
G04 P0 ( dwell for no time -- G64 should not smooth over this point )
F610.00000
G01 X67.16580 Y41.21891
X69.55934 Y38.82537
X69.66773 Y38.66316
X69.70580 Y38.47180
X69.70580 Y22.83880
Z-0.59900
X69.70580 Y21.33880
Z-2.49900 F305.00000
F610.00000
G01 X69.70580 Y5.70580
X69.66773 Y5.51446
X69.55934 Y5.35226
X67.16580 Y2.95871
X67.16580 Y0.62580
X67.12773 Y0.43446
X67.08152 Y0.34802
X66.94358 Y0.21008
X66.85714 Y0.16387
X66.66580 Y0.12580
X34.39580 Y0.12580
Z-0.59900
X32.89580 Y0.12580
Z-2.49900 F305.00000
F610.00000
G01 X0.62580 Y0.12580
X0.43444 Y0.16387
X0.27223 Y0.27226
X0.21005 Y0.34802
X0.16385 Y0.43446
X0.12580 Y0.62580
X0.12580 Y26.54580
Z-0.59900
X0.12580 Y28.04580
Z-2.49900 F305.00000
F610.00000
G01 X0.12580 Y53.96580
X0.16385 Y54.15716
X0.27223 Y54.31937
X0.34800 Y54.38155
X0.43444 Y54.42775
X0.62580 Y54.46580
X32.18257 Y54.46111
Z-0.59900
X33.68257 Y54.46088
Z-2.49900 F305.00000
F610.00000
G01 X65.23934 Y54.45620
X65.33311 Y54.42775
X65.49534 Y54.31937
X67.01934 Y52.79537
X67.12773 Y52.63316
X67.15617 Y52.53936
X67.16035 Y47.62913
Z-0.59900
X67.16162 Y46.12913
Z-2.49900 F305.00000
F610.00000
G01 X67.16580 Y41.21891

G04 P0 ( dwell for no time -- G64 should not smooth over this point )
G00 Z30.000 ( retract )

M5 ( Spindle off. )
M9 ( Coolant off. )
M2 ( Program end. )

