( pcb2gcode 1.3.2 )
( Software-independent Gcode )

G94 ( Millimeters per minute feed rate. )
G21 ( Units == Millimeters. )

G90 ( Absolute coordinates. )
S20000 ( RPM spindle speed. )
G64 P0.01016 ( set maximum deviation from commanded toolpath )
F610.00000 ( Feedrate. )

F610.00000 ( Feedrate. )
M3 ( Spindle on clockwise. )
G04 P0 ( dwell for no time -- G64 should not smooth over this point )
G00 Z2.00000 ( retract )

G00 X2.66580 Y41.21891 ( rapid move to begin. )
G01 Z-2.50000 F305.00000 ( plunge. )
G04 P0 ( dwell for no time -- G64 should not smooth over this point )
F610.00000
G01 X2.66580 Y41.21891
X0.27226 Y38.82537
X0.16388 Y38.66316
X0.12580 Y38.47180
X0.12580 Y22.83880
Z-0.60000
X0.12580 Y21.33880
Z-2.50000 F305.00000
F610.00000
G01 X0.12580 Y5.70580
X0.16388 Y5.51446
X0.27226 Y5.35226
X2.66580 Y2.95871
X2.66580 Y0.62580
X2.70388 Y0.43446
X2.75008 Y0.34802
X2.88803 Y0.21008
X2.97446 Y0.16387
X3.16580 Y0.12580
X35.43580 Y0.12580
Z-0.60000
X36.93580 Y0.12580
Z-2.50000 F305.00000
F610.00000
G01 X69.20580 Y0.12580
X69.39716 Y0.16387
X69.55937 Y0.27226
X69.62155 Y0.34802
X69.66775 Y0.43446
X69.70580 Y0.62580
X69.70580 Y26.54580
Z-0.60000
X69.70580 Y28.04580
Z-2.50000 F305.00000
F610.00000
G01 X69.70580 Y53.96580
X69.66775 Y54.15716
X69.55937 Y54.31937
X69.48360 Y54.38155
X69.39716 Y54.42775
X69.20580 Y54.46580
X37.64903 Y54.46111
Z-0.60000
X36.14903 Y54.46088
Z-2.50000 F305.00000
F610.00000
G01 X4.59226 Y54.45620
X4.49849 Y54.42775
X4.33626 Y54.31937
X2.81226 Y52.79537
X2.70388 Y52.63316
X2.67543 Y52.53936
X2.67125 Y47.62913
Z-0.60000
X2.66998 Y46.12913
Z-2.50000 F305.00000
F610.00000
G01 X2.66580 Y41.21891

G04 P0 ( dwell for no time -- G64 should not smooth over this point )
G00 Z30.000 ( retract )

M5 ( Spindle off. )
M9 ( Coolant off. )
M2 ( Program end. )

