( pcb2gcode 1.3.2 )
( Software-independent Gcode )

G94 ( Millimeters per minute feed rate. )
G21 ( Units == Millimeters. )

G90 ( Absolute coordinates. )
S20000 ( RPM spindle speed. )
G64 P0.01016 ( set maximum deviation from commanded toolpath )
F610.00000 ( Feedrate. )

F610.00000 ( Feedrate. )
M3 ( Spindle on clockwise. )
G04 P0 ( dwell for no time -- G64 should not smooth over this point )
G00 Z2.00000 ( retract )

G00 X67.16580 Y2.95876 ( rapid move to begin. )
G01 Z-2.50000 F305.00000 ( plunge. )
G04 P0 ( dwell for no time -- G64 should not smooth over this point )
F610.00000
X67.16580 Y2.95876
X67.15584 Y0.53413
X67.12590 Y0.43438
X67.01739 Y0.27281
X66.85539 Y0.16491
X66.65826 Y0.12580
X34.39576 Y0.12580
Z-0.60000
X32.89576 Y0.12580
Z-2.50000 F305.00000
F610.00000X0.63327 Y0.12580
X0.52778 Y0.13703
X0.34805 Y0.21211
X0.21066 Y0.35016
X0.16471 Y0.43654
X0.12580 Y0.63311
X0.12580 Y26.54763
Z-0.60000
X0.12580 Y28.04763
Z-2.50000 F305.00000
F610.00000X0.12580 Y53.96214
X0.16426 Y54.15447
X0.21178 Y54.24345
X0.35046 Y54.38129
X0.43728 Y54.42727
X0.63309 Y54.46580
X32.13404 Y54.46580
Z-0.60000
X33.63404 Y54.46580
Z-2.50000 F305.00000
F610.00000X65.13499 Y54.46580
X65.32956 Y54.42793
X65.41785 Y54.38139
X67.01398 Y52.80070
X67.12574 Y52.63405
X67.15460 Y52.53966
X67.15943 Y47.62931
Z-0.60000
X67.16091 Y46.12931
Z-2.50000 F305.00000
F610.00000X67.16575 Y41.21896
X69.55414 Y38.83057
X69.66646 Y38.66237
X69.70580 Y38.46433
X69.70580 Y22.83882
Z-0.60000
X69.70580 Y21.33882
Z-2.50000 F305.00000
F610.00000X69.70580 Y5.71332
X69.66625 Y5.51487
X69.55414 Y5.34710
X67.16580 Y2.95876

G04 P0 ( dwell for no time -- G64 should not smooth over this point )
G00 Z30.000 ( retract )

M5 ( Spindle off. )
M9 ( Coolant off. )
M2 ( Program end. )

